%
(Header)
(Generated by gcodetools from Inkscape.)
(Using default header. To add your own header create file "header" in the output dir.)
M3
(Header end.)
G21 (All units in mm)

(Start cutting path id: path24)
(Change tool to Cylindrical cutter)

G00 Z5.000000
G00 X9.843750 Y38.164062

G01 Z-1.000000 F100.0(Penetrate)
G01 X10.087891 Y37.945312 Z-1.000000 F400.000000
G01 X10.332031 Y37.726562 Z-1.000000
G01 X9.904297 Y35.583984 Z-1.000000
G01 X9.476562 Y33.441406 Z-1.000000
G01 X9.167969 Y33.162109 Z-1.000000
G01 X8.859375 Y32.882812 Z-1.000000
G01 X9.087891 Y32.884766 Z-1.000000
G03 X9.316429 Y32.895030 Z-1.000000 I-0.026728 J3.144400
G03 X10.240234 Y32.980469 Z-1.000000 I-3.437356 J42.203531
G02 X11.163074 Y33.070066 Z-1.000000 I7.470860 J-72.151776
G02 X11.326172 Y33.078125 Z-1.000000 I0.179724 J-1.982811
G01 X11.490234 Y33.080075 Z-1.000000
G01 X11.283203 Y33.285153 Z-1.000000
G01 X11.078125 Y33.492184 Z-1.000000
G01 X11.199219 Y33.919918 Z-1.000000
G02 X11.333278 Y34.343892 Z-1.000000 I7.720040 J-2.207871
G02 X11.361328 Y34.388668 Z-1.000000 I0.111534 J-0.038695
G02 X11.406800 Y34.412250 Z-1.000000 I0.059925 J-0.059920
G02 X11.798828 Y34.464840 Z-1.000000 I0.887021 J-5.124752
G02 X12.139459 Y34.347397 Z-1.000000 I0.041371 J-0.432711
G02 X12.355469 Y33.937497 Z-1.000000 I-0.497364 J-0.523969
G02 X12.338101 Y33.693313 Z-1.000000 I-0.531081 J-0.084935
G02 X12.121094 Y33.183590 Z-1.000000 I-2.601104 J0.806327
G03 X11.886253 Y32.708219 Z-1.000000 I5.099730 J-2.815045
G01 X11.902344 Y32.683590 Z-1.000000
G03 X11.958110 Y32.694068 Z-1.000000 I-0.000000 J0.153646
G03 X13.066406 Y33.136715 Z-1.000000 I-25.316751 J64.996586
G01 X14.173828 Y33.589840 Z-1.000000
G01 X13.923828 Y33.712887 Z-1.000000
G01 X13.673828 Y33.837887 Z-1.000000
G01 X13.031250 Y35.683594 Z-1.000000
G02 X12.397600 Y37.530712 Z-1.000000 I205.652682 J71.580959
G02 X12.384766 Y37.597656 Z-1.000000 I0.237146 J0.080166
G02 X12.410216 Y37.649437 Z-1.000000 I0.059047 J0.003123
G02 X12.728516 Y37.835938 Z-1.000000 I1.411943 J-2.044883
G01 X13.074219 Y38.005859 Z-1.000000
G01 X11.822266 Y38.048828 Z-1.000000
G02 X10.570215 Y38.102144 Z-1.000000 I3.102548 J87.587040
G02 X10.207031 Y38.128906 Z-1.000000 I0.379405 J7.626586
G01 X9.843750 Y38.164062 Z-1.000000
G00 Z5.000000

(End cutting path id: path24)


(Start cutting path id: path24)
(Change tool to Cylindrical cutter)

G00 Z5.000000
G00 X9.843750 Y38.164062

G01 Z-1.000000 F100.0(Penetrate)
G01 X10.087891 Y37.945312 Z-1.000000 F400.000000
G01 X10.332031 Y37.726562 Z-1.000000
G01 X9.904297 Y35.583984 Z-1.000000
G01 X9.476562 Y33.441406 Z-1.000000
G01 X9.167969 Y33.162109 Z-1.000000
G01 X8.859375 Y32.882812 Z-1.000000
G01 X9.087891 Y32.884766 Z-1.000000
G03 X9.316429 Y32.895030 Z-1.000000 I-0.026728 J3.144400
G03 X10.240234 Y32.980469 Z-1.000000 I-3.437356 J42.203531
G02 X11.163074 Y33.070066 Z-1.000000 I7.470860 J-72.151776
G02 X11.326172 Y33.078125 Z-1.000000 I0.179724 J-1.982811
G01 X11.490234 Y33.080075 Z-1.000000
G01 X11.283203 Y33.285153 Z-1.000000
G01 X11.078125 Y33.492184 Z-1.000000
G01 X11.199219 Y33.919918 Z-1.000000
G02 X11.333278 Y34.343892 Z-1.000000 I7.720040 J-2.207871
G02 X11.361328 Y34.388668 Z-1.000000 I0.111534 J-0.038695
G02 X11.406800 Y34.412250 Z-1.000000 I0.059925 J-0.059920
G02 X11.798828 Y34.464840 Z-1.000000 I0.887021 J-5.124752
G02 X12.139459 Y34.347397 Z-1.000000 I0.041371 J-0.432711
G02 X12.355469 Y33.937497 Z-1.000000 I-0.497364 J-0.523969
G02 X12.338101 Y33.693313 Z-1.000000 I-0.531081 J-0.084935
G02 X12.121094 Y33.183590 Z-1.000000 I-2.601104 J0.806327
G03 X11.886253 Y32.708219 Z-1.000000 I5.099730 J-2.815045
G01 X11.902344 Y32.683590 Z-1.000000
G03 X11.958110 Y32.694068 Z-1.000000 I-0.000000 J0.153646
G03 X13.066406 Y33.136715 Z-1.000000 I-25.316751 J64.996586
G01 X14.173828 Y33.589840 Z-1.000000
G01 X13.923828 Y33.712887 Z-1.000000
G01 X13.673828 Y33.837887 Z-1.000000
G01 X13.031250 Y35.683594 Z-1.000000
G02 X12.397600 Y37.530712 Z-1.000000 I205.652682 J71.580959
G02 X12.384766 Y37.597656 Z-1.000000 I0.237146 J0.080166
G02 X12.410216 Y37.649437 Z-1.000000 I0.059047 J0.003123
G02 X12.728516 Y37.835938 Z-1.000000 I1.411943 J-2.044883
G01 X13.074219 Y38.005859 Z-1.000000
G01 X11.822266 Y38.048828 Z-1.000000
G02 X10.570215 Y38.102144 Z-1.000000 I3.102548 J87.587040
G02 X10.207031 Y38.128906 Z-1.000000 I0.379405 J7.626586
G01 X9.843750 Y38.164062 Z-1.000000
G00 Z5.000000

(End cutting path id: path24)


(Start cutting path id: path24)
(Change tool to Cylindrical cutter)

G00 Z5.000000
G00 X8.400391 Y38.138672

G01 Z-1.000000 F100.0(Penetrate)
G01 X8.385657 Y38.135048 Z-1.000000 F400.000000
G03 X8.333985 Y37.927734 Z-1.000000 I1.734278 J-0.542362
G02 X8.278775 Y37.707299 Z-1.000000 I-1.863598 J0.349616
G01 X8.259766 Y37.693359 Z-1.000000
G02 X8.231893 Y37.701607 Z-1.000000 I0.000000 J0.051218
G02 X7.964844 Y37.884765 Z-1.000000 I3.423173 J5.277340
G03 X7.111041 Y38.197924 Z-1.000000 I-0.981079 J-1.354341
G03 X6.103516 Y38.027344 Z-1.000000 I-0.161025 J-2.109653
G03 X4.960529 Y36.861735 Z-1.000000 I0.872609 J-1.998880
G03 X4.736328 Y34.720703 Z-1.000000 I3.505896 J-1.449378
G03 X5.331250 Y33.341521 Z-1.000000 I3.325704 J0.616669
G03 X6.169922 Y32.759766 Z-1.000000 I1.259798 J0.920751
G03 X7.110823 Y32.797562 Z-1.000000 I0.412141 J1.470445
G03 X8.121094 Y33.480469 Z-1.000000 I-0.885093 J2.398113
G02 X8.447734 Y33.752344 Z-1.000000 I1.120302 J-1.013815
G01 X8.517578 Y33.724609 Z-1.000000
G02 X8.545338 Y33.572664 Z-1.000000 I-0.921463 J-0.246856
G02 X8.558594 Y33.316406 Z-1.000000 I-2.662224 J-0.266189
G03 X8.573899 Y33.093280 Z-1.000000 I1.721615 J0.006002
G01 X8.589844 Y33.087891 Z-1.000000
G03 X8.763163 Y33.438630 Z-1.000000 I-0.431340 J0.431340
G03 X8.888672 Y35.330078 Z-1.000000 I-14.189452 J1.891448
G01 X8.867427 Y35.344574 Z-1.000000
G03 X8.519531 Y35.185547 Z-1.000000 I1.257205 J-3.210366
G02 X7.722566 Y35.048067 Z-1.000000 I-0.610567 J1.160708
G02 X7.179688 Y35.378906 Z-1.000000 I0.114738 J0.799103
G02 X6.960377 Y36.273583 Z-1.000000 I1.015598 J0.723170
G02 X7.388672 Y36.878906 Z-1.000000 I0.798680 J-0.110922
G02 X7.976332 Y36.917959 Z-1.000000 I0.338647 J-0.654871
G02 X8.576172 Y36.453125 Z-1.000000 I-0.413997 J-1.153684
G01 X8.697266 Y36.275391 Z-1.000000
G01 X8.660156 Y36.507812 Z-1.000000
G02 X8.624567 Y36.738359 Z-1.000000 I21.644520 J3.459300
G02 X8.523438 Y37.425781 Z-1.000000 I193.626848 J28.836269
G03 X8.414631 Y38.111183 Z-1.000000 I-26.128071 J-3.796445
G03 X8.400391 Y38.138672 Z-1.000000 I-0.050413 J-0.008684
G01 X8.400391 Y38.138672 Z-1.000000
G00 Z5.000000

(End cutting path id: path24)


(Start cutting path id: path24)
(Change tool to Cylindrical cutter)

G00 Z5.000000
G00 X8.400391 Y38.138672

G01 Z-1.000000 F100.0(Penetrate)
G01 X8.385657 Y38.135048 Z-1.000000 F400.000000
G03 X8.333985 Y37.927734 Z-1.000000 I1.734278 J-0.542362
G02 X8.278775 Y37.707299 Z-1.000000 I-1.863598 J0.349616
G01 X8.259766 Y37.693359 Z-1.000000
G02 X8.231893 Y37.701607 Z-1.000000 I0.000000 J0.051218
G02 X7.964844 Y37.884765 Z-1.000000 I3.423173 J5.277340
G03 X7.111041 Y38.197924 Z-1.000000 I-0.981079 J-1.354341
G03 X6.103516 Y38.027344 Z-1.000000 I-0.161025 J-2.109653
G03 X4.960529 Y36.861735 Z-1.000000 I0.872609 J-1.998880
G03 X4.736328 Y34.720703 Z-1.000000 I3.505896 J-1.449378
G03 X5.331250 Y33.341521 Z-1.000000 I3.325704 J0.616669
G03 X6.169922 Y32.759766 Z-1.000000 I1.259798 J0.920751
G03 X7.110823 Y32.797562 Z-1.000000 I0.412141 J1.470445
G03 X8.121094 Y33.480469 Z-1.000000 I-0.885093 J2.398113
G02 X8.447734 Y33.752344 Z-1.000000 I1.120302 J-1.013815
G01 X8.517578 Y33.724609 Z-1.000000
G02 X8.545338 Y33.572664 Z-1.000000 I-0.921463 J-0.246856
G02 X8.558594 Y33.316406 Z-1.000000 I-2.662224 J-0.266189
G03 X8.573899 Y33.093280 Z-1.000000 I1.721615 J0.006002
G01 X8.589844 Y33.087891 Z-1.000000
G03 X8.763163 Y33.438630 Z-1.000000 I-0.431340 J0.431340
G03 X8.888672 Y35.330078 Z-1.000000 I-14.189452 J1.891448
G01 X8.867427 Y35.344574 Z-1.000000
G03 X8.519531 Y35.185547 Z-1.000000 I1.257205 J-3.210366
G02 X7.722566 Y35.048067 Z-1.000000 I-0.610567 J1.160708
G02 X7.179688 Y35.378906 Z-1.000000 I0.114738 J0.799103
G02 X6.960377 Y36.273583 Z-1.000000 I1.015598 J0.723170
G02 X7.388672 Y36.878906 Z-1.000000 I0.798680 J-0.110922
G02 X7.976332 Y36.917959 Z-1.000000 I0.338647 J-0.654871
G02 X8.576172 Y36.453125 Z-1.000000 I-0.413997 J-1.153684
G01 X8.697266 Y36.275391 Z-1.000000
G01 X8.660156 Y36.507812 Z-1.000000
G02 X8.624567 Y36.738359 Z-1.000000 I21.644520 J3.459300
G02 X8.523438 Y37.425781 Z-1.000000 I193.626848 J28.836269
G03 X8.414631 Y38.111183 Z-1.000000 I-26.128071 J-3.796445
G03 X8.400391 Y38.138672 Z-1.000000 I-0.050413 J-0.008684
G01 X8.400391 Y38.138672 Z-1.000000
G00 Z5.000000

(End cutting path id: path24)


(Start cutting path id: path24)
(Change tool to Cylindrical cutter)

G00 Z5.000000
G00 X11.589844 Y36.968750

G01 Z-1.000000 F100.0(Penetrate)
G01 X11.612117 Y36.952456 Z-1.000000 F400.000000
G02 X11.796875 Y36.316406 Z-1.000000 I-12.657930 J-4.021693
G01 X11.968750 Y35.664062 Z-1.000000
G01 X11.796875 Y35.582031 Z-1.000000
G02 X11.623574 Y35.502941 Z-1.000000 I-4.288949 J9.168413
G02 X11.419922 Y35.414063 Z-1.000000 I-6.248927 J14.040794
G01 X11.214844 Y35.326172 Z-1.000000
G01 X11.384766 Y36.148437 Z-1.000000
G02 X11.568567 Y36.952134 Z-1.000000 I20.184699 J-4.193250
G01 X11.589844 Y36.968750 Z-1.000000
G01 X11.589844 Y36.968750 Z-1.000000
G00 Z5.000000

(End cutting path id: path24)


(Start cutting path id: path24)
(Change tool to Cylindrical cutter)

G00 Z5.000000
G00 X11.589844 Y36.968750

G01 Z-1.000000 F100.0(Penetrate)
G01 X11.612117 Y36.952456 Z-1.000000 F400.000000
G02 X11.796875 Y36.316406 Z-1.000000 I-12.657930 J-4.021693
G01 X11.968750 Y35.664062 Z-1.000000
G01 X11.796875 Y35.582031 Z-1.000000
G02 X11.623574 Y35.502941 Z-1.000000 I-4.288949 J9.168413
G02 X11.419922 Y35.414063 Z-1.000000 I-6.248927 J14.040794
G01 X11.214844 Y35.326172 Z-1.000000
G01 X11.384766 Y36.148437 Z-1.000000
G02 X11.568567 Y36.952134 Z-1.000000 I20.184699 J-4.193250
G01 X11.589844 Y36.968750 Z-1.000000
G01 X11.589844 Y36.968750 Z-1.000000
G00 Z5.000000

(End cutting path id: path24)


(Start cutting path id: path24)
(Change tool to Cylindrical cutter)

G00 Z5.000000
G00 X8.333984 Y31.470703

G01 Z-1.000000 F100.0(Penetrate)
G03 X8.113414 Y31.213252 Z-1.000000 I0.049894 J-0.265959 F400.000000
G03 X7.898438 Y17.585938 Z-1.000000 I434.631432 J-13.671841
G03 X8.110783 Y3.717896 Z-1.000000 I449.952684 J-0.046046
G03 X8.343750 Y3.064453 Z-1.000000 I1.130332 J0.034739
G03 X8.858845 Y2.545365 Z-1.000000 I2.285166 J1.752476
G03 X9.455078 Y2.199219 Z-1.000000 I1.563336 J2.006258
G01 X9.843750 Y2.039062 Z-1.000000
G01 X21.179688 Y2.039062 Z-1.000000
G03 X32.503322 Y2.100601 Z-1.000000 I0.010635 J1039.898318
G03 X32.789062 Y2.164062 Z-1.000000 I-0.007722 J0.709782
G03 X33.591914 Y2.884407 Z-1.000000 I-0.742468 J1.635086
G03 X33.984375 Y4.183594 Z-1.000000 I-2.445558 J1.447630
G03 X33.848766 Y5.264368 Z-1.000000 I-3.087443 J0.161502
G03 X32.970703 Y7.433594 Z-1.000000 I-13.521391 J-4.210889
G02 X32.049606 Y9.747148 Z-1.000000 I12.584248 J6.350312
G02 X31.777344 Y11.429688 Z-1.000000 I6.297546 J1.882341
G02 X31.794400 Y12.479111 Z-1.000000 I11.247710 J0.342038
G02 X31.886719 Y13.167969 Z-1.000000 I4.936174 J-0.310914
G02 X32.203685 Y14.229552 Z-1.000000 I6.271162 J-1.294325
G02 X32.646484 Y15.089844 Z-1.000000 I4.570920 J-1.808585
G02 X33.085583 Y15.662305 Z-1.000000 I3.772099 J-2.438707
G02 X33.720703 Y16.279297 Z-1.000000 I5.045111 J-4.557958
G03 X33.972551 Y16.741415 Z-1.000000 I-0.476842 J0.559558
G03 X33.833984 Y17.130859 Z-1.000000 I-0.448134 J0.059924
G03 X33.457877 Y17.254714 Z-1.000000 I-0.320951 J-0.341636
G03 X32.863281 Y17.015625 Z-1.000000 I0.144290 J-1.217738
G03 X31.607565 Y15.590228 Z-1.000000 I2.853939 J-3.780019
G03 X30.730469 Y13.292969 Z-1.000000 I6.885079 J-3.944798
G03 X30.563566 Y11.787201 Z-1.000000 I7.514882 J-1.595104
G03 X30.695309 Y10.208984 Z-1.000000 I8.354990 J-0.097165
G03 X31.120930 Y8.725651 Z-1.000000 I7.514367 J1.353410
G03 X32.216794 Y6.404297 Z-1.000000 I19.739438 J7.899241
G02 X32.770180 Y5.093454 Z-1.000000 I-6.126412 J-3.358560
G02 X32.863278 Y4.300781 Z-1.000000 I-2.124757 J-0.651352
G02 X32.798118 Y3.840418 Z-1.000000 I-3.017472 J0.192300
G02 X32.703122 Y3.576172 Z-1.000000 I-1.077783 J0.238264
G02 X32.357117 Y3.294198 Z-1.000000 I-0.493584 J0.252392
G02 X30.972653 Y3.097656 Z-1.000000 I-1.453145 J5.261689
G02 X29.788360 Y3.101203 Z-1.000000 I-0.477908 J38.147370
G02 X29.720700 Y3.121096 Z-1.000000 I0.002471 J0.133409
G01 X29.700678 Y3.172299 Z-1.000000
G02 X29.835935 Y3.537111 Z-1.000000 I2.254298 J-0.628320
G01 X30.011716 Y3.916018 Z-1.000000
G01 X30.029296 Y17.238283 Z-1.000000
G03 X30.015370 Y30.556613 Z-1.000000 I-2831.121513 J3.698902
G03 X29.982426 Y30.734377 Z-1.000000 I-0.505335 J-0.001717
G03 X29.886840 Y30.877982 Z-1.000000 I-0.362990 J-0.137997
G03 X29.689457 Y31.013674 Z-1.000000 I-0.526476 J-0.554429
G03 X29.319072 Y30.936500 Z-1.000000 I-0.134475 J-0.281997
G03 X27.558598 Y28.558596 Z-1.000000 I14.393249 J-12.496633
G02 X26.043553 Y26.182057 Z-1.000000 I-150.575241 J94.320628
G02 X25.992192 Y26.144533 Z-1.000000 I-0.074875 J0.048572
G02 X25.925090 Y26.135612 Z-1.000000 I-0.066531 J0.243612
G02 X18.785160 Y26.160163 Z-1.000000 I6.856654 J3032.292971
G01 X11.642582 Y26.191413 Z-1.000000
G01 X10.273442 Y28.728523 Z-1.000000
G03 X8.873316 Y31.238536 Z-1.000000 I-91.339291 J-49.305048
G03 X8.738281 Y31.390625 Z-1.000000 I-0.436217 J-0.251310
G03 X8.560672 Y31.469583 Z-1.000000 I-0.262896 J-0.352123
G03 X8.333984 Y31.470703 Z-1.000000 I-0.116249 J-0.587580
G01 X8.333984 Y31.470703 Z-1.000000
G00 Z5.000000

(End cutting path id: path24)


(Start cutting path id: path24)
(Change tool to Cylindrical cutter)

G00 Z5.000000
G00 X8.333984 Y31.470703

G01 Z-1.000000 F100.0(Penetrate)
G03 X8.113414 Y31.213252 Z-1.000000 I0.049894 J-0.265959 F400.000000
G03 X7.898438 Y17.585938 Z-1.000000 I434.631432 J-13.671841
G03 X8.110783 Y3.717896 Z-1.000000 I449.952684 J-0.046046
G03 X8.343750 Y3.064453 Z-1.000000 I1.130332 J0.034739
G03 X8.858845 Y2.545365 Z-1.000000 I2.285166 J1.752476
G03 X9.455078 Y2.199219 Z-1.000000 I1.563336 J2.006258
G01 X9.843750 Y2.039062 Z-1.000000
G01 X21.179688 Y2.039062 Z-1.000000
G03 X32.503322 Y2.100601 Z-1.000000 I0.010635 J1039.898318
G03 X32.789062 Y2.164062 Z-1.000000 I-0.007722 J0.709782
G03 X33.591914 Y2.884407 Z-1.000000 I-0.742468 J1.635086
G03 X33.984375 Y4.183594 Z-1.000000 I-2.445558 J1.447630
G03 X33.848766 Y5.264368 Z-1.000000 I-3.087443 J0.161502
G03 X32.970703 Y7.433594 Z-1.000000 I-13.521391 J-4.210889
G02 X32.049606 Y9.747148 Z-1.000000 I12.584248 J6.350312
G02 X31.777344 Y11.429688 Z-1.000000 I6.297546 J1.882341
G02 X31.794400 Y12.479111 Z-1.000000 I11.247710 J0.342038
G02 X31.886719 Y13.167969 Z-1.000000 I4.936174 J-0.310914
G02 X32.203685 Y14.229552 Z-1.000000 I6.271162 J-1.294325
G02 X32.646484 Y15.089844 Z-1.000000 I4.570920 J-1.808585
G02 X33.085583 Y15.662305 Z-1.000000 I3.772099 J-2.438707
G02 X33.720703 Y16.279297 Z-1.000000 I5.045111 J-4.557958
G03 X33.972551 Y16.741415 Z-1.000000 I-0.476842 J0.559558
G03 X33.833984 Y17.130859 Z-1.000000 I-0.448134 J0.059924
G03 X33.457877 Y17.254714 Z-1.000000 I-0.320951 J-0.341636
G03 X32.863281 Y17.015625 Z-1.000000 I0.144290 J-1.217738
G03 X31.607565 Y15.590228 Z-1.000000 I2.853939 J-3.780019
G03 X30.730469 Y13.292969 Z-1.000000 I6.885079 J-3.944798
G03 X30.563566 Y11.787201 Z-1.000000 I7.514882 J-1.595104
G03 X30.695309 Y10.208984 Z-1.000000 I8.354990 J-0.097165
G03 X31.120930 Y8.725651 Z-1.000000 I7.514367 J1.353410
G03 X32.216794 Y6.404297 Z-1.000000 I19.739438 J7.899241
G02 X32.770180 Y5.093454 Z-1.000000 I-6.126412 J-3.358560
G02 X32.863278 Y4.300781 Z-1.000000 I-2.124757 J-0.651352
G02 X32.798118 Y3.840418 Z-1.000000 I-3.017472 J0.192300
G02 X32.703122 Y3.576172 Z-1.000000 I-1.077783 J0.238264
G02 X32.357117 Y3.294198 Z-1.000000 I-0.493584 J0.252392
G02 X30.972653 Y3.097656 Z-1.000000 I-1.453145 J5.261689
G02 X29.788360 Y3.101203 Z-1.000000 I-0.477908 J38.147370
G02 X29.720700 Y3.121096 Z-1.000000 I0.002471 J0.133409
G01 X29.700678 Y3.172299 Z-1.000000
G02 X29.835935 Y3.537111 Z-1.000000 I2.254298 J-0.628320
G01 X30.011716 Y3.916018 Z-1.000000
G01 X30.029296 Y17.238283 Z-1.000000
G03 X30.015370 Y30.556613 Z-1.000000 I-2831.121513 J3.698902
G03 X29.982426 Y30.734377 Z-1.000000 I-0.505335 J-0.001717
G03 X29.886840 Y30.877982 Z-1.000000 I-0.362990 J-0.137997
G03 X29.689457 Y31.013674 Z-1.000000 I-0.526476 J-0.554429
G03 X29.319072 Y30.936500 Z-1.000000 I-0.134475 J-0.281997
G03 X27.558598 Y28.558596 Z-1.000000 I14.393249 J-12.496633
G02 X26.043553 Y26.182057 Z-1.000000 I-150.575241 J94.320628
G02 X25.992192 Y26.144533 Z-1.000000 I-0.074875 J0.048572
G02 X25.925090 Y26.135612 Z-1.000000 I-0.066531 J0.243612
G02 X18.785160 Y26.160163 Z-1.000000 I6.856654 J3032.292971
G01 X11.642582 Y26.191413 Z-1.000000
G01 X10.273442 Y28.728523 Z-1.000000
G03 X8.873316 Y31.238536 Z-1.000000 I-91.339291 J-49.305048
G03 X8.738281 Y31.390625 Z-1.000000 I-0.436217 J-0.251310
G03 X8.560672 Y31.469583 Z-1.000000 I-0.262896 J-0.352123
G03 X8.333984 Y31.470703 Z-1.000000 I-0.116249 J-0.587580
G01 X8.333984 Y31.470703 Z-1.000000
G00 Z5.000000

(End cutting path id: path24)


(Start cutting path id: path24)
(Change tool to Cylindrical cutter)

G00 Z5.000000
G00 X13.996094 Y21.068359

G01 Z-1.000000 F100.0(Penetrate)
G02 X14.725140 Y21.003259 Z-1.000000 I0.154712 J-2.382177 F400.000000
G02 X15.322266 Y20.738281 Z-1.000000 I-0.452192 J-1.824312
G02 X16.191927 Y18.927028 Z-1.000000 I-1.107883 J-1.646350
G02 X15.033203 Y17.277344 Z-1.000000 I-1.989942 J0.165937
G02 X13.583798 Y17.161581 Z-1.000000 I-0.883449 J1.929705
G02 X12.406250 Y18.003906 Z-1.000000 I0.561433 J2.029121
G02 X12.288965 Y19.953603 Z-1.000000 I1.572168 J1.072950
G02 X13.996094 Y21.068359 Z-1.000000 I1.841612 J-0.955710
G01 X13.996094 Y21.068359 Z-1.000000
G00 Z5.000000

(End cutting path id: path24)


(Start cutting path id: path24)
(Change tool to Cylindrical cutter)

G00 Z5.000000
G00 X13.996094 Y21.068359

G01 Z-1.000000 F100.0(Penetrate)
G02 X14.725140 Y21.003259 Z-1.000000 I0.154712 J-2.382177 F400.000000
G02 X15.322266 Y20.738281 Z-1.000000 I-0.452192 J-1.824312
G02 X16.191927 Y18.927028 Z-1.000000 I-1.107883 J-1.646350
G02 X15.033203 Y17.277344 Z-1.000000 I-1.989942 J0.165937
G02 X13.583798 Y17.161581 Z-1.000000 I-0.883449 J1.929705
G02 X12.406250 Y18.003906 Z-1.000000 I0.561433 J2.029121
G02 X12.288965 Y19.953603 Z-1.000000 I1.572168 J1.072950
G02 X13.996094 Y21.068359 Z-1.000000 I1.841612 J-0.955710
G01 X13.996094 Y21.068359 Z-1.000000
G00 Z5.000000

(End cutting path id: path24)


(Start cutting path id: path24)
(Change tool to Cylindrical cutter)

G00 Z5.000000
G00 X14.515625 Y19.869144

G01 Z-1.000000 F100.0(Penetrate)
G03 X14.070870 Y19.940871 Z-1.000000 I-0.352247 J-0.769412 F400.000000
G03 X13.570312 Y19.726565 Z-1.000000 I0.102373 J-0.930848
G03 X13.275657 Y19.036662 Z-1.000000 I0.535740 J-0.636687
G03 X13.656252 Y18.380862 Z-1.000000 I0.849056 J0.054412
G03 X13.876410 Y18.290676 Z-1.000000 I0.339078 J0.513927
G03 X14.220705 Y18.269534 Z-1.000000 I0.251136 J1.275773
G03 X14.549966 Y18.353908 Z-1.000000 I-0.068346 J0.951358
G03 X14.798830 Y18.535159 Z-1.000000 I-0.323818 J0.706087
G03 X14.964623 Y18.795642 Z-1.000000 I-0.653651 J0.599042
G03 X15.017580 Y19.062503 Z-1.000000 I-0.645907 J0.266861
G03 X14.858921 Y19.578846 Z-1.000000 I-0.919530 J0.000000
G03 X14.515627 Y19.869144 Z-1.000000 I-0.690823 J-0.468807
G01 X14.515625 Y19.869144 Z-1.000000
G00 Z5.000000

(End cutting path id: path24)


(Start cutting path id: path24)
(Change tool to Cylindrical cutter)

G00 Z5.000000
G00 X14.515625 Y19.869144

G01 Z-1.000000 F100.0(Penetrate)
G03 X14.070870 Y19.940871 Z-1.000000 I-0.352247 J-0.769412 F400.000000
G03 X13.570312 Y19.726565 Z-1.000000 I0.102373 J-0.930848
G03 X13.275657 Y19.036662 Z-1.000000 I0.535740 J-0.636687
G03 X13.656252 Y18.380862 Z-1.000000 I0.849056 J0.054412
G03 X13.876410 Y18.290676 Z-1.000000 I0.339078 J0.513927
G03 X14.220705 Y18.269534 Z-1.000000 I0.251136 J1.275773
G03 X14.549966 Y18.353908 Z-1.000000 I-0.068346 J0.951358
G03 X14.798830 Y18.535159 Z-1.000000 I-0.323818 J0.706087
G03 X14.964623 Y18.795642 Z-1.000000 I-0.653651 J0.599042
G03 X15.017580 Y19.062503 Z-1.000000 I-0.645907 J0.266861
G03 X14.858921 Y19.578846 Z-1.000000 I-0.919530 J0.000000
G03 X14.515627 Y19.869144 Z-1.000000 I-0.690823 J-0.468807
G01 X14.515625 Y19.869144 Z-1.000000
G00 Z5.000000

(End cutting path id: path24)


(Start cutting path id: path24)
(Change tool to Cylindrical cutter)

G00 Z5.000000
G00 X19.167969 Y15.933600

G01 Z-1.000000 F100.0(Penetrate)
G01 X20.236328 Y15.910160 Z-1.000000 F400.000000
G01 X20.433594 Y15.687504 Z-1.000000
G02 X20.577454 Y15.449992 Z-1.000000 I-0.564953 J-0.504513
G02 X20.593750 Y15.259770 Z-1.000000 I-0.329218 J-0.124012
G02 X20.370832 Y14.910686 Z-1.000000 I-0.549776 J0.105359
G02 X19.896484 Y14.757816 Z-1.000000 I-0.474348 J0.659504
G01 X19.576172 Y14.757816 Z-1.000000
G01 X19.535152 Y14.312504 Z-1.000000
G02 X19.472866 Y13.873795 Z-1.000000 I-4.345899 J0.393231
G02 X19.416012 Y13.707035 Z-1.000000 I-0.634344 J0.123199
G02 X18.939407 Y13.403523 Z-1.000000 I-0.492376 J0.247215
G02 X18.414058 Y13.677735 Z-1.000000 I-0.017383 J0.607046
G02 X18.344269 Y13.861396 Z-1.000000 I0.381611 J0.250097
G02 X18.324218 Y14.287110 Z-1.000000 I2.131661 J0.313731
G01 X18.345698 Y14.724610 Z-1.000000
G01 X18.115229 Y14.742190 Z-1.000000
G02 X17.662118 Y14.836500 Z-1.000000 I0.139142 J1.804139
G02 X17.458979 Y14.968752 Z-1.000000 I0.164425 J0.474694
G02 X17.366546 Y15.510710 Z-1.000000 I0.366397 J0.341351
G02 X17.871089 Y15.912111 Z-1.000000 I0.631656 J-0.276168
G02 X18.103024 Y15.935650 Z-1.000000 I0.255700 J-1.365062
G02 X19.167964 Y15.933591 Z-1.000000 I0.478430 J-27.954598
G01 X19.167969 Y15.933600 Z-1.000000
G00 Z5.000000

(End cutting path id: path24)


(Start cutting path id: path24)
(Change tool to Cylindrical cutter)

G00 Z5.000000
G00 X19.167969 Y15.933600

G01 Z-1.000000 F100.0(Penetrate)
G01 X20.236328 Y15.910160 Z-1.000000 F400.000000
G01 X20.433594 Y15.687504 Z-1.000000
G02 X20.577454 Y15.449992 Z-1.000000 I-0.564953 J-0.504513
G02 X20.593750 Y15.259770 Z-1.000000 I-0.329218 J-0.124012
G02 X20.370832 Y14.910686 Z-1.000000 I-0.549776 J0.105359
G02 X19.896484 Y14.757816 Z-1.000000 I-0.474348 J0.659504
G01 X19.576172 Y14.757816 Z-1.000000
G01 X19.535152 Y14.312504 Z-1.000000
G02 X19.472866 Y13.873795 Z-1.000000 I-4.345899 J0.393231
G02 X19.416012 Y13.707035 Z-1.000000 I-0.634344 J0.123199
G02 X18.939407 Y13.403523 Z-1.000000 I-0.492376 J0.247215
G02 X18.414058 Y13.677735 Z-1.000000 I-0.017383 J0.607046
G02 X18.344269 Y13.861396 Z-1.000000 I0.381611 J0.250097
G02 X18.324218 Y14.287110 Z-1.000000 I2.131661 J0.313731
G01 X18.345698 Y14.724610 Z-1.000000
G01 X18.115229 Y14.742190 Z-1.000000
G02 X17.662118 Y14.836500 Z-1.000000 I0.139142 J1.804139
G02 X17.458979 Y14.968752 Z-1.000000 I0.164425 J0.474694
G02 X17.366546 Y15.510710 Z-1.000000 I0.366397 J0.341351
G02 X17.871089 Y15.912111 Z-1.000000 I0.631656 J-0.276168
G02 X18.103024 Y15.935650 Z-1.000000 I0.255700 J-1.365062
G02 X19.167964 Y15.933591 Z-1.000000 I0.478430 J-27.954598
G01 X19.167969 Y15.933600 Z-1.000000
G00 Z5.000000

(End cutting path id: path24)


(Start cutting path id: path24)
(Change tool to Cylindrical cutter)

G00 Z5.000000
G00 X24.138672 Y19.835944

G01 Z-1.000000 F100.0(Penetrate)
G03 X23.629379 Y19.911477 Z-1.000000 I-0.375195 J-0.775051 F400.000000
G03 X23.148438 Y19.679694 Z-1.000000 I0.144060 J-0.913779
G03 X22.887151 Y18.998112 Z-1.000000 I0.552213 J-0.602567
G03 X23.275391 Y18.378912 Z-1.000000 I0.813996 J0.079063
G03 X23.496355 Y18.283087 Z-1.000000 I0.454585 J0.745555
G03 X23.738281 Y18.250006 Z-1.000000 I0.242789 J0.874400
G03 X24.574712 Y18.900857 Z-1.000000 I0.000848 J0.861798
G03 X24.138672 Y19.835944 Z-1.000000 I-0.791926 J0.199925
G01 X24.138672 Y19.835944 Z-1.000000
G00 Z5.000000

(End cutting path id: path24)


(Start cutting path id: path24)
(Change tool to Cylindrical cutter)

G00 Z5.000000
G00 X24.138672 Y19.835944

G01 Z-1.000000 F100.0(Penetrate)
G03 X23.629379 Y19.911477 Z-1.000000 I-0.375195 J-0.775051 F400.000000
G03 X23.148438 Y19.679694 Z-1.000000 I0.144060 J-0.913779
G03 X22.887151 Y18.998112 Z-1.000000 I0.552213 J-0.602567
G03 X23.275391 Y18.378912 Z-1.000000 I0.813996 J0.079063
G03 X23.496355 Y18.283087 Z-1.000000 I0.454585 J0.745555
G03 X23.738281 Y18.250006 Z-1.000000 I0.242789 J0.874400
G03 X24.574712 Y18.900857 Z-1.000000 I0.000848 J0.861798
G03 X24.138672 Y19.835944 Z-1.000000 I-0.791926 J0.199925
G01 X24.138672 Y19.835944 Z-1.000000
G00 Z5.000000

(End cutting path id: path24)


(Start cutting path id: path24)
(Change tool to Cylindrical cutter)

G00 Z5.000000
G00 X23.302734 Y21.035159

G01 Z-1.000000 F100.0(Penetrate)
G02 X24.283729 Y21.026059 Z-1.000000 I0.470395 J-2.171685 F400.000000
G02 X25.193359 Y20.527347 Z-1.000000 I-0.447421 J-1.894996
G02 X25.463579 Y20.224888 Z-1.000000 I-2.006771 J-2.064807
G02 X25.634766 Y19.955081 Z-1.000000 I-1.356339 J-1.049781
G02 X25.832392 Y19.237165 Z-1.000000 I-1.640925 J-0.837869
G02 X25.732426 Y18.458987 Z-1.000000 I-2.041810 J-0.133214
G02 X25.346005 Y17.795875 Z-1.000000 I-1.772392 J0.588695
G02 X24.683598 Y17.296878 Z-1.000000 I-1.624321 J1.467084
G02 X23.931323 Y17.083706 Z-1.000000 I-0.965623 J1.973680
G02 X23.187504 Y17.150394 Z-1.000000 I-0.195362 J2.002490
G02 X21.908566 Y18.191763 Z-1.000000 I0.567487 J2.002986
G02 X21.810551 Y19.794925 Z-1.000000 I1.750372 J0.911592
G02 X22.416319 Y20.620173 Z-1.000000 I1.764266 J-0.660095
G02 X23.302738 Y21.035159 Z-1.000000 I1.351690 J-1.733039
G01 X23.302734 Y21.035159 Z-1.000000
G00 Z5.000000

(End cutting path id: path24)


(Start cutting path id: path24)
(Change tool to Cylindrical cutter)

G00 Z5.000000
G00 X23.302734 Y21.035159

G01 Z-1.000000 F100.0(Penetrate)
G02 X24.283729 Y21.026059 Z-1.000000 I0.470395 J-2.171685 F400.000000
G02 X25.193359 Y20.527347 Z-1.000000 I-0.447421 J-1.894996
G02 X25.463579 Y20.224888 Z-1.000000 I-2.006771 J-2.064807
G02 X25.634766 Y19.955081 Z-1.000000 I-1.356339 J-1.049781
G02 X25.832392 Y19.237165 Z-1.000000 I-1.640925 J-0.837869
G02 X25.732426 Y18.458987 Z-1.000000 I-2.041810 J-0.133214
G02 X25.346005 Y17.795875 Z-1.000000 I-1.772392 J0.588695
G02 X24.683598 Y17.296878 Z-1.000000 I-1.624321 J1.467084
G02 X23.931323 Y17.083706 Z-1.000000 I-0.965623 J1.973680
G02 X23.187504 Y17.150394 Z-1.000000 I-0.195362 J2.002490
G02 X21.908566 Y18.191763 Z-1.000000 I0.567487 J2.002986
G02 X21.810551 Y19.794925 Z-1.000000 I1.750372 J0.911592
G02 X22.416319 Y20.620173 Z-1.000000 I1.764266 J-0.660095
G02 X23.302738 Y21.035159 Z-1.000000 I1.351690 J-1.733039
G01 X23.302734 Y21.035159 Z-1.000000
G00 Z5.000000

(End cutting path id: path24)


(Start cutting path id: path24)
(Change tool to Cylindrical cutter)

G00 Z5.000000
G00 X26.677734 Y35.595703

G01 Z-1.000000 F100.0(Penetrate)
G02 X26.760489 Y34.966077 Z-1.000000 I-0.793203 J-0.424507 F400.000000
G02 X26.429688 Y34.535156 Z-1.000000 I-0.641865 J0.150303
G02 X26.044381 Y34.501426 Z-1.000000 I-0.232094 J0.433676
G02 X25.892578 Y34.710938 Z-1.000000 I0.068677 J0.209511
G02 X25.976054 Y35.010721 Z-1.000000 I0.580038 J-0.000000
G02 X26.375000 Y35.509766 Z-1.000000 I2.089829 J-1.261665
G02 X26.590172 Y35.632960 Z-1.000000 I0.353750 J-0.368355
G02 X26.677734 Y35.595703 Z-1.000000 I0.020606 J-0.073093
G01 X26.677734 Y35.595703 Z-1.000000
G00 Z5.000000

(End cutting path id: path24)


(Start cutting path id: path24)
(Change tool to Cylindrical cutter)

G00 Z5.000000
G00 X26.677734 Y35.595703

G01 Z-1.000000 F100.0(Penetrate)
G02 X26.760489 Y34.966077 Z-1.000000 I-0.793203 J-0.424507 F400.000000
G02 X26.429688 Y34.535156 Z-1.000000 I-0.641865 J0.150303
G02 X26.044381 Y34.501426 Z-1.000000 I-0.232094 J0.433676
G02 X25.892578 Y34.710938 Z-1.000000 I0.068677 J0.209511
G02 X25.976054 Y35.010721 Z-1.000000 I0.580038 J-0.000000
G02 X26.375000 Y35.509766 Z-1.000000 I2.089829 J-1.261665
G02 X26.590172 Y35.632960 Z-1.000000 I0.353750 J-0.368355
G02 X26.677734 Y35.595703 Z-1.000000 I0.020606 J-0.073093
G01 X26.677734 Y35.595703 Z-1.000000
G00 Z5.000000

(End cutting path id: path24)


(Start cutting path id: path24)
(Change tool to Cylindrical cutter)

G00 Z5.000000
G00 X26.453125 Y38.130862

G01 Z-1.000000 F100.0(Penetrate)
G02 X26.319613 Y38.107218 Z-1.000000 I-0.217543 J0.839645 F400.000000
G02 X25.662109 Y38.052737 Z-1.000000 I-2.225454 J22.863026
G03 X25.006831 Y37.993790 Z-1.000000 I1.049140 J-15.334467
G03 X24.949219 Y37.974612 Z-1.000000 I0.016132 J-0.144583
G01 X24.935798 Y37.937299 Z-1.000000
G03 X25.003909 Y37.824221 Z-1.000000 I0.322622 J0.117275
G02 X25.082316 Y37.639324 Z-1.000000 I-0.226792 J-0.205246
G02 X25.195315 Y34.937502 Z-1.000000 I-54.457756 J-3.630880
G01 X25.224615 Y33.201174 Z-1.000000
G01 X24.990240 Y32.943362 Z-1.000000
G01 X24.757818 Y32.685549 Z-1.000000
G01 X25.044928 Y32.718752 Z-1.000000
G03 X27.172909 Y33.161862 Z-1.000000 I-1.389609 J12.004668
G03 X27.761719 Y33.546875 Z-1.000000 I-0.365725 J1.202059
G03 X28.084715 Y34.144907 Z-1.000000 I-1.222841 J1.046696
G03 X28.187500 Y35.011719 Z-1.000000 I-2.560265 J0.743090
G03 X27.868857 Y36.055536 Z-1.000000 I-2.204552 J-0.102432
G03 X27.273438 Y36.515625 Z-1.000000 I-0.896523 J-0.544904
G03 X26.750127 Y36.497279 Z-1.000000 I-0.234533 J-0.782802
G03 X26.117188 Y36.078125 Z-1.000000 I0.604535 J-1.600330
G01 X25.781250 Y35.724609 Z-1.000000
G01 X25.996094 Y36.789062 Z-1.000000
G02 X26.267036 Y37.819182 Z-1.000000 I8.912410 J-1.793450
G02 X26.396484 Y38.009766 Z-1.000000 I0.395078 J-0.129090
G03 X26.472315 Y38.107702 Z-1.000000 I-0.182512 J0.219642
G01 X26.453124 Y38.130859 Z-1.000000
G01 X26.453125 Y38.130862 Z-1.000000
G00 Z5.000000

(End cutting path id: path24)


(Start cutting path id: path24)
(Change tool to Cylindrical cutter)

G00 Z5.000000
G00 X26.453125 Y38.130862

G01 Z-1.000000 F100.0(Penetrate)
G02 X26.319613 Y38.107218 Z-1.000000 I-0.217543 J0.839645 F400.000000
G02 X25.662109 Y38.052737 Z-1.000000 I-2.225454 J22.863026
G03 X25.006831 Y37.993790 Z-1.000000 I1.049140 J-15.334467
G03 X24.949219 Y37.974612 Z-1.000000 I0.016132 J-0.144583
G01 X24.935798 Y37.937299 Z-1.000000
G03 X25.003909 Y37.824221 Z-1.000000 I0.322622 J0.117275
G02 X25.082316 Y37.639324 Z-1.000000 I-0.226792 J-0.205246
G02 X25.195315 Y34.937502 Z-1.000000 I-54.457756 J-3.630880
G01 X25.224615 Y33.201174 Z-1.000000
G01 X24.990240 Y32.943362 Z-1.000000
G01 X24.757818 Y32.685549 Z-1.000000
G01 X25.044928 Y32.718752 Z-1.000000
G03 X27.172909 Y33.161862 Z-1.000000 I-1.389609 J12.004668
G03 X27.761719 Y33.546875 Z-1.000000 I-0.365725 J1.202059
G03 X28.084715 Y34.144907 Z-1.000000 I-1.222841 J1.046696
G03 X28.187500 Y35.011719 Z-1.000000 I-2.560265 J0.743090
G03 X27.868857 Y36.055536 Z-1.000000 I-2.204552 J-0.102432
G03 X27.273438 Y36.515625 Z-1.000000 I-0.896523 J-0.544904
G03 X26.750127 Y36.497279 Z-1.000000 I-0.234533 J-0.782802
G03 X26.117188 Y36.078125 Z-1.000000 I0.604535 J-1.600330
G01 X25.781250 Y35.724609 Z-1.000000
G01 X25.996094 Y36.789062 Z-1.000000
G02 X26.267036 Y37.819182 Z-1.000000 I8.912410 J-1.793450
G02 X26.396484 Y38.009766 Z-1.000000 I0.395078 J-0.129090
G03 X26.472315 Y38.107702 Z-1.000000 I-0.182512 J0.219642
G01 X26.453124 Y38.130859 Z-1.000000
G01 X26.453125 Y38.130862 Z-1.000000
G00 Z5.000000

(End cutting path id: path24)


(Start cutting path id: path24)
(Change tool to Cylindrical cutter)

G00 Z5.000000
G00 X29.634766 Y36.542969

G01 Z-1.000000 F100.0(Penetrate)
G03 X29.109830 Y36.231304 Z-1.000000 I0.504657 J-1.447901 F400.000000
G03 X28.687500 Y35.664062 Z-1.000000 I1.227814 J-1.354988
G03 X28.448621 Y34.791015 Z-1.000000 I2.302748 J-1.099270
G03 X28.531250 Y33.896484 Z-1.000000 I2.486969 J-0.221358
G03 X28.922527 Y33.216373 Z-1.000000 I1.532548 J0.429086
G03 X29.550781 Y32.847656 Z-1.000000 I0.983061 J0.955433
G03 X29.882524 Y32.775529 Z-1.000000 I0.921085 J3.437502
G03 X30.115234 Y32.753906 Z-1.000000 I0.262755 J1.564752
G03 X30.711232 Y32.842052 Z-1.000000 I0.034538 J1.825470
G03 X31.349609 Y33.152344 Z-1.000000 I-0.782894 J2.422509
G01 X31.632812 Y33.343750 Z-1.000000
G01 X31.759766 Y33.062500 Z-1.000000
G01 X31.886719 Y32.783203 Z-1.000000
G01 X31.849609 Y33.474609 Z-1.000000
G03 X31.803969 Y34.164628 Z-1.000000 I-24.673535 J-1.285466
G03 X31.787109 Y34.251953 Z-1.000000 I-0.401297 J-0.032189
G01 X31.745577 Y34.267131 Z-1.000000
G03 X31.552734 Y34.101562 Z-1.000000 I0.487587 J-0.762997
G02 X30.888653 Y33.725023 Z-1.000000 I-0.873805 J0.767209
G02 X30.109375 Y33.837891 Z-1.000000 I-0.222257 J1.212096
G02 X29.787914 Y34.008227 Z-1.000000 I4.506813 J8.893846
G01 X29.781250 Y34.019531 Z-1.000000
G01 X29.788806 Y34.027362 Z-1.000000
G02 X30.226562 Y34.035156 Z-1.000000 I0.437756 J-12.288505
G03 X30.657413 Y34.086731 Z-1.000000 I0.000000 J1.825415
G03 X30.978516 Y34.216797 Z-1.000000 I-0.279928 J1.152480
G03 X31.600519 Y35.346240 Z-1.000000 I-0.639787 J1.088336
G03 X30.906250 Y36.439453 Z-1.000000 I-1.273145 J-0.041477
G03 X30.238334 Y36.624175 Z-1.000000 I-0.785130 J-1.538979
G03 X29.634766 Y36.542969 Z-1.000000 I-0.103153 J-1.516930
G01 X29.634766 Y36.542969 Z-1.000000
G00 Z5.000000

(End cutting path id: path24)


(Start cutting path id: path24)
(Change tool to Cylindrical cutter)

G00 Z5.000000
G00 X29.634766 Y36.542969

G01 Z-1.000000 F100.0(Penetrate)
G03 X29.109830 Y36.231304 Z-1.000000 I0.504657 J-1.447901 F400.000000
G03 X28.687500 Y35.664062 Z-1.000000 I1.227814 J-1.354988
G03 X28.448621 Y34.791015 Z-1.000000 I2.302748 J-1.099270
G03 X28.531250 Y33.896484 Z-1.000000 I2.486969 J-0.221358
G03 X28.922527 Y33.216373 Z-1.000000 I1.532548 J0.429086
G03 X29.550781 Y32.847656 Z-1.000000 I0.983061 J0.955433
G03 X29.882524 Y32.775529 Z-1.000000 I0.921085 J3.437502
G03 X30.115234 Y32.753906 Z-1.000000 I0.262755 J1.564752
G03 X30.711232 Y32.842052 Z-1.000000 I0.034538 J1.825470
G03 X31.349609 Y33.152344 Z-1.000000 I-0.782894 J2.422509
G01 X31.632812 Y33.343750 Z-1.000000
G01 X31.759766 Y33.062500 Z-1.000000
G01 X31.886719 Y32.783203 Z-1.000000
G01 X31.849609 Y33.474609 Z-1.000000
G03 X31.803969 Y34.164628 Z-1.000000 I-24.673535 J-1.285466
G03 X31.787109 Y34.251953 Z-1.000000 I-0.401297 J-0.032189
G01 X31.745577 Y34.267131 Z-1.000000
G03 X31.552734 Y34.101562 Z-1.000000 I0.487587 J-0.762997
G02 X30.888653 Y33.725023 Z-1.000000 I-0.873805 J0.767209
G02 X30.109375 Y33.837891 Z-1.000000 I-0.222257 J1.212096
G02 X29.787914 Y34.008227 Z-1.000000 I4.506813 J8.893846
G01 X29.781250 Y34.019531 Z-1.000000
G01 X29.788806 Y34.027362 Z-1.000000
G02 X30.226562 Y34.035156 Z-1.000000 I0.437756 J-12.288505
G03 X30.657413 Y34.086731 Z-1.000000 I0.000000 J1.825415
G03 X30.978516 Y34.216797 Z-1.000000 I-0.279928 J1.152480
G03 X31.600519 Y35.346240 Z-1.000000 I-0.639787 J1.088336
G03 X30.906250 Y36.439453 Z-1.000000 I-1.273145 J-0.041477
G03 X30.238334 Y36.624175 Z-1.000000 I-0.785130 J-1.538979
G03 X29.634766 Y36.542969 Z-1.000000 I-0.103153 J-1.516930
G01 X29.634766 Y36.542969 Z-1.000000
G00 Z5.000000

(End cutting path id: path24)


(Start cutting path id: path24)
(Change tool to Cylindrical cutter)

G00 Z5.000000
G00 X29.953125 Y36.076172

G01 Z-1.000000 F100.0(Penetrate)
G02 X30.011748 Y35.997371 Z-1.000000 I-0.065926 J-0.110251 F400.000000
G02 X30.044925 Y35.730469 Z-1.000000 I-1.056992 J-0.266902
G02 X29.997160 Y35.430206 Z-1.000000 I-0.967646 J0.000000
G02 X29.892581 Y35.265625 Z-1.000000 I-0.373828 J0.122023
G02 X29.727563 Y35.156089 Z-1.000000 I-0.405097 J0.431217
G02 X29.580081 Y35.126953 Z-1.000000 I-0.138045 J0.310932
G02 X29.201505 Y35.216582 Z-1.000000 I0.026581 J0.956612
G02 X29.123050 Y35.339844 Z-1.000000 I0.057603 J0.123262
G02 X29.219028 Y35.620590 Z-1.000000 I0.458596 J0.000000
G02 X29.621097 Y35.982422 Z-1.000000 I1.199784 J-0.928899
G02 X29.857020 Y36.088217 Z-1.000000 I0.516290 J-0.835373
G02 X29.953128 Y36.076172 Z-1.000000 I0.034355 J-0.115326
G01 X29.953125 Y36.076172 Z-1.000000
G00 Z5.000000

(End cutting path id: path24)


(Start cutting path id: path24)
(Change tool to Cylindrical cutter)

G00 Z5.000000
G00 X29.953125 Y36.076172

G01 Z-1.000000 F100.0(Penetrate)
G02 X30.011748 Y35.997371 Z-1.000000 I-0.065926 J-0.110251 F400.000000
G02 X30.044925 Y35.730469 Z-1.000000 I-1.056992 J-0.266902
G02 X29.997160 Y35.430206 Z-1.000000 I-0.967646 J0.000000
G02 X29.892581 Y35.265625 Z-1.000000 I-0.373828 J0.122023
G02 X29.727563 Y35.156089 Z-1.000000 I-0.405097 J0.431217
G02 X29.580081 Y35.126953 Z-1.000000 I-0.138045 J0.310932
G02 X29.201505 Y35.216582 Z-1.000000 I0.026581 J0.956612
G02 X29.123050 Y35.339844 Z-1.000000 I0.057603 J0.123262
G02 X29.219028 Y35.620590 Z-1.000000 I0.458596 J0.000000
G02 X29.621097 Y35.982422 Z-1.000000 I1.199784 J-0.928899
G02 X29.857020 Y36.088217 Z-1.000000 I0.516290 J-0.835373
G02 X29.953128 Y36.076172 Z-1.000000 I0.034355 J-0.115326
G01 X29.953125 Y36.076172 Z-1.000000
G00 Z5.000000

(End cutting path id: path24)


(Start cutting path id: path24)
(Change tool to Cylindrical cutter)

G00 Z5.000000
G00 X33.339844 Y36.507812

G01 Z-1.000000 F100.0(Penetrate)
G03 X33.003331 Y36.827913 Z-1.000000 I-0.314253 J0.006568 F400.000000
G03 X32.109375 Y36.419922 Z-1.000000 I0.099497 J-1.401383
G01 X32.110129 Y36.387895 Z-1.000000
G03 X32.236328 Y36.304687 Z-1.000000 I0.328675 J0.361187
G02 X32.335398 Y36.189881 Z-1.000000 I-0.075194 J-0.165035
G02 X32.375000 Y35.824218 Z-1.000000 I-1.028005 J-0.296312
G03 X32.350808 Y35.418986 Z-1.000000 I38.715435 J-2.514622
G03 X32.289060 Y34.242187 Z-1.000000 I298.086414 J-16.230935
G02 X32.170606 Y33.091545 Z-1.000000 I-11.083355 J0.559565
G02 X32.080076 Y32.906250 Z-1.000000 I-0.345046 J0.053817
G01 X31.929686 Y32.746093 Z-1.000000
G01 X32.289060 Y32.779296 Z-1.000000
G02 X32.648540 Y32.811856 Z-1.000000 I4.228783 J-44.687518
G02 X33.156248 Y32.853515 Z-1.000000 I4.947438 J-57.180802
G01 X33.664062 Y32.892578 Z-1.000000
G01 X33.492188 Y33.154297 Z-1.000000
G02 X33.278015 Y33.729770 Z-1.000000 I1.131173 J0.748577
G02 X33.337891 Y34.355469 Z-1.000000 I1.407157 J0.181058
G02 X33.963014 Y34.867952 Z-1.000000 I0.716485 J-0.236461
G02 X34.808594 Y34.535156 Z-1.000000 I0.115533 J-0.947089
G01 X34.974609 Y34.339844 Z-1.000000
G01 X35.179688 Y35.398438 Z-1.000000
G03 X35.369869 Y36.453647 Z-1.000000 I-36.893163 J7.194029
G01 X35.359375 Y36.486328 Z-1.000000
G01 X35.334235 Y36.486175 Z-1.000000
G03 X35.187500 Y36.310547 Z-1.000000 I1.061677 J-1.036132
G01 X35.042969 Y36.107422 Z-1.000000
G01 X34.916016 Y36.269531 Z-1.000000
G03 X34.769850 Y36.404743 Z-1.000000 I-0.497951 J-0.391685
G03 X34.562500 Y36.505859 Z-1.000000 I-0.476025 J-0.712981
G03 X34.094392 Y36.507300 Z-1.000000 I-0.236260 J-0.715874
G03 X33.503906 Y36.164062 Z-1.000000 I0.494726 J-1.530635
G01 X33.146484 Y35.837891 Z-1.000000
G01 X33.242184 Y36.156250 Z-1.000000
G03 X33.334908 Y36.474457 Z-1.000000 I-14.379874 J4.362828
G03 X33.339844 Y36.507812 Z-1.000000 I-0.129627 J0.036226
G01 X33.339844 Y36.507812 Z-1.000000
G00 Z5.000000

(End cutting path id: path24)


(Start cutting path id: path24)
(Change tool to Cylindrical cutter)

G00 Z5.000000
G00 X33.339844 Y36.507812

G01 Z-1.000000 F100.0(Penetrate)
G03 X33.003331 Y36.827913 Z-1.000000 I-0.314253 J0.006568 F400.000000
G03 X32.109375 Y36.419922 Z-1.000000 I0.099497 J-1.401383
G01 X32.110129 Y36.387895 Z-1.000000
G03 X32.236328 Y36.304687 Z-1.000000 I0.328675 J0.361187
G02 X32.335398 Y36.189881 Z-1.000000 I-0.075194 J-0.165035
G02 X32.375000 Y35.824218 Z-1.000000 I-1.028005 J-0.296312
G03 X32.350808 Y35.418986 Z-1.000000 I38.715435 J-2.514622
G03 X32.289060 Y34.242187 Z-1.000000 I298.086414 J-16.230935
G02 X32.170606 Y33.091545 Z-1.000000 I-11.083355 J0.559565
G02 X32.080076 Y32.906250 Z-1.000000 I-0.345046 J0.053817
G01 X31.929686 Y32.746093 Z-1.000000
G01 X32.289060 Y32.779296 Z-1.000000
G02 X32.648540 Y32.811856 Z-1.000000 I4.228783 J-44.687518
G02 X33.156248 Y32.853515 Z-1.000000 I4.947438 J-57.180802
G01 X33.664062 Y32.892578 Z-1.000000
G01 X33.492188 Y33.154297 Z-1.000000
G02 X33.278015 Y33.729770 Z-1.000000 I1.131173 J0.748577
G02 X33.337891 Y34.355469 Z-1.000000 I1.407157 J0.181058
G02 X33.963014 Y34.867952 Z-1.000000 I0.716485 J-0.236461
G02 X34.808594 Y34.535156 Z-1.000000 I0.115533 J-0.947089
G01 X34.974609 Y34.339844 Z-1.000000
G01 X35.179688 Y35.398438 Z-1.000000
G03 X35.369869 Y36.453647 Z-1.000000 I-36.893163 J7.194029
G01 X35.359375 Y36.486328 Z-1.000000
G01 X35.334235 Y36.486175 Z-1.000000
G03 X35.187500 Y36.310547 Z-1.000000 I1.061677 J-1.036132
G01 X35.042969 Y36.107422 Z-1.000000
G01 X34.916016 Y36.269531 Z-1.000000
G03 X34.769850 Y36.404743 Z-1.000000 I-0.497951 J-0.391685
G03 X34.562500 Y36.505859 Z-1.000000 I-0.476025 J-0.712981
G03 X34.094392 Y36.507300 Z-1.000000 I-0.236260 J-0.715874
G03 X33.503906 Y36.164062 Z-1.000000 I0.494726 J-1.530635
G01 X33.146484 Y35.837891 Z-1.000000
G01 X33.242184 Y36.156250 Z-1.000000
G03 X33.334908 Y36.474457 Z-1.000000 I-14.379874 J4.362828
G03 X33.339844 Y36.507812 Z-1.000000 I-0.129627 J0.036226
G01 X33.339844 Y36.507812 Z-1.000000
G00 Z5.000000

(End cutting path id: path24)


(Start cutting path id: path24)
(Change tool to Cylindrical cutter)

G00 Z5.000000
G00 X22.728516 Y36.605469

G01 Z-1.000000 F100.0(Penetrate)
G01 X22.724523 Y36.608985 Z-1.000000 F400.000000
G03 X22.039062 Y36.517578 Z-1.000000 I7.397092 J-58.086116
G03 X21.398611 Y36.398533 Z-1.000000 I0.992675 J-7.122856
G01 X21.384766 Y36.365234 Z-1.000000
G03 X21.430018 Y36.327781 Z-1.000000 I0.078062 J0.048253
G03 X21.531250 Y36.308593 Z-1.000000 I0.103857 J0.271295
G02 X21.672983 Y36.189354 Z-1.000000 I-0.001318 J-0.145421
G02 X21.611330 Y35.873046 Z-1.000000 I-0.434365 J-0.079499
G03 X21.173729 Y34.617430 Z-1.000000 I2.454379 J-1.559451
G03 X21.369143 Y33.556640 Z-1.000000 I1.895744 J-0.199169
G03 X21.756903 Y33.051808 Z-1.000000 I1.535564 J0.778128
G03 X22.250002 Y32.767577 Z-1.000000 I0.923415 J1.032148
G03 X23.190483 Y32.739775 Z-1.000000 I0.517444 J1.582905
G03 X24.058596 Y33.242187 Z-1.000000 I-0.481444 J1.833093
G03 X24.609288 Y34.511312 Z-1.000000 I-1.365774 J1.346669
G03 X24.164062 Y35.875000 Z-1.000000 I-2.056215 J0.083197
G01 X23.958984 Y36.130859 Z-1.000000
G01 X24.107422 Y36.251953 Z-1.000000
G02 X24.257157 Y36.370005 Z-1.000000 I4.594327 J-5.673358
G02 X24.425781 Y36.496094 Z-1.000000 I5.121819 J-6.673853
G01 X24.410846 Y36.540525 Z-1.000000
G03 X23.867188 Y36.486324 Z-1.000000 I0.064489 J-3.400494
G01 X23.140625 Y36.355464 Z-1.000000
G01 X23.230465 Y36.136714 Z-1.000000
G02 X23.308531 Y35.251615 Z-1.000000 I-1.353020 J-0.565329
G02 X22.949215 Y34.882808 Z-1.000000 I-0.478727 J0.106970
G02 X22.473670 Y35.167109 Z-1.000000 I-0.095434 J0.380239
G02 X22.589840 Y36.308589 Z-1.000000 I1.628195 J0.410948
G03 X22.726804 Y36.597731 Z-1.000000 I-18.791013 J9.078174
G01 X22.728512 Y36.605464 Z-1.000000
G01 X22.728516 Y36.605469 Z-1.000000
G00 Z5.000000

(End cutting path id: path24)


(Start cutting path id: path24)
(Change tool to Cylindrical cutter)

G00 Z5.000000
G00 X22.728516 Y36.605469

G01 Z-1.000000 F100.0(Penetrate)
G01 X22.724523 Y36.608985 Z-1.000000 F400.000000
G03 X22.039062 Y36.517578 Z-1.000000 I7.397092 J-58.086116
G03 X21.398611 Y36.398533 Z-1.000000 I0.992675 J-7.122856
G01 X21.384766 Y36.365234 Z-1.000000
G03 X21.430018 Y36.327781 Z-1.000000 I0.078062 J0.048253
G03 X21.531250 Y36.308593 Z-1.000000 I0.103857 J0.271295
G02 X21.672983 Y36.189354 Z-1.000000 I-0.001318 J-0.145421
G02 X21.611330 Y35.873046 Z-1.000000 I-0.434365 J-0.079499
G03 X21.173729 Y34.617430 Z-1.000000 I2.454379 J-1.559451
G03 X21.369143 Y33.556640 Z-1.000000 I1.895744 J-0.199169
G03 X21.756903 Y33.051808 Z-1.000000 I1.535564 J0.778128
G03 X22.250002 Y32.767577 Z-1.000000 I0.923415 J1.032148
G03 X23.190483 Y32.739775 Z-1.000000 I0.517444 J1.582905
G03 X24.058596 Y33.242187 Z-1.000000 I-0.481444 J1.833093
G03 X24.609288 Y34.511312 Z-1.000000 I-1.365774 J1.346669
G03 X24.164062 Y35.875000 Z-1.000000 I-2.056215 J0.083197
G01 X23.958984 Y36.130859 Z-1.000000
G01 X24.107422 Y36.251953 Z-1.000000
G02 X24.257157 Y36.370005 Z-1.000000 I4.594327 J-5.673358
G02 X24.425781 Y36.496094 Z-1.000000 I5.121819 J-6.673853
G01 X24.410846 Y36.540525 Z-1.000000
G03 X23.867188 Y36.486324 Z-1.000000 I0.064489 J-3.400494
G01 X23.140625 Y36.355464 Z-1.000000
G01 X23.230465 Y36.136714 Z-1.000000
G02 X23.308531 Y35.251615 Z-1.000000 I-1.353020 J-0.565329
G02 X22.949215 Y34.882808 Z-1.000000 I-0.478727 J0.106970
G02 X22.473670 Y35.167109 Z-1.000000 I-0.095434 J0.380239
G02 X22.589840 Y36.308589 Z-1.000000 I1.628195 J0.410948
G03 X22.726804 Y36.597731 Z-1.000000 I-18.791013 J9.078174
G01 X22.728512 Y36.605464 Z-1.000000
G01 X22.728516 Y36.605469 Z-1.000000
G00 Z5.000000

(End cutting path id: path24)


(Start cutting path id: path24)
(Change tool to Cylindrical cutter)

G00 Z5.000000
G00 X19.416016 Y36.617188

G01 Z-1.000000 F100.0(Penetrate)
G03 X18.994948 Y36.572418 Z-1.000000 I-0.080359 J-1.246709 F400.000000
G03 X18.587891 Y36.375000 Z-1.000000 I0.353628 J-1.247513
G03 X18.362046 Y36.153980 Z-1.000000 I0.629880 J-0.869526
G03 X18.105469 Y35.738281 Z-1.000000 I2.041118 J-1.546849
G03 X17.951139 Y35.275403 Z-1.000000 I1.618579 J-0.796822
G03 X17.884766 Y34.564453 Z-1.000000 I3.774436 J-0.710949
G03 X17.935979 Y33.850796 Z-1.000000 I4.998049 J-0.000000
G03 X18.027344 Y33.574219 Z-1.000000 I0.824282 J0.118915
G03 X18.390634 Y33.104391 Z-1.000000 I1.606625 J0.866940
G03 X18.816406 Y32.841797 Z-1.000000 I0.872246 J0.937792
G03 X19.392947 Y32.756314 Z-1.000000 I0.489896 J1.317129
G03 X19.957031 Y32.912109 Z-1.000000 I-0.087456 J1.415737
G03 X20.152980 Y33.038303 Z-1.000000 I-0.564827 J1.092267
G03 X20.419922 Y33.275390 Z-1.000000 I-1.867769 J2.371789
G01 X20.673828 Y33.527343 Z-1.000000
G01 X20.810547 Y33.189453 Z-1.000000
G01 X20.949219 Y32.849609 Z-1.000000
G01 X20.914059 Y33.441406 Z-1.000000
G03 X20.871799 Y34.033963 Z-1.000000 I-24.489886 J-1.448764
G03 X20.845699 Y34.251953 Z-1.000000 I-3.051112 J-0.254761
G01 X20.810547 Y34.468750 Z-1.000000
G01 X20.611328 Y34.302734 Z-1.000000
G02 X20.401341 Y34.166146 Z-1.000000 I-0.658313 J0.782360
G02 X20.269531 Y34.136719 Z-1.000000 I-0.127564 J0.261472
G02 X19.753718 Y34.520525 Z-1.000000 I0.008043 J0.549325
G02 X19.925781 Y35.224609 Z-1.000000 I0.665786 J0.210363
G02 X20.237257 Y35.360052 Z-1.000000 I0.327671 J-0.327672
G02 X20.580078 Y35.248046 Z-1.000000 I0.018342 J-0.524509
G01 X20.753906 Y35.111328 Z-1.000000
G01 X20.712886 Y35.496093 Z-1.000000
G03 X20.669277 Y35.881065 Z-1.000000 I-45.052472 J-4.908495
G03 X20.625000 Y36.244141 Z-1.000000 I-42.442063 J-4.991587
G01 X20.580080 Y36.605469 Z-1.000000
G01 X20.527350 Y36.324219 Z-1.000000
G01 X20.476570 Y36.041016 Z-1.000000
G01 X20.222664 Y36.271484 Z-1.000000
G03 X19.829430 Y36.520598 Z-1.000000 I-0.922189 J-1.020786
G03 X19.416016 Y36.617188 Z-1.000000 I-0.496466 J-1.191900
G01 X19.416016 Y36.617188 Z-1.000000
G00 Z5.000000

(End cutting path id: path24)


(Start cutting path id: path24)
(Change tool to Cylindrical cutter)

G00 Z5.000000
G00 X19.416016 Y36.617188

G01 Z-1.000000 F100.0(Penetrate)
G03 X18.994948 Y36.572418 Z-1.000000 I-0.080359 J-1.246709 F400.000000
G03 X18.587891 Y36.375000 Z-1.000000 I0.353628 J-1.247513
G03 X18.362046 Y36.153980 Z-1.000000 I0.629880 J-0.869526
G03 X18.105469 Y35.738281 Z-1.000000 I2.041118 J-1.546849
G03 X17.951139 Y35.275403 Z-1.000000 I1.618579 J-0.796822
G03 X17.884766 Y34.564453 Z-1.000000 I3.774436 J-0.710949
G03 X17.935979 Y33.850796 Z-1.000000 I4.998049 J-0.000000
G03 X18.027344 Y33.574219 Z-1.000000 I0.824282 J0.118915
G03 X18.390634 Y33.104391 Z-1.000000 I1.606625 J0.866940
G03 X18.816406 Y32.841797 Z-1.000000 I0.872246 J0.937792
G03 X19.392947 Y32.756314 Z-1.000000 I0.489896 J1.317129
G03 X19.957031 Y32.912109 Z-1.000000 I-0.087456 J1.415737
G03 X20.152980 Y33.038303 Z-1.000000 I-0.564827 J1.092267
G03 X20.419922 Y33.275390 Z-1.000000 I-1.867769 J2.371789
G01 X20.673828 Y33.527343 Z-1.000000
G01 X20.810547 Y33.189453 Z-1.000000
G01 X20.949219 Y32.849609 Z-1.000000
G01 X20.914059 Y33.441406 Z-1.000000
G03 X20.871799 Y34.033963 Z-1.000000 I-24.489886 J-1.448764
G03 X20.845699 Y34.251953 Z-1.000000 I-3.051112 J-0.254761
G01 X20.810547 Y34.468750 Z-1.000000
G01 X20.611328 Y34.302734 Z-1.000000
G02 X20.401341 Y34.166146 Z-1.000000 I-0.658313 J0.782360
G02 X20.269531 Y34.136719 Z-1.000000 I-0.127564 J0.261472
G02 X19.753718 Y34.520525 Z-1.000000 I0.008043 J0.549325
G02 X19.925781 Y35.224609 Z-1.000000 I0.665786 J0.210363
G02 X20.237257 Y35.360052 Z-1.000000 I0.327671 J-0.327672
G02 X20.580078 Y35.248046 Z-1.000000 I0.018342 J-0.524509
G01 X20.753906 Y35.111328 Z-1.000000
G01 X20.712886 Y35.496093 Z-1.000000
G03 X20.669277 Y35.881065 Z-1.000000 I-45.052472 J-4.908495
G03 X20.625000 Y36.244141 Z-1.000000 I-42.442063 J-4.991587
G01 X20.580080 Y36.605469 Z-1.000000
G01 X20.527350 Y36.324219 Z-1.000000
G01 X20.476570 Y36.041016 Z-1.000000
G01 X20.222664 Y36.271484 Z-1.000000
G03 X19.829430 Y36.520598 Z-1.000000 I-0.922189 J-1.020786
G03 X19.416016 Y36.617188 Z-1.000000 I-0.496466 J-1.191900
G01 X19.416016 Y36.617188 Z-1.000000
G00 Z5.000000

(End cutting path id: path24)


(Start cutting path id: path24)
(Change tool to Cylindrical cutter)

G00 Z5.000000
G00 X18.292969 Y38.128912

G01 Z-1.000000 F100.0(Penetrate)
G03 X16.126243 Y38.813810 Z-1.000000 I-1.901608 J-2.246126 F400.000000
G03 X13.771484 Y37.720708 Z-1.000000 I0.346337 J-3.828940
G01 X13.760811 Y37.689191 Z-1.000000
G03 X14.001953 Y36.062505 Z-1.000000 I97.129915 J13.567456
G03 X14.222612 Y34.725501 Z-1.000000 I83.570905 J13.105835
G01 X14.266948 Y34.693820 Z-1.000000
G01 X14.308433 Y34.738108 Z-1.000000
G03 X14.427734 Y36.128911 Z-1.000000 I-93.545228 J8.724716
G02 X14.532188 Y37.214283 Z-1.000000 I30.526679 J-2.390120
G01 X14.552734 Y37.232427 Z-1.000000
G01 X14.575597 Y37.214126 Z-1.000000
G02 X15.013672 Y35.271490 Z-1.000000 I-106.369320 J-25.007573
G03 X15.440091 Y33.310846 Z-1.000000 I666.003503 J143.822072
G03 X15.460938 Y33.236333 Z-1.000000 I0.661375 J0.144862
G01 X15.442366 Y33.182859 Z-1.000000
G02 X15.103516 Y33.005865 Z-1.000000 I-1.139018 J1.767752
G01 X14.720703 Y32.849615 Z-1.000000
G01 X15.841797 Y32.777349 Z-1.000000
G02 X16.961227 Y32.703587 Z-1.000000 I-24.120431 J-374.589723
G02 X17.054688 Y32.695318 Z-1.000000 I-0.150540 J-2.233753
G01 X17.067718 Y32.727762 Z-1.000000
G03 X16.552734 Y33.080083 Z-1.000000 I-3.483460 J-4.539196
G02 X16.066537 Y33.403688 Z-1.000000 I3.625271 J5.973798
G01 X16.046875 Y33.449224 Z-1.000000
G02 X16.056093 Y33.507533 Z-1.000000 I0.967448 J-0.123058
G02 X16.406250 Y35.343755 Z-1.000000 I669.554464 J-126.728712
G02 X16.766529 Y37.015124 Z-1.000000 I37.302871 J-7.166470
G01 X16.804688 Y37.015630 Z-1.000000
G02 X16.833646 Y36.849389 Z-1.000000 I-0.918156 J-0.245581
G02 X16.896488 Y35.921880 Z-1.000000 I-29.088377 J-2.436714
G03 X16.965613 Y35.001593 Z-1.000000 I19.825132 J1.026379
G03 X16.992188 Y34.958989 Z-1.000000 I0.056337 J0.005551
G01 X17.021492 Y34.968276 Z-1.000000
G03 X17.672061 Y36.522480 Z-1.000000 I-110.234838 J47.056099
G03 X18.302687 Y38.090264 Z-1.000000 I-112.291445 J46.078864
G01 X18.292969 Y38.128911 Z-1.000000
G01 X18.292969 Y38.128912 Z-1.000000
G00 Z5.000000

(End cutting path id: path24)


(Start cutting path id: path24)
(Change tool to Cylindrical cutter)

G00 Z5.000000
G00 X18.292969 Y38.128912

G01 Z-1.000000 F100.0(Penetrate)
G03 X16.126243 Y38.813810 Z-1.000000 I-1.901608 J-2.246126 F400.000000
G03 X13.771484 Y37.720708 Z-1.000000 I0.346337 J-3.828940
G01 X13.760811 Y37.689191 Z-1.000000
G03 X14.001953 Y36.062505 Z-1.000000 I97.129915 J13.567456
G03 X14.222612 Y34.725501 Z-1.000000 I83.570905 J13.105835
G01 X14.266948 Y34.693820 Z-1.000000
G01 X14.308433 Y34.738108 Z-1.000000
G03 X14.427734 Y36.128911 Z-1.000000 I-93.545228 J8.724716
G02 X14.532188 Y37.214283 Z-1.000000 I30.526679 J-2.390120
G01 X14.552734 Y37.232427 Z-1.000000
G01 X14.575597 Y37.214126 Z-1.000000
G02 X15.013672 Y35.271490 Z-1.000000 I-106.369320 J-25.007573
G03 X15.440091 Y33.310846 Z-1.000000 I666.003503 J143.822072
G03 X15.460938 Y33.236333 Z-1.000000 I0.661375 J0.144862
G01 X15.442366 Y33.182859 Z-1.000000
G02 X15.103516 Y33.005865 Z-1.000000 I-1.139018 J1.767752
G01 X14.720703 Y32.849615 Z-1.000000
G01 X15.841797 Y32.777349 Z-1.000000
G02 X16.961227 Y32.703587 Z-1.000000 I-24.120431 J-374.589723
G02 X17.054688 Y32.695318 Z-1.000000 I-0.150540 J-2.233753
G01 X17.067718 Y32.727762 Z-1.000000
G03 X16.552734 Y33.080083 Z-1.000000 I-3.483460 J-4.539196
G02 X16.066537 Y33.403688 Z-1.000000 I3.625271 J5.973798
G01 X16.046875 Y33.449224 Z-1.000000
G02 X16.056093 Y33.507533 Z-1.000000 I0.967448 J-0.123058
G02 X16.406250 Y35.343755 Z-1.000000 I669.554464 J-126.728712
G02 X16.766529 Y37.015124 Z-1.000000 I37.302871 J-7.166470
G01 X16.804688 Y37.015630 Z-1.000000
G02 X16.833646 Y36.849389 Z-1.000000 I-0.918156 J-0.245581
G02 X16.896488 Y35.921880 Z-1.000000 I-29.088377 J-2.436714
G03 X16.965613 Y35.001593 Z-1.000000 I19.825132 J1.026379
G03 X16.992188 Y34.958989 Z-1.000000 I0.056337 J0.005551
G01 X17.021492 Y34.968276 Z-1.000000
G03 X17.672061 Y36.522480 Z-1.000000 I-110.234838 J47.056099
G03 X18.302687 Y38.090264 Z-1.000000 I-112.291445 J46.078864
G01 X18.292969 Y38.128911 Z-1.000000
G01 X18.292969 Y38.128912 Z-1.000000
G00 Z5.000000

(End cutting path id: path24)


(Footer)
M5
G00 X0.0000 Y0.0000
M2
(Using default footer. To add your own footer create file "footer" in the output dir.)
(end)
%