%
(Header)
(Generated by gcodetools from Inkscape.)
(Using default header. To add your own header create file "header" in the output dir.)
M3
(Header end.)
G21 (All units in mm)

(Start cutting path id: path38)
(Change tool to Cylindrical cutter)

G00 Z5.000000
G00 X15.097656 Y35.976562

G01 Z-1.000000 F100.0(Penetrate)
G03 X14.976634 Y35.901826 Z-1.000000 I0.000000 J-0.135356 F400.000000
G03 X14.623047 Y35.029297 Z-1.000000 I5.309852 J-2.659690
G03 X14.524099 Y34.663191 Z-1.000000 I4.337409 J-1.368707
G03 X14.251953 Y33.388672 Z-1.000000 I53.440548 J-12.077374
G02 X13.961245 Y32.129612 Z-1.000000 I-22.272717 J4.479516
G02 X13.900391 Y32.039062 Z-1.000000 I-0.159911 J0.041746
G02 X13.042828 Y31.505219 Z-1.000000 I-3.528961 J4.713191
G02 X11.955078 Y31.048828 Z-1.000000 I-3.636410 J7.142467
G03 X10.916744 Y30.640017 Z-1.000000 I3.448881 J-10.282816
G03 X9.955078 Y30.138672 Z-1.000000 I4.155034 J-9.143048
G02 X9.667806 Y29.972359 Z-1.000000 I-8.631895 J14.578661
G02 X9.341797 Y29.791016 Z-1.000000 I-12.482750 J22.057056
G03 X7.739488 Y28.743433 Z-1.000000 I5.834993 J-10.673970
G03 X6.654297 Y27.714844 Z-1.000000 I4.541194 J-5.877842
G03 X6.587873 Y27.481464 Z-1.000000 I0.218521 J-0.188337
G03 X6.773438 Y26.953125 Z-1.000000 I1.536446 J0.242877
G03 X7.467151 Y26.059078 Z-1.000000 I3.492989 J1.994140
G03 X9.421875 Y24.386719 Z-1.000000 I14.433645 J14.892094
G01 X10.125000 Y23.857422 Z-1.000000
G01 X10.271484 Y23.343750 Z-1.000000
G03 X10.622387 Y22.448351 Z-1.000000 I4.830095 J1.376435
G03 X11.082031 Y21.746094 Z-1.000000 I3.404357 J1.726681
G01 X11.378906 Y21.384766 Z-1.000000
G01 X10.978516 Y21.228516 Z-1.000000
G03 X10.001452 Y20.633693 Z-1.000000 I1.213701 J-3.093524
G03 X8.730469 Y19.257812 Z-1.000000 I5.880870 J-6.707490
G03 X7.998141 Y17.838766 Z-1.000000 I3.916598 J-2.919729
G03 X7.734375 Y16.167969 Z-1.000000 I5.191301 J-1.675762
G01 X7.734375 Y14.884766 Z-1.000000
G01 X7.904297 Y14.398438 Z-1.000000
G02 X8.043834 Y13.915082 Z-1.000000 I-4.287612 J-1.499584
G02 X8.031250 Y13.841797 Z-1.000000 I-0.094012 J-0.021580
G03 X7.951337 Y13.562147 Z-1.000000 I0.433193 J-0.275032
G03 X8.046875 Y12.099609 Z-1.000000 I13.038502 J0.117329
G03 X8.269067 Y10.936425 Z-1.000000 I8.741515 J1.066998
G03 X8.546875 Y10.189453 Z-1.000000 I3.860318 J1.010551
G03 X8.755372 Y9.867657 Z-1.000000 I1.451978 J0.712319
G03 X9.144531 Y9.472656 Z-1.000000 I2.534185 J2.107503
G03 X10.623704 Y8.439388 Z-1.000000 I5.947355 J6.938536
G03 X11.988281 Y7.878906 Z-1.000000 I2.984333 J5.324428
G03 X13.302757 Y7.702078 Z-1.000000 I1.308470 J4.752606
G03 X14.298828 Y7.880906 Z-1.000000 I-0.003513 J2.883036
G03 X15.594836 Y8.559239 Z-1.000000 I-1.982731 J5.365392
G03 X16.400391 Y9.351609 Z-1.000000 I-1.951275 J2.789408
G02 X16.536525 Y9.489457 Z-1.000000 I0.517401 J-0.374825
G01 X16.566406 Y9.474656 Z-1.000000
G03 X16.653149 Y9.133530 Z-1.000000 I0.747346 J0.008446
G03 X17.000000 Y8.654344 Z-1.000000 I1.875663 J0.992546
G03 X17.830626 Y8.090098 Z-1.000000 I1.753920 J1.688440
G03 X18.906250 Y7.873094 Z-1.000000 I1.102275 J2.689368
G03 X19.578203 Y8.148316 Z-1.000000 I0.008618 J0.936854
G03 X19.873047 Y8.841844 Z-1.000000 I-0.715432 J0.713595
G02 X19.894838 Y9.216510 Z-1.000000 I4.885018 J-0.096152
G01 X19.910157 Y9.230516 Z-1.000000
G02 X19.938639 Y9.227527 Z-1.000000 I0.000891 J-0.128684
G02 X20.539063 Y9.093797 Z-1.000000 I-21.487554 J-97.890381
G03 X22.327999 Y8.820199 Z-1.000000 I2.832691 J12.536396
G03 X24.074220 Y8.804735 Z-1.000000 I0.979656 J12.023311
G01 X24.589845 Y8.837935 Z-1.000000
G01 X24.589845 Y8.585982 Z-1.000000
G03 X24.686139 Y8.139988 Z-1.000000 I1.080979 J-0.000000
G03 X24.947267 Y7.798872 Z-1.000000 I0.865397 J0.391965
G03 X25.924308 Y7.437574 Z-1.000000 I1.007143 J1.221836
G03 X27.501954 Y7.750042 Z-1.000000 I0.071807 J3.776435
G01 X27.927735 Y7.933636 Z-1.000000
G01 X27.960935 Y7.777386 Z-1.000000
G03 X28.160013 Y7.308551 Z-1.000000 I1.349702 J0.296429
G03 X28.599606 Y6.816448 Z-1.000000 I1.938548 J1.289301
G03 X29.203258 Y6.452992 Z-1.000000 I1.445744 J1.718168
G03 X30.291013 Y6.132854 Z-1.000000 I2.168973 J5.361631
G01 X30.293013 Y6.132854 Z-1.000000
G03 X31.195578 Y6.083425 Z-1.000000 I0.635533 J3.339682
G03 X32.054732 Y6.271526 Z-1.000000 I-0.253089 J3.212139
G03 X33.198873 Y7.012371 Z-1.000000 I-1.067669 J2.902793
G03 X34.201216 Y8.466839 Z-1.000000 I-3.720364 J3.636494
G03 X34.498580 Y9.344187 Z-1.000000 I-3.973150 J1.835709
G03 X34.652388 Y10.474651 Z-1.000000 I-6.515607 J1.462190
G03 X34.645381 Y11.203812 Z-1.000000 I-6.143632 J0.305574
G03 X34.566448 Y11.709026 Z-1.000000 I-2.967232 J-0.204816
G03 X34.173234 Y12.786204 Z-1.000000 I-5.120159 J-1.258710
G03 X33.656292 Y13.548870 Z-1.000000 I-3.030462 J-1.497546
G01 X33.355511 Y13.882854 Z-1.000000
G01 X33.320351 Y14.591839 Z-1.000000
G03 X33.188747 Y15.774804 Z-1.000000 I-9.775857 J-0.488755
G03 X32.949258 Y16.734417 Z-1.000000 I-6.686241 J-1.158982
G01 X32.835977 Y17.080120 Z-1.000000
G01 X33.093789 Y17.451214 Z-1.000000
G03 X33.855597 Y18.706023 Z-1.000000 I-9.339353 J6.528676
G03 X33.951211 Y19.095745 Z-1.000000 I-0.746444 J0.389722
G03 X33.863046 Y19.250482 Z-1.000000 I-0.179871 J-0.000000
G03 X32.279336 Y20.087933 Z-1.000000 I-9.402444 J-15.864827
G03 X29.937972 Y20.946908 Z-1.000000 I-6.140804 J-13.117901
G03 X28.824258 Y21.027386 Z-1.000000 I-0.762440 J-2.804763
G02 X28.649783 Y21.067776 Z-1.000000 I-0.031680 J0.260191
G02 X28.123086 Y21.482464 Z-1.000000 I2.012945 J3.098472
G03 X27.266864 Y22.128036 Z-1.000000 I-3.304065 J-3.491591
G03 X26.265664 Y22.580120 Z-1.000000 I-2.544652 J-4.300782
G01 X25.564492 Y22.806683 Z-1.000000
G01 X25.527382 Y23.193401 Z-1.000000
G03 X25.475507 Y23.575355 Z-1.000000 I-5.286435 J-0.523474
G03 X25.429722 Y23.767620 Z-1.000000 I-1.558875 J-0.269640
G03 X25.194127 Y24.232364 Z-1.000000 I-1.448790 J-0.442356
G03 X24.916050 Y24.453167 Z-1.000000 I-0.557963 J-0.417186
G02 X24.809848 Y24.559888 Z-1.000000 I0.082704 J0.188506
G02 X24.767612 Y24.798870 Z-1.000000 I0.480951 J0.208222
G02 X24.838499 Y25.022426 Z-1.000000 I0.476307 J-0.028014
G02 X24.951206 Y25.093792 Z-1.000000 I0.130043 J-0.080694
G03 X25.308545 Y25.197462 Z-1.000000 I-0.125377 J1.099853
G03 X25.359409 Y25.293011 Z-1.000000 I-0.040038 J0.082626
G03 X25.300456 Y25.371656 Z-1.000000 I-0.101117 J-0.014380
G03 X25.048862 Y25.433636 Z-1.000000 I-0.292299 J-0.644887
G02 X24.815719 Y25.506590 Z-1.000000 I0.028851 J0.501210
G02 X24.755893 Y25.613323 Z-1.000000 I0.065296 J0.106733
G02 X24.800026 Y25.742363 Z-1.000000 I0.210714 J0.000000
G02 X24.910190 Y25.812542 Z-1.000000 I0.152877 J-0.118424
G03 X25.353276 Y25.962943 Z-1.000000 I-0.495447 J2.187470
G03 X25.416050 Y26.046917 Z-1.000000 I-0.045996 J0.099834
G03 X25.344517 Y26.163016 Z-1.000000 I-0.105102 J0.015329
G03 X25.009800 Y26.181683 Z-1.000000 I-0.201637 J-0.605301
G02 X24.763625 Y26.136017 Z-1.000000 I-0.979432 J4.593498
G01 X24.755893 Y26.142623 Z-1.000000
G03 X24.754441 Y26.158692 Z-1.000000 I-0.089642 J0.000000
G03 X24.677763 Y26.568404 Z-1.000000 I-42.920428 J-7.820568
G03 X24.473194 Y27.237206 Z-1.000000 I-3.216288 J-0.618089
G03 X23.908203 Y28.367188 Z-1.000000 I-9.713631 J-4.150580
G03 X23.455542 Y29.150181 Z-1.000000 I-567.665412 J-327.654248
G02 X23.255859 Y29.496094 Z-1.000000 I129.978567 J75.262429
G03 X22.766719 Y30.185155 Z-1.000000 I-3.856280 J-2.219295
G03 X21.832031 Y31.142578 Z-1.000000 I-8.310195 J-7.177901
G03 X20.831280 Y31.957403 Z-1.000000 I-8.165280 J-9.006466
G03 X20.355469 Y32.220703 Z-1.000000 I-1.287170 J-1.764481
G02 X20.146915 Y32.351218 Z-1.000000 I0.257272 J0.642988
G02 X19.541016 Y32.960938 Z-1.000000 I5.694433 J6.264661
G03 X18.565536 Y33.918561 Z-1.000000 I-8.057405 J-7.232003
G03 X17.494141 Y34.730469 Z-1.000000 I-6.819453 J-7.886101
G03 X15.573933 Y35.860117 Z-1.000000 I-11.771638 J-17.812921
G03 X15.097656 Y35.976562 Z-1.000000 I-0.476277 J-0.915798
G01 X15.097656 Y35.976562 Z-1.000000
G00 Z5.000000

(End cutting path id: path38)


(Start cutting path id: path38)
(Change tool to Cylindrical cutter)

G00 Z5.000000
G00 X15.097656 Y35.976562

G01 Z-1.000000 F100.0(Penetrate)
G03 X14.976634 Y35.901826 Z-1.000000 I0.000000 J-0.135356 F400.000000
G03 X14.623047 Y35.029297 Z-1.000000 I5.309852 J-2.659690
G03 X14.524099 Y34.663191 Z-1.000000 I4.337409 J-1.368707
G03 X14.251953 Y33.388672 Z-1.000000 I53.440548 J-12.077374
G02 X13.961245 Y32.129612 Z-1.000000 I-22.272717 J4.479516
G02 X13.900391 Y32.039062 Z-1.000000 I-0.159911 J0.041746
G02 X13.042828 Y31.505219 Z-1.000000 I-3.528961 J4.713191
G02 X11.955078 Y31.048828 Z-1.000000 I-3.636410 J7.142467
G03 X10.916744 Y30.640017 Z-1.000000 I3.448881 J-10.282816
G03 X9.955078 Y30.138672 Z-1.000000 I4.155034 J-9.143048
G02 X9.667806 Y29.972359 Z-1.000000 I-8.631895 J14.578661
G02 X9.341797 Y29.791016 Z-1.000000 I-12.482750 J22.057056
G03 X7.739488 Y28.743433 Z-1.000000 I5.834993 J-10.673970
G03 X6.654297 Y27.714844 Z-1.000000 I4.541194 J-5.877842
G03 X6.587873 Y27.481464 Z-1.000000 I0.218521 J-0.188337
G03 X6.773438 Y26.953125 Z-1.000000 I1.536446 J0.242877
G03 X7.467151 Y26.059078 Z-1.000000 I3.492989 J1.994140
G03 X9.421875 Y24.386719 Z-1.000000 I14.433645 J14.892094
G01 X10.125000 Y23.857422 Z-1.000000
G01 X10.271484 Y23.343750 Z-1.000000
G03 X10.622387 Y22.448351 Z-1.000000 I4.830095 J1.376435
G03 X11.082031 Y21.746094 Z-1.000000 I3.404357 J1.726681
G01 X11.378906 Y21.384766 Z-1.000000
G01 X10.978516 Y21.228516 Z-1.000000
G03 X10.001452 Y20.633693 Z-1.000000 I1.213701 J-3.093524
G03 X8.730469 Y19.257812 Z-1.000000 I5.880870 J-6.707490
G03 X7.998141 Y17.838766 Z-1.000000 I3.916598 J-2.919729
G03 X7.734375 Y16.167969 Z-1.000000 I5.191301 J-1.675762
G01 X7.734375 Y14.884766 Z-1.000000
G01 X7.904297 Y14.398438 Z-1.000000
G02 X8.043834 Y13.915082 Z-1.000000 I-4.287612 J-1.499584
G02 X8.031250 Y13.841797 Z-1.000000 I-0.094012 J-0.021580
G03 X7.951337 Y13.562147 Z-1.000000 I0.433193 J-0.275032
G03 X8.046875 Y12.099609 Z-1.000000 I13.038502 J0.117329
G03 X8.269067 Y10.936425 Z-1.000000 I8.741515 J1.066998
G03 X8.546875 Y10.189453 Z-1.000000 I3.860318 J1.010551
G03 X8.755372 Y9.867657 Z-1.000000 I1.451978 J0.712319
G03 X9.144531 Y9.472656 Z-1.000000 I2.534185 J2.107503
G03 X10.623704 Y8.439388 Z-1.000000 I5.947355 J6.938536
G03 X11.988281 Y7.878906 Z-1.000000 I2.984333 J5.324428
G03 X13.302757 Y7.702078 Z-1.000000 I1.308470 J4.752606
G03 X14.298828 Y7.880906 Z-1.000000 I-0.003513 J2.883036
G03 X15.594836 Y8.559239 Z-1.000000 I-1.982731 J5.365392
G03 X16.400391 Y9.351609 Z-1.000000 I-1.951275 J2.789408
G02 X16.536525 Y9.489457 Z-1.000000 I0.517401 J-0.374825
G01 X16.566406 Y9.474656 Z-1.000000
G03 X16.653149 Y9.133530 Z-1.000000 I0.747346 J0.008446
G03 X17.000000 Y8.654344 Z-1.000000 I1.875663 J0.992546
G03 X17.830626 Y8.090098 Z-1.000000 I1.753920 J1.688440
G03 X18.906250 Y7.873094 Z-1.000000 I1.102275 J2.689368
G03 X19.578203 Y8.148316 Z-1.000000 I0.008618 J0.936854
G03 X19.873047 Y8.841844 Z-1.000000 I-0.715432 J0.713595
G02 X19.894838 Y9.216510 Z-1.000000 I4.885018 J-0.096152
G01 X19.910157 Y9.230516 Z-1.000000
G02 X19.938639 Y9.227527 Z-1.000000 I0.000891 J-0.128684
G02 X20.539063 Y9.093797 Z-1.000000 I-21.487554 J-97.890381
G03 X22.327999 Y8.820199 Z-1.000000 I2.832691 J12.536396
G03 X24.074220 Y8.804735 Z-1.000000 I0.979656 J12.023311
G01 X24.589845 Y8.837935 Z-1.000000
G01 X24.589845 Y8.585982 Z-1.000000
G03 X24.686139 Y8.139988 Z-1.000000 I1.080979 J-0.000000
G03 X24.947267 Y7.798872 Z-1.000000 I0.865397 J0.391965
G03 X25.924308 Y7.437574 Z-1.000000 I1.007143 J1.221836
G03 X27.501954 Y7.750042 Z-1.000000 I0.071807 J3.776435
G01 X27.927735 Y7.933636 Z-1.000000
G01 X27.960935 Y7.777386 Z-1.000000
G03 X28.160013 Y7.308551 Z-1.000000 I1.349702 J0.296429
G03 X28.599606 Y6.816448 Z-1.000000 I1.938548 J1.289301
G03 X29.203258 Y6.452992 Z-1.000000 I1.445744 J1.718168
G03 X30.291013 Y6.132854 Z-1.000000 I2.168973 J5.361631
G01 X30.293013 Y6.132854 Z-1.000000
G03 X31.195578 Y6.083425 Z-1.000000 I0.635533 J3.339682
G03 X32.054732 Y6.271526 Z-1.000000 I-0.253089 J3.212139
G03 X33.198873 Y7.012371 Z-1.000000 I-1.067669 J2.902793
G03 X34.201216 Y8.466839 Z-1.000000 I-3.720364 J3.636494
G03 X34.498580 Y9.344187 Z-1.000000 I-3.973150 J1.835709
G03 X34.652388 Y10.474651 Z-1.000000 I-6.515607 J1.462190
G03 X34.645381 Y11.203812 Z-1.000000 I-6.143632 J0.305574
G03 X34.566448 Y11.709026 Z-1.000000 I-2.967232 J-0.204816
G03 X34.173234 Y12.786204 Z-1.000000 I-5.120159 J-1.258710
G03 X33.656292 Y13.548870 Z-1.000000 I-3.030462 J-1.497546
G01 X33.355511 Y13.882854 Z-1.000000
G01 X33.320351 Y14.591839 Z-1.000000
G03 X33.188747 Y15.774804 Z-1.000000 I-9.775857 J-0.488755
G03 X32.949258 Y16.734417 Z-1.000000 I-6.686241 J-1.158982
G01 X32.835977 Y17.080120 Z-1.000000
G01 X33.093789 Y17.451214 Z-1.000000
G03 X33.855597 Y18.706023 Z-1.000000 I-9.339353 J6.528676
G03 X33.951211 Y19.095745 Z-1.000000 I-0.746444 J0.389722
G03 X33.863046 Y19.250482 Z-1.000000 I-0.179871 J-0.000000
G03 X32.279336 Y20.087933 Z-1.000000 I-9.402444 J-15.864827
G03 X29.937972 Y20.946908 Z-1.000000 I-6.140804 J-13.117901
G03 X28.824258 Y21.027386 Z-1.000000 I-0.762440 J-2.804763
G02 X28.649783 Y21.067776 Z-1.000000 I-0.031680 J0.260191
G02 X28.123086 Y21.482464 Z-1.000000 I2.012945 J3.098472
G03 X27.266864 Y22.128036 Z-1.000000 I-3.304065 J-3.491591
G03 X26.265664 Y22.580120 Z-1.000000 I-2.544652 J-4.300782
G01 X25.564492 Y22.806683 Z-1.000000
G01 X25.527382 Y23.193401 Z-1.000000
G03 X25.475507 Y23.575355 Z-1.000000 I-5.286435 J-0.523474
G03 X25.429722 Y23.767620 Z-1.000000 I-1.558875 J-0.269640
G03 X25.194127 Y24.232364 Z-1.000000 I-1.448790 J-0.442356
G03 X24.916050 Y24.453167 Z-1.000000 I-0.557963 J-0.417186
G02 X24.809848 Y24.559888 Z-1.000000 I0.082704 J0.188506
G02 X24.767612 Y24.798870 Z-1.000000 I0.480951 J0.208222
G02 X24.838499 Y25.022426 Z-1.000000 I0.476307 J-0.028014
G02 X24.951206 Y25.093792 Z-1.000000 I0.130043 J-0.080694
G03 X25.308545 Y25.197462 Z-1.000000 I-0.125377 J1.099853
G03 X25.359409 Y25.293011 Z-1.000000 I-0.040038 J0.082626
G03 X25.300456 Y25.371656 Z-1.000000 I-0.101117 J-0.014380
G03 X25.048862 Y25.433636 Z-1.000000 I-0.292299 J-0.644887
G02 X24.815719 Y25.506590 Z-1.000000 I0.028851 J0.501210
G02 X24.755893 Y25.613323 Z-1.000000 I0.065296 J0.106733
G02 X24.800026 Y25.742363 Z-1.000000 I0.210714 J0.000000
G02 X24.910190 Y25.812542 Z-1.000000 I0.152877 J-0.118424
G03 X25.353276 Y25.962943 Z-1.000000 I-0.495447 J2.187470
G03 X25.416050 Y26.046917 Z-1.000000 I-0.045996 J0.099834
G03 X25.344517 Y26.163016 Z-1.000000 I-0.105102 J0.015329
G03 X25.009800 Y26.181683 Z-1.000000 I-0.201637 J-0.605301
G02 X24.763625 Y26.136017 Z-1.000000 I-0.979432 J4.593498
G01 X24.755893 Y26.142623 Z-1.000000
G03 X24.754441 Y26.158692 Z-1.000000 I-0.089642 J0.000000
G03 X24.677763 Y26.568404 Z-1.000000 I-42.920428 J-7.820568
G03 X24.473194 Y27.237206 Z-1.000000 I-3.216288 J-0.618089
G03 X23.908203 Y28.367188 Z-1.000000 I-9.713631 J-4.150580
G03 X23.455542 Y29.150181 Z-1.000000 I-567.665412 J-327.654248
G02 X23.255859 Y29.496094 Z-1.000000 I129.978567 J75.262429
G03 X22.766719 Y30.185155 Z-1.000000 I-3.856280 J-2.219295
G03 X21.832031 Y31.142578 Z-1.000000 I-8.310195 J-7.177901
G03 X20.831280 Y31.957403 Z-1.000000 I-8.165280 J-9.006466
G03 X20.355469 Y32.220703 Z-1.000000 I-1.287170 J-1.764481
G02 X20.146915 Y32.351218 Z-1.000000 I0.257272 J0.642988
G02 X19.541016 Y32.960938 Z-1.000000 I5.694433 J6.264661
G03 X18.565536 Y33.918561 Z-1.000000 I-8.057405 J-7.232003
G03 X17.494141 Y34.730469 Z-1.000000 I-6.819453 J-7.886101
G03 X15.573933 Y35.860117 Z-1.000000 I-11.771638 J-17.812921
G03 X15.097656 Y35.976562 Z-1.000000 I-0.476277 J-0.915798
G01 X15.097656 Y35.976562 Z-1.000000
G00 Z5.000000

(End cutting path id: path38)


(Start cutting path id: path38)
(Change tool to Cylindrical cutter)

G00 Z5.000000
G00 X15.261719 Y35.539062

G01 Z-1.000000 F100.0(Penetrate)
G02 X15.912093 Y35.311119 Z-1.000000 I-0.358306 J-2.064133 F400.000000
G02 X17.679688 Y34.208984 Z-1.000000 I-9.088282 J-16.544208
G02 X18.184266 Y33.807066 Z-1.000000 I-3.099238 J-4.408545
G02 X19.101562 Y32.929688 Z-1.000000 I-13.854090 J-15.402606
G03 X20.015038 Y32.056695 Z-1.000000 I14.506072 J14.264354
G03 X20.214844 Y31.931641 Z-1.000000 I0.458882 J0.511032
G02 X21.444057 Y31.162426 Z-1.000000 I-1.594474 J-3.914741
G02 X22.787109 Y29.623047 Z-1.000000 I-5.612779 J-6.252516
G02 X23.010875 Y29.267869 Z-1.000000 I-5.214223 J-3.533095
G02 X23.896484 Y27.722656 Z-1.000000 I-91.141845 J-53.262573
G02 X24.216536 Y27.024112 Z-1.000000 I-4.070923 J-2.287767
G02 X24.390625 Y26.359375 Z-1.000000 I-3.550293 J-1.284956
G02 X24.361211 Y26.173832 Z-1.000000 I-0.292586 J-0.048720
G02 X24.244141 Y26.078125 Z-1.000000 I-0.169844 J0.088302
G03 X24.097207 Y25.997458 Z-1.000000 I0.104576 J-0.364635
G03 X24.060547 Y25.916016 Z-1.000000 I0.072133 J-0.081442
G03 X24.100992 Y25.844274 Z-1.000000 I0.083852 J-0.000000
G03 X24.271484 Y25.789062 Z-1.000000 I0.202653 J0.334945
G02 X24.422064 Y25.719731 Z-1.000000 I-0.019894 J-0.241394
G02 X24.466797 Y25.595703 Z-1.000000 I-0.108041 J-0.109048
G02 X24.411533 Y25.454242 Z-1.000000 I-0.278609 J0.027318
G02 X24.310547 Y25.388672 Z-1.000000 I-0.140930 J0.106498
G03 X24.201226 Y25.329484 Z-1.000000 I0.053037 J-0.228511
G03 X24.154297 Y25.238281 Z-1.000000 I0.109163 J-0.113846
G03 X24.182183 Y25.153494 Z-1.000000 I0.099111 J-0.014382
G03 X24.292969 Y25.099609 Z-1.000000 I0.131925 J0.130406
G02 X24.388545 Y25.028456 Z-1.000000 I-0.013521 J-0.117930
G02 X24.443359 Y24.748047 Z-1.000000 I-0.623953 J-0.267532
G02 X24.394659 Y24.424451 Z-1.000000 I-1.258143 J0.023884
G02 X24.226562 Y23.996094 Z-1.000000 I-2.351321 J0.675549
G02 X23.578171 Y22.882943 Z-1.000000 I-9.697924 J4.903455
G02 X23.013672 Y22.171875 Z-1.000000 I-4.492273 J2.986700
G02 X22.054219 Y21.346519 Z-1.000000 I-4.390037 J4.132943
G02 X20.433594 Y20.386719 Z-1.000000 I-7.599732 J10.984061
G02 X19.686726 Y20.088406 Z-1.000000 I-2.142295 J4.279439
G02 X18.484375 Y19.791016 Z-1.000000 I-3.382773 J11.097317
G02 X17.598755 Y19.725788 Z-1.000000 I-0.723812 J3.782611
G02 X17.349609 Y19.839846 Z-1.000000 I0.015241 J0.362434
G03 X16.339829 Y20.317411 Z-1.000000 I-1.111794 J-1.044476
G03 X15.181641 Y19.984377 Z-1.000000 I-0.118517 J-1.768259
G01 X14.962891 Y19.826174 Z-1.000000
G01 X14.384766 Y20.009768 Z-1.000000
G02 X13.810346 Y20.199893 Z-1.000000 I7.531256 J23.716847
G02 X13.568359 Y20.291018 Z-1.000000 I1.485521 J4.311725
G01 X13.328125 Y20.388678 Z-1.000000
G01 X13.441406 Y20.509772 Z-1.000000
G03 X13.555049 Y20.775718 Z-1.000000 I-0.307039 J0.288457
G03 X13.460938 Y20.875000 Z-1.000000 I-0.094111 J0.005036
G03 X13.376048 Y20.850610 Z-1.000000 I0.000000 J-0.159927
G03 X13.195312 Y20.708984 Z-1.000000 I0.580824 J-0.927353
G01 X13.025391 Y20.544922 Z-1.000000
G01 X12.837891 Y20.658203 Z-1.000000
G01 X12.648438 Y20.771484 Z-1.000000
G01 X12.916016 Y21.042969 Z-1.000000
G03 X13.140086 Y21.321460 Z-1.000000 I-1.271785 J1.252649
G03 X13.148438 Y21.400391 Z-1.000000 I-0.073167 J0.047649
G03 X13.032778 Y21.454080 Z-1.000000 I-0.085524 J-0.032817
G03 X12.666016 Y21.232422 Z-1.000000 I0.340693 J-0.977978
G02 X12.388067 Y21.021640 Z-1.000000 I-1.156652 J1.236579
G02 X12.320312 Y21.021484 Z-1.000000 I-0.034007 J0.056015
G02 X11.635578 Y21.579391 Z-1.000000 I1.597734 J2.660089
G02 X10.941406 Y22.519531 Z-1.000000 I3.976905 J3.662781
G02 X10.530875 Y23.410404 Z-1.000000 I4.424514 J2.578927
G02 X10.435547 Y23.972656 Z-1.000000 I1.610442 J0.562252
G03 X10.409252 Y24.029021 Z-1.000000 I-0.073558 J0.000000
G03 X9.669922 Y24.613281 Z-1.000000 I-10.431502 J-12.440245
G02 X8.441476 Y25.591074 Z-1.000000 I14.412549 J19.367723
G02 X7.716797 Y26.275391 Z-1.000000 I6.216174 J7.308678
G02 X7.007920 Y27.137506 Z-1.000000 I5.467325 J5.218025
G02 X6.925781 Y27.396484 Z-1.000000 I0.367203 J0.258978
G02 X7.133309 Y27.839722 Z-1.000000 I0.577098 J-0.000000
G02 X9.306641 Y29.380859 Z-1.000000 I10.920748 J-13.097584
G02 X11.011160 Y30.309416 Z-1.000000 I12.509804 J-20.935067
G02 X12.052734 Y30.738281 Z-1.000000 I3.650185 J-7.385856
G03 X12.984596 Y31.123856 Z-1.000000 I-2.278045 J6.824462
G03 X13.972656 Y31.695312 Z-1.000000 I-4.116391 J8.257241
G03 X14.291853 Y31.963763 Z-1.000000 I-1.023127 J1.540525
G03 X14.359375 Y32.103516 Z-1.000000 I-0.185546 J0.175835
G02 X14.697740 Y34.004602 Z-1.000000 I27.703425 J-3.950138
G02 X14.996094 Y35.083984 Z-1.000000 I9.281302 J-1.984537
G02 X15.187913 Y35.504675 Z-1.000000 I2.211607 J-0.754334
G02 X15.261719 Y35.539062 Z-1.000000 I0.061614 J-0.035844
G01 X15.261719 Y35.539062 Z-1.000000
G00 Z5.000000

(End cutting path id: path38)


(Start cutting path id: path38)
(Change tool to Cylindrical cutter)

G00 Z5.000000
G00 X15.261719 Y35.539062

G01 Z-1.000000 F100.0(Penetrate)
G02 X15.912093 Y35.311119 Z-1.000000 I-0.358306 J-2.064133 F400.000000
G02 X17.679688 Y34.208984 Z-1.000000 I-9.088282 J-16.544208
G02 X18.184266 Y33.807066 Z-1.000000 I-3.099238 J-4.408545
G02 X19.101562 Y32.929688 Z-1.000000 I-13.854090 J-15.402606
G03 X20.015038 Y32.056695 Z-1.000000 I14.506072 J14.264354
G03 X20.214844 Y31.931641 Z-1.000000 I0.458882 J0.511032
G02 X21.444057 Y31.162426 Z-1.000000 I-1.594474 J-3.914741
G02 X22.787109 Y29.623047 Z-1.000000 I-5.612779 J-6.252516
G02 X23.010875 Y29.267869 Z-1.000000 I-5.214223 J-3.533095
G02 X23.896484 Y27.722656 Z-1.000000 I-91.141845 J-53.262573
G02 X24.216536 Y27.024112 Z-1.000000 I-4.070923 J-2.287767
G02 X24.390625 Y26.359375 Z-1.000000 I-3.550293 J-1.284956
G02 X24.361211 Y26.173832 Z-1.000000 I-0.292586 J-0.048720
G02 X24.244141 Y26.078125 Z-1.000000 I-0.169844 J0.088302
G03 X24.097207 Y25.997458 Z-1.000000 I0.104576 J-0.364635
G03 X24.060547 Y25.916016 Z-1.000000 I0.072133 J-0.081442
G03 X24.100992 Y25.844274 Z-1.000000 I0.083852 J-0.000000
G03 X24.271484 Y25.789062 Z-1.000000 I0.202653 J0.334945
G02 X24.422064 Y25.719731 Z-1.000000 I-0.019894 J-0.241394
G02 X24.466797 Y25.595703 Z-1.000000 I-0.108041 J-0.109048
G02 X24.411533 Y25.454242 Z-1.000000 I-0.278609 J0.027318
G02 X24.310547 Y25.388672 Z-1.000000 I-0.140930 J0.106498
G03 X24.201226 Y25.329484 Z-1.000000 I0.053037 J-0.228511
G03 X24.154297 Y25.238281 Z-1.000000 I0.109163 J-0.113846
G03 X24.182183 Y25.153494 Z-1.000000 I0.099111 J-0.014382
G03 X24.292969 Y25.099609 Z-1.000000 I0.131925 J0.130406
G02 X24.388545 Y25.028456 Z-1.000000 I-0.013521 J-0.117930
G02 X24.443359 Y24.748047 Z-1.000000 I-0.623953 J-0.267532
G02 X24.394659 Y24.424451 Z-1.000000 I-1.258143 J0.023884
G02 X24.226562 Y23.996094 Z-1.000000 I-2.351321 J0.675549
G02 X23.578171 Y22.882943 Z-1.000000 I-9.697924 J4.903455
G02 X23.013672 Y22.171875 Z-1.000000 I-4.492273 J2.986700
G02 X22.054219 Y21.346519 Z-1.000000 I-4.390037 J4.132943
G02 X20.433594 Y20.386719 Z-1.000000 I-7.599732 J10.984061
G02 X19.686726 Y20.088406 Z-1.000000 I-2.142295 J4.279439
G02 X18.484375 Y19.791016 Z-1.000000 I-3.382773 J11.097317
G02 X17.598755 Y19.725788 Z-1.000000 I-0.723812 J3.782611
G02 X17.349609 Y19.839846 Z-1.000000 I0.015241 J0.362434
G03 X16.339829 Y20.317411 Z-1.000000 I-1.111794 J-1.044476
G03 X15.181641 Y19.984377 Z-1.000000 I-0.118517 J-1.768259
G01 X14.962891 Y19.826174 Z-1.000000
G01 X14.384766 Y20.009768 Z-1.000000
G02 X13.810346 Y20.199893 Z-1.000000 I7.531256 J23.716847
G02 X13.568359 Y20.291018 Z-1.000000 I1.485521 J4.311725
G01 X13.328125 Y20.388678 Z-1.000000
G01 X13.441406 Y20.509772 Z-1.000000
G03 X13.555049 Y20.775718 Z-1.000000 I-0.307039 J0.288457
G03 X13.460938 Y20.875000 Z-1.000000 I-0.094111 J0.005036
G03 X13.376048 Y20.850610 Z-1.000000 I0.000000 J-0.159927
G03 X13.195312 Y20.708984 Z-1.000000 I0.580824 J-0.927353
G01 X13.025391 Y20.544922 Z-1.000000
G01 X12.837891 Y20.658203 Z-1.000000
G01 X12.648438 Y20.771484 Z-1.000000
G01 X12.916016 Y21.042969 Z-1.000000
G03 X13.140086 Y21.321460 Z-1.000000 I-1.271785 J1.252649
G03 X13.148438 Y21.400391 Z-1.000000 I-0.073167 J0.047649
G03 X13.032778 Y21.454080 Z-1.000000 I-0.085524 J-0.032817
G03 X12.666016 Y21.232422 Z-1.000000 I0.340693 J-0.977978
G02 X12.388067 Y21.021640 Z-1.000000 I-1.156652 J1.236579
G02 X12.320312 Y21.021484 Z-1.000000 I-0.034007 J0.056015
G02 X11.635578 Y21.579391 Z-1.000000 I1.597734 J2.660089
G02 X10.941406 Y22.519531 Z-1.000000 I3.976905 J3.662781
G02 X10.530875 Y23.410404 Z-1.000000 I4.424514 J2.578927
G02 X10.435547 Y23.972656 Z-1.000000 I1.610442 J0.562252
G03 X10.409252 Y24.029021 Z-1.000000 I-0.073558 J0.000000
G03 X9.669922 Y24.613281 Z-1.000000 I-10.431502 J-12.440245
G02 X8.441476 Y25.591074 Z-1.000000 I14.412549 J19.367723
G02 X7.716797 Y26.275391 Z-1.000000 I6.216174 J7.308678
G02 X7.007920 Y27.137506 Z-1.000000 I5.467325 J5.218025
G02 X6.925781 Y27.396484 Z-1.000000 I0.367203 J0.258978
G02 X7.133309 Y27.839722 Z-1.000000 I0.577098 J-0.000000
G02 X9.306641 Y29.380859 Z-1.000000 I10.920748 J-13.097584
G02 X11.011160 Y30.309416 Z-1.000000 I12.509804 J-20.935067
G02 X12.052734 Y30.738281 Z-1.000000 I3.650185 J-7.385856
G03 X12.984596 Y31.123856 Z-1.000000 I-2.278045 J6.824462
G03 X13.972656 Y31.695312 Z-1.000000 I-4.116391 J8.257241
G03 X14.291853 Y31.963763 Z-1.000000 I-1.023127 J1.540525
G03 X14.359375 Y32.103516 Z-1.000000 I-0.185546 J0.175835
G02 X14.697740 Y34.004602 Z-1.000000 I27.703425 J-3.950138
G02 X14.996094 Y35.083984 Z-1.000000 I9.281302 J-1.984537
G02 X15.187913 Y35.504675 Z-1.000000 I2.211607 J-0.754334
G02 X15.261719 Y35.539062 Z-1.000000 I0.061614 J-0.035844
G01 X15.261719 Y35.539062 Z-1.000000
G00 Z5.000000

(End cutting path id: path38)


(Start cutting path id: path38)
(Change tool to Cylindrical cutter)

G00 Z5.000000
G00 X21.601562 Y27.445312

G01 Z-1.000000 F100.0(Penetrate)
G03 X21.320080 Y27.426481 Z-1.000000 I-0.114630 J-0.399712 F400.000000
G03 X21.080078 Y27.216797 Z-1.000000 I0.212795 J-0.485756
G03 X21.043053 Y26.996801 Z-1.000000 I0.256258 J-0.156242
G03 X21.142578 Y26.931641 Z-1.000000 I0.082890 J0.018019
G02 X21.303149 Y26.926152 Z-1.000000 I0.068646 J-0.343206
G02 X21.394531 Y26.863281 Z-1.000000 I-0.044068 J-0.161900
G02 X21.435903 Y26.683035 Z-1.000000 I-0.189114 J-0.138279
G02 X21.333981 Y26.529297 Z-1.000000 I-0.230109 J0.041899
G02 X21.196000 Y26.479850 Z-1.000000 I-0.171844 J0.262291
G02 X21.082028 Y26.501957 Z-1.000000 I-0.021227 J0.195411
G03 X21.005427 Y26.500278 Z-1.000000 I-0.036811 J-0.068783
G03 X20.968747 Y26.435547 Z-1.000000 I0.038183 J-0.064394
G03 X21.127114 Y25.904851 Z-1.000000 I0.982465 J0.004203
G03 X21.607419 Y25.453125 Z-1.000000 I1.161793 J0.754087
G03 X21.830757 Y25.410928 Z-1.000000 I0.173737 J0.307407
G03 X22.076169 Y25.519535 Z-1.000000 I-0.069242 J0.488034
G03 X22.317199 Y26.000679 Z-1.000000 I-0.426864 J0.514782
G03 X22.144529 Y26.865238 Z-1.000000 I-1.797480 J0.090530
G03 X21.855631 Y27.289653 Z-1.000000 I-1.519897 J-0.724057
G03 X21.601560 Y27.445316 Z-1.000000 I-0.407847 J-0.380505
G01 X21.601562 Y27.445312 Z-1.000000
G00 Z5.000000

(End cutting path id: path38)


(Start cutting path id: path38)
(Change tool to Cylindrical cutter)

G00 Z5.000000
G00 X21.601562 Y27.445312

G01 Z-1.000000 F100.0(Penetrate)
G03 X21.320080 Y27.426481 Z-1.000000 I-0.114630 J-0.399712 F400.000000
G03 X21.080078 Y27.216797 Z-1.000000 I0.212795 J-0.485756
G03 X21.043053 Y26.996801 Z-1.000000 I0.256258 J-0.156242
G03 X21.142578 Y26.931641 Z-1.000000 I0.082890 J0.018019
G02 X21.303149 Y26.926152 Z-1.000000 I0.068646 J-0.343206
G02 X21.394531 Y26.863281 Z-1.000000 I-0.044068 J-0.161900
G02 X21.435903 Y26.683035 Z-1.000000 I-0.189114 J-0.138279
G02 X21.333981 Y26.529297 Z-1.000000 I-0.230109 J0.041899
G02 X21.196000 Y26.479850 Z-1.000000 I-0.171844 J0.262291
G02 X21.082028 Y26.501957 Z-1.000000 I-0.021227 J0.195411
G03 X21.005427 Y26.500278 Z-1.000000 I-0.036811 J-0.068783
G03 X20.968747 Y26.435547 Z-1.000000 I0.038183 J-0.064394
G03 X21.127114 Y25.904851 Z-1.000000 I0.982465 J0.004203
G03 X21.607419 Y25.453125 Z-1.000000 I1.161793 J0.754087
G03 X21.830757 Y25.410928 Z-1.000000 I0.173737 J0.307407
G03 X22.076169 Y25.519535 Z-1.000000 I-0.069242 J0.488034
G03 X22.317199 Y26.000679 Z-1.000000 I-0.426864 J0.514782
G03 X22.144529 Y26.865238 Z-1.000000 I-1.797480 J0.090530
G03 X21.855631 Y27.289653 Z-1.000000 I-1.519897 J-0.724057
G03 X21.601560 Y27.445316 Z-1.000000 I-0.407847 J-0.380505
G01 X21.601562 Y27.445312 Z-1.000000
G00 Z5.000000

(End cutting path id: path38)


(Start cutting path id: path38)
(Change tool to Cylindrical cutter)

G00 Z5.000000
G00 X23.173828 Y25.646484

G01 Z-1.000000 F100.0(Penetrate)
G03 X23.111903 Y25.640411 Z-1.000000 I-0.024899 J-0.064871 F400.000000
G03 X23.083988 Y25.589844 Z-1.000000 I0.031843 J-0.050567
G03 X23.115948 Y25.531636 Z-1.000000 I0.068985 J-0.000001
G03 X23.224613 Y25.500004 Z-1.000000 I0.108665 J0.170833
G03 X23.340939 Y25.523179 Z-1.000000 I-0.000000 J0.303535
G01 X23.363285 Y25.556644 Z-1.000000
G03 X23.347721 Y25.596058 Z-1.000000 I-0.057686 J0.000000
G01 X23.312505 Y25.611334 Z-1.000000
G02 X23.262678 Y25.617806 Z-1.000000 I0.000000 J0.195042
G02 X23.173833 Y25.646494 Z-1.000000 I0.220952 J0.836192
G01 X23.173828 Y25.646484 Z-1.000000
G00 Z5.000000

(End cutting path id: path38)


(Start cutting path id: path38)
(Change tool to Cylindrical cutter)

G00 Z5.000000
G00 X23.173828 Y25.646484

G01 Z-1.000000 F100.0(Penetrate)
G03 X23.111903 Y25.640411 Z-1.000000 I-0.024899 J-0.064871 F400.000000
G03 X23.083988 Y25.589844 Z-1.000000 I0.031843 J-0.050567
G03 X23.115948 Y25.531636 Z-1.000000 I0.068985 J-0.000001
G03 X23.224613 Y25.500004 Z-1.000000 I0.108665 J0.170833
G03 X23.340939 Y25.523179 Z-1.000000 I-0.000000 J0.303535
G01 X23.363285 Y25.556644 Z-1.000000
G03 X23.347721 Y25.596058 Z-1.000000 I-0.057686 J0.000000
G01 X23.312505 Y25.611334 Z-1.000000
G02 X23.262678 Y25.617806 Z-1.000000 I0.000000 J0.195042
G02 X23.173833 Y25.646494 Z-1.000000 I0.220952 J0.836192
G01 X23.173828 Y25.646484 Z-1.000000
G00 Z5.000000

(End cutting path id: path38)


(Start cutting path id: path38)
(Change tool to Cylindrical cutter)

G00 Z5.000000
G00 X23.251958 Y25.390625

G01 Z-1.000000 F100.0(Penetrate)
G03 X23.036277 Y25.451303 Z-1.000000 I-0.209786 J-0.332027 F400.000000
G03 X22.972661 Y25.386725 Z-1.000000 I0.000969 J-0.064578
G03 X22.993289 Y25.343104 Z-1.000000 I0.056435 J0.000000
G03 X23.099614 Y25.281256 Z-1.000000 I0.244182 J0.297463
G03 X23.254609 Y25.301260 Z-1.000000 I0.058957 J0.153659
G03 X23.251958 Y25.390631 Z-1.000000 I-0.031466 J0.043791
G01 X23.251958 Y25.390625 Z-1.000000
G00 Z5.000000

(End cutting path id: path38)


(Start cutting path id: path38)
(Change tool to Cylindrical cutter)

G00 Z5.000000
G00 X23.251958 Y25.390625

G01 Z-1.000000 F100.0(Penetrate)
G03 X23.036277 Y25.451303 Z-1.000000 I-0.209786 J-0.332027 F400.000000
G03 X22.972661 Y25.386725 Z-1.000000 I0.000969 J-0.064578
G03 X22.993289 Y25.343104 Z-1.000000 I0.056435 J0.000000
G03 X23.099614 Y25.281256 Z-1.000000 I0.244182 J0.297463
G03 X23.254609 Y25.301260 Z-1.000000 I0.058957 J0.153659
G03 X23.251958 Y25.390631 Z-1.000000 I-0.031466 J0.043791
G01 X23.251958 Y25.390625 Z-1.000000
G00 Z5.000000

(End cutting path id: path38)


(Start cutting path id: path38)
(Change tool to Cylindrical cutter)

G00 Z5.000000
G00 X24.712896 Y24.226562

G01 Z-1.000000 F100.0(Penetrate)
G01 X24.851567 Y24.097656 Z-1.000000 F400.000000
G02 X25.057468 Y23.784778 Z-1.000000 I-0.543356 J-0.581765
G02 X25.187505 Y23.158203 Z-1.000000 I-2.159320 J-0.774919
G01 X25.218755 Y22.662109 Z-1.000000
G01 X25.041021 Y22.498047 Z-1.000000
G02 X24.849948 Y22.356923 Z-1.000000 I-0.705294 J0.755013
G02 X24.601567 Y22.246094 Z-1.000000 I-0.669612 J1.166938
G02 X24.334598 Y22.180918 Z-1.000000 I-0.545167 J1.653715
G02 X23.837896 Y22.123047 Z-1.000000 I-0.898618 J5.552246
G01 X23.335943 Y22.087887 Z-1.000000
G01 X23.505864 Y22.275387 Z-1.000000
G03 X23.690119 Y22.508264 Z-1.000000 I-1.647206 J1.492622
G03 X24.218755 Y23.312496 Z-1.000000 I-18.869398 J12.979041
G03 X24.358546 Y23.550289 Z-1.000000 I-4.027916 J2.527879
G03 X24.367193 Y23.583980 Z-1.000000 I-0.061315 J0.033691
G02 X24.375243 Y23.618049 Z-1.000000 I0.076120 J0.000000
G02 X24.539067 Y23.923824 Z-1.000000 I5.579136 J-2.792346
G01 X24.712896 Y24.226562 Z-1.000000
G00 Z5.000000

(End cutting path id: path38)


(Start cutting path id: path38)
(Change tool to Cylindrical cutter)

G00 Z5.000000
G00 X24.712896 Y24.226562

G01 Z-1.000000 F100.0(Penetrate)
G01 X24.851567 Y24.097656 Z-1.000000 F400.000000
G02 X25.057468 Y23.784778 Z-1.000000 I-0.543356 J-0.581765
G02 X25.187505 Y23.158203 Z-1.000000 I-2.159320 J-0.774919
G01 X25.218755 Y22.662109 Z-1.000000
G01 X25.041021 Y22.498047 Z-1.000000
G02 X24.849948 Y22.356923 Z-1.000000 I-0.705294 J0.755013
G02 X24.601567 Y22.246094 Z-1.000000 I-0.669612 J1.166938
G02 X24.334598 Y22.180918 Z-1.000000 I-0.545167 J1.653715
G02 X23.837896 Y22.123047 Z-1.000000 I-0.898618 J5.552246
G01 X23.335943 Y22.087887 Z-1.000000
G01 X23.505864 Y22.275387 Z-1.000000
G03 X23.690119 Y22.508264 Z-1.000000 I-1.647206 J1.492622
G03 X24.218755 Y23.312496 Z-1.000000 I-18.869398 J12.979041
G03 X24.358546 Y23.550289 Z-1.000000 I-4.027916 J2.527879
G03 X24.367193 Y23.583980 Z-1.000000 I-0.061315 J0.033691
G02 X24.375243 Y23.618049 Z-1.000000 I0.076120 J0.000000
G02 X24.539067 Y23.923824 Z-1.000000 I5.579136 J-2.792346
G01 X24.712896 Y24.226562 Z-1.000000
G00 Z5.000000

(End cutting path id: path38)


(Start cutting path id: path38)
(Change tool to Cylindrical cutter)

G00 Z5.000000
G00 X25.468755 Y22.490230

G01 Z-1.000000 F100.0(Penetrate)
G01 X25.794927 Y22.376949 Z-1.000000 F400.000000
G03 X26.122379 Y22.273427 Z-1.000000 I2.219646 J6.451371
G03 X26.265630 Y22.240230 Z-1.000000 I0.382709 J1.325771
G02 X26.693025 Y22.105915 Z-1.000000 I-0.299623 J-1.700563
G02 X27.314458 Y21.753902 Z-1.000000 I-1.862670 J-4.012836
G02 X27.559144 Y21.565402 Z-1.000000 I-1.440695 J-2.123183
G02 X28.054693 Y21.109371 Z-1.000000 I-8.116721 J-9.317345
G03 X28.559268 Y20.706876 Z-1.000000 I2.304293 J2.371180
G03 X28.726567 Y20.673824 Z-1.000000 I0.124962 J0.192588
G02 X29.117245 Y20.673953 Z-1.000000 I0.195683 J-1.043026
G02 X30.595708 Y20.324215 Z-1.000000 I-2.940305 J-15.729550
G02 X31.851822 Y19.899351 Z-1.000000 I-3.948967 J-13.744426
G02 X32.783208 Y19.468746 Z-1.000000 I-3.087490 J-7.900743
G02 X33.439962 Y18.986255 Z-1.000000 I-1.383127 J-2.570900
G02 X33.480474 Y18.787105 Z-1.000000 I-0.126402 J-0.129409
G02 X33.172306 Y18.183173 Z-1.000000 I-4.117064 J1.720222
G02 X32.527349 Y17.226558 Z-1.000000 I-10.867919 J6.631506
G02 X31.563220 Y16.119578 Z-1.000000 I-7.563735 J5.614321
G02 X30.550786 Y15.285152 Z-1.000000 I-5.292325 J5.389914
G01 X30.412114 Y15.189452 Z-1.000000
G01 X30.349614 Y15.753905 Z-1.000000
G03 X30.197298 Y16.335844 Z-1.000000 I-2.059398 J-0.228122
G03 X30.082036 Y16.384765 Z-1.000000 I-0.082971 J-0.035243
G01 X30.050689 Y16.341198 Z-1.000000
G03 X30.021486 Y14.982421 Z-1.000000 I31.595943 J-1.358777
G02 X29.890376 Y13.375407 Z-1.000000 I-9.914138 J0.000000
G02 X29.566408 Y12.210937 Z-1.000000 I-5.505283 J0.904328
G02 X28.724937 Y10.673027 Z-1.000000 I-6.756888 J2.697885
G02 X27.974611 Y9.988280 Z-1.000000 I-1.984314 J1.420888
G01 X27.724611 Y9.839843 Z-1.000000
G01 X27.453127 Y9.958983 Z-1.000000
G03 X27.174131 Y10.045804 Z-1.000000 I-0.538813 J-1.239777
G03 X26.845705 Y10.078124 Z-1.000000 I-0.333252 J-1.701554
G03 X25.806471 Y9.881868 Z-1.000000 I-0.007989 J-2.807351
G03 X24.892580 Y9.306640 Z-1.000000 I1.074582 J-2.720822
G02 X24.707361 Y9.217448 Z-1.000000 I-0.237473 J0.256232
G02 X23.810549 Y9.142577 Z-1.000000 I-1.007602 J6.660669
G02 X21.918679 Y9.214011 Z-1.000000 I-0.287421 J17.475985
G02 X20.410158 Y9.457030 Z-1.000000 I1.035180 J11.229304
G02 X19.443968 Y9.803301 Z-1.000000 I0.994945 J4.297261
G02 X18.312502 Y10.498046 Z-1.000000 I3.286547 J6.621225
G02 X17.883694 Y10.886136 Z-1.000000 I1.822000 J2.444106
G02 X16.722658 Y12.238280 Z-1.000000 I21.435827 J19.580694
G02 X16.075889 Y13.406912 Z-1.000000 I3.014060 J2.431394
G02 X15.841799 Y14.792968 Z-1.000000 I4.048836 J1.396601
G02 X15.868329 Y15.085804 Z-1.000000 I1.586134 J0.003921
G02 X16.070314 Y16.031249 Z-1.000000 I17.410300 J-3.225241
G01 X16.298830 Y16.974608 Z-1.000000
G01 X16.677736 Y17.173827 Z-1.000000
G03 X17.347507 Y17.625521 Z-1.000000 I-1.719193 J3.271629
G03 X17.619143 Y17.970702 Z-1.000000 I-0.710286 J0.838422
G03 X17.840084 Y18.716397 Z-1.000000 I-1.968384 J0.988788
G03 X17.763674 Y19.273437 Z-1.000000 I-1.143243 J0.126941
G02 X17.774588 Y19.337205 Z-1.000000 I0.057147 J0.023037
G02 X17.849614 Y19.371097 Z-1.000000 I0.075026 J-0.066097
G03 X19.259778 Y19.566966 Z-1.000000 I0.000000 J5.174185
G03 X20.744146 Y20.191409 Z-1.000000 I-1.800616 J6.356733
G03 X21.864196 Y20.883910 Z-1.000000 I-9.811821 J17.121665
G03 X22.861333 Y21.599612 Z-1.000000 I-9.599364 J14.426580
G02 X23.074953 Y21.702026 Z-1.000000 I0.345975 J-0.447655
G02 X23.642583 Y21.787112 Z-1.000000 I0.769693 J-3.198867
G03 X24.813832 Y22.009684 Z-1.000000 I-0.290499 J4.721739
G03 X25.320317 Y22.332034 Z-1.000000 I-0.371058 J1.142094
G01 X25.468755 Y22.490230 Z-1.000000
G00 Z5.000000

(End cutting path id: path38)


(Start cutting path id: path38)
(Change tool to Cylindrical cutter)

G00 Z5.000000
G00 X25.468755 Y22.490230

G01 Z-1.000000 F100.0(Penetrate)
G01 X25.794927 Y22.376949 Z-1.000000 F400.000000
G03 X26.122379 Y22.273427 Z-1.000000 I2.219646 J6.451371
G03 X26.265630 Y22.240230 Z-1.000000 I0.382709 J1.325771
G02 X26.693025 Y22.105915 Z-1.000000 I-0.299623 J-1.700563
G02 X27.314458 Y21.753902 Z-1.000000 I-1.862670 J-4.012836
G02 X27.559144 Y21.565402 Z-1.000000 I-1.440695 J-2.123183
G02 X28.054693 Y21.109371 Z-1.000000 I-8.116721 J-9.317345
G03 X28.559268 Y20.706876 Z-1.000000 I2.304293 J2.371180
G03 X28.726567 Y20.673824 Z-1.000000 I0.124962 J0.192588
G02 X29.117245 Y20.673953 Z-1.000000 I0.195683 J-1.043026
G02 X30.595708 Y20.324215 Z-1.000000 I-2.940305 J-15.729550
G02 X31.851822 Y19.899351 Z-1.000000 I-3.948967 J-13.744426
G02 X32.783208 Y19.468746 Z-1.000000 I-3.087490 J-7.900743
G02 X33.439962 Y18.986255 Z-1.000000 I-1.383127 J-2.570900
G02 X33.480474 Y18.787105 Z-1.000000 I-0.126402 J-0.129409
G02 X33.172306 Y18.183173 Z-1.000000 I-4.117064 J1.720222
G02 X32.527349 Y17.226558 Z-1.000000 I-10.867919 J6.631506
G02 X31.563220 Y16.119578 Z-1.000000 I-7.563735 J5.614321
G02 X30.550786 Y15.285152 Z-1.000000 I-5.292325 J5.389914
G01 X30.412114 Y15.189452 Z-1.000000
G01 X30.349614 Y15.753905 Z-1.000000
G03 X30.197298 Y16.335844 Z-1.000000 I-2.059398 J-0.228122
G03 X30.082036 Y16.384765 Z-1.000000 I-0.082971 J-0.035243
G01 X30.050689 Y16.341198 Z-1.000000
G03 X30.021486 Y14.982421 Z-1.000000 I31.595943 J-1.358777
G02 X29.890376 Y13.375407 Z-1.000000 I-9.914138 J0.000000
G02 X29.566408 Y12.210937 Z-1.000000 I-5.505283 J0.904328
G02 X28.724937 Y10.673027 Z-1.000000 I-6.756888 J2.697885
G02 X27.974611 Y9.988280 Z-1.000000 I-1.984314 J1.420888
G01 X27.724611 Y9.839843 Z-1.000000
G01 X27.453127 Y9.958983 Z-1.000000
G03 X27.174131 Y10.045804 Z-1.000000 I-0.538813 J-1.239777
G03 X26.845705 Y10.078124 Z-1.000000 I-0.333252 J-1.701554
G03 X25.806471 Y9.881868 Z-1.000000 I-0.007989 J-2.807351
G03 X24.892580 Y9.306640 Z-1.000000 I1.074582 J-2.720822
G02 X24.707361 Y9.217448 Z-1.000000 I-0.237473 J0.256232
G02 X23.810549 Y9.142577 Z-1.000000 I-1.007602 J6.660669
G02 X21.918679 Y9.214011 Z-1.000000 I-0.287421 J17.475985
G02 X20.410158 Y9.457030 Z-1.000000 I1.035180 J11.229304
G02 X19.443968 Y9.803301 Z-1.000000 I0.994945 J4.297261
G02 X18.312502 Y10.498046 Z-1.000000 I3.286547 J6.621225
G02 X17.883694 Y10.886136 Z-1.000000 I1.822000 J2.444106
G02 X16.722658 Y12.238280 Z-1.000000 I21.435827 J19.580694
G02 X16.075889 Y13.406912 Z-1.000000 I3.014060 J2.431394
G02 X15.841799 Y14.792968 Z-1.000000 I4.048836 J1.396601
G02 X15.868329 Y15.085804 Z-1.000000 I1.586134 J0.003921
G02 X16.070314 Y16.031249 Z-1.000000 I17.410300 J-3.225241
G01 X16.298830 Y16.974608 Z-1.000000
G01 X16.677736 Y17.173827 Z-1.000000
G03 X17.347507 Y17.625521 Z-1.000000 I-1.719193 J3.271629
G03 X17.619143 Y17.970702 Z-1.000000 I-0.710286 J0.838422
G03 X17.840084 Y18.716397 Z-1.000000 I-1.968384 J0.988788
G03 X17.763674 Y19.273437 Z-1.000000 I-1.143243 J0.126941
G02 X17.774588 Y19.337205 Z-1.000000 I0.057147 J0.023037
G02 X17.849614 Y19.371097 Z-1.000000 I0.075026 J-0.066097
G03 X19.259778 Y19.566966 Z-1.000000 I0.000000 J5.174185
G03 X20.744146 Y20.191409 Z-1.000000 I-1.800616 J6.356733
G03 X21.864196 Y20.883910 Z-1.000000 I-9.811821 J17.121665
G03 X22.861333 Y21.599612 Z-1.000000 I-9.599364 J14.426580
G02 X23.074953 Y21.702026 Z-1.000000 I0.345975 J-0.447655
G02 X23.642583 Y21.787112 Z-1.000000 I0.769693 J-3.198867
G03 X24.813832 Y22.009684 Z-1.000000 I-0.290499 J4.721739
G03 X25.320317 Y22.332034 Z-1.000000 I-0.371058 J1.142094
G01 X25.468755 Y22.490230 Z-1.000000
G00 Z5.000000

(End cutting path id: path38)


(Start cutting path id: path38)
(Change tool to Cylindrical cutter)

G00 Z5.000000
G00 X20.626958 Y23.642578

G01 Z-1.000000 F100.0(Penetrate)
G02 X20.437483 Y23.504417 Z-1.000000 I-0.217309 J0.099014 F400.000000
G02 X20.076177 Y23.578128 Z-1.000000 I-0.068716 J0.585533
G03 X19.893280 Y23.578566 Z-1.000000 I-0.091834 J-0.160650
G03 X19.783208 Y23.412112 Z-1.000000 I0.107991 J-0.191033
G02 X19.532924 Y22.966744 Z-1.000000 I-0.652191 J0.073503
G02 X19.185552 Y22.949222 Z-1.000000 I-0.186257 J0.240462
G03 X19.098506 Y22.924690 Z-1.000000 I-0.032371 J-0.051836
G03 X19.121102 Y22.820315 Z-1.000000 I0.076318 J-0.038111
G03 X19.549605 Y22.771899 Z-1.000000 I0.252125 J0.310993
G03 X19.906258 Y23.205081 Z-1.000000 I-0.299255 J0.609800
G01 X19.966808 Y23.429691 Z-1.000000
G01 X20.189464 Y23.341801 Z-1.000000
G03 X20.543147 Y23.333541 Z-1.000000 I0.188123 J0.478918
G03 X20.748058 Y23.531254 Z-1.000000 I-0.107566 J0.316523
G03 X20.717415 Y23.660913 Z-1.000000 I-0.111030 J0.042211
G03 X20.626964 Y23.642582 Z-1.000000 I-0.038578 J-0.041967
G01 X20.626958 Y23.642578 Z-1.000000
G00 Z5.000000

(End cutting path id: path38)


(Start cutting path id: path38)
(Change tool to Cylindrical cutter)

G00 Z5.000000
G00 X20.626958 Y23.642578

G01 Z-1.000000 F100.0(Penetrate)
G02 X20.437483 Y23.504417 Z-1.000000 I-0.217309 J0.099014 F400.000000
G02 X20.076177 Y23.578128 Z-1.000000 I-0.068716 J0.585533
G03 X19.893280 Y23.578566 Z-1.000000 I-0.091834 J-0.160650
G03 X19.783208 Y23.412112 Z-1.000000 I0.107991 J-0.191033
G02 X19.532924 Y22.966744 Z-1.000000 I-0.652191 J0.073503
G02 X19.185552 Y22.949222 Z-1.000000 I-0.186257 J0.240462
G03 X19.098506 Y22.924690 Z-1.000000 I-0.032371 J-0.051836
G03 X19.121102 Y22.820315 Z-1.000000 I0.076318 J-0.038111
G03 X19.549605 Y22.771899 Z-1.000000 I0.252125 J0.310993
G03 X19.906258 Y23.205081 Z-1.000000 I-0.299255 J0.609800
G01 X19.966808 Y23.429691 Z-1.000000
G01 X20.189464 Y23.341801 Z-1.000000
G03 X20.543147 Y23.333541 Z-1.000000 I0.188123 J0.478918
G03 X20.748058 Y23.531254 Z-1.000000 I-0.107566 J0.316523
G03 X20.717415 Y23.660913 Z-1.000000 I-0.111030 J0.042211
G03 X20.626964 Y23.642582 Z-1.000000 I-0.038578 J-0.041967
G01 X20.626958 Y23.642578 Z-1.000000
G00 Z5.000000

(End cutting path id: path38)


(Start cutting path id: path38)
(Change tool to Cylindrical cutter)

G00 Z5.000000
G00 X16.287114 Y22.531250

G01 Z-1.000000 F100.0(Penetrate)
G03 X16.311566 Y22.468182 Z-1.000000 I0.093562 J0.000000 F400.000000
G03 X16.412114 Y22.394531 Z-1.000000 I0.232996 J0.212628
G03 X16.577448 Y22.397386 Z-1.000000 I0.079716 J0.172267
G03 X16.589849 Y22.484371 Z-1.000000 I-0.024168 J0.047822
G03 X16.361938 Y22.595310 Z-1.000000 I-0.294271 J-0.314969
G03 X16.287114 Y22.531241 Z-1.000000 I-0.009982 J-0.064069
G01 X16.287114 Y22.531250 Z-1.000000
G00 Z5.000000

(End cutting path id: path38)


(Start cutting path id: path38)
(Change tool to Cylindrical cutter)

G00 Z5.000000
G00 X16.287114 Y22.531250

G01 Z-1.000000 F100.0(Penetrate)
G03 X16.311566 Y22.468182 Z-1.000000 I0.093562 J0.000000 F400.000000
G03 X16.412114 Y22.394531 Z-1.000000 I0.232996 J0.212628
G03 X16.577448 Y22.397386 Z-1.000000 I0.079716 J0.172267
G03 X16.589849 Y22.484371 Z-1.000000 I-0.024168 J0.047822
G03 X16.361938 Y22.595310 Z-1.000000 I-0.294271 J-0.314969
G03 X16.287114 Y22.531241 Z-1.000000 I-0.009982 J-0.064069
G01 X16.287114 Y22.531250 Z-1.000000
G00 Z5.000000

(End cutting path id: path38)


(Start cutting path id: path38)
(Change tool to Cylindrical cutter)

G00 Z5.000000
G00 X15.910161 Y22.412100

G01 Z-1.000000 F100.0(Penetrate)
G01 X15.905366 Y22.372324 Z-1.000000 F400.000000
G03 X16.000001 Y22.263663 Z-1.000000 I0.358177 J0.216402
G03 X16.175608 Y22.192157 Z-1.000000 I0.205654 J0.253669
G03 X16.230470 Y22.242183 Z-1.000000 I0.004623 J0.050026
G03 X16.110093 Y22.442281 Z-1.000000 I-0.226495 J0.000000
G03 X15.910157 Y22.412104 Z-1.000000 I-0.079593 J-0.150082
G01 X15.910161 Y22.412100 Z-1.000000
G00 Z5.000000

(End cutting path id: path38)


(Start cutting path id: path38)
(Change tool to Cylindrical cutter)

G00 Z5.000000
G00 X15.910161 Y22.412100

G01 Z-1.000000 F100.0(Penetrate)
G01 X15.905366 Y22.372324 Z-1.000000 F400.000000
G03 X16.000001 Y22.263663 Z-1.000000 I0.358177 J0.216402
G03 X16.175608 Y22.192157 Z-1.000000 I0.205654 J0.253669
G03 X16.230470 Y22.242183 Z-1.000000 I0.004623 J0.050026
G03 X16.110093 Y22.442281 Z-1.000000 I-0.226495 J0.000000
G03 X15.910157 Y22.412104 Z-1.000000 I-0.079593 J-0.150082
G01 X15.910161 Y22.412100 Z-1.000000
G00 Z5.000000

(End cutting path id: path38)


(Start cutting path id: path38)
(Change tool to Cylindrical cutter)

G00 Z5.000000
G00 X16.119146 Y25.138672

G01 Z-1.000000 F100.0(Penetrate)
G03 X15.579272 Y25.215450 Z-1.000000 I-0.379865 J-0.734579 F400.000000
G03 X15.076177 Y24.933594 Z-1.000000 I0.179539 J-0.910389
G01 X14.951177 Y24.798828 Z-1.000000
G01 X15.140630 Y24.820308 Z-1.000000
G02 X15.307585 Y24.795311 Z-1.000000 I0.037394 J-0.320291
G02 X15.425786 Y24.695308 Z-1.000000 I-0.109237 J-0.248972
G02 X15.365830 Y24.318514 Z-1.000000 I-0.237207 J-0.155422
G02 X14.974614 Y24.333980 Z-1.000000 I-0.186696 J0.233168
G01 X14.837896 Y24.460934 Z-1.000000
G01 X14.837896 Y24.242184 Z-1.000000
G03 X14.970387 Y23.833503 Z-1.000000 I0.696552 J0.000000
G03 X15.363286 Y23.517574 Z-1.000000 I0.774953 J0.561480
G03 X15.711112 Y23.445147 Z-1.000000 I0.347774 J0.798742
G03 X16.072271 Y23.517574 Z-1.000000 I-0.000056 J0.936956
G03 X16.611615 Y24.302729 Z-1.000000 I-0.338620 J0.810429
G03 X16.119141 Y25.138668 Z-1.000000 I-0.911186 J0.026231
G01 X16.119146 Y25.138672 Z-1.000000
G00 Z5.000000

(End cutting path id: path38)


(Start cutting path id: path38)
(Change tool to Cylindrical cutter)

G00 Z5.000000
G00 X16.119146 Y25.138672

G01 Z-1.000000 F100.0(Penetrate)
G03 X15.579272 Y25.215450 Z-1.000000 I-0.379865 J-0.734579 F400.000000
G03 X15.076177 Y24.933594 Z-1.000000 I0.179539 J-0.910389
G01 X14.951177 Y24.798828 Z-1.000000
G01 X15.140630 Y24.820308 Z-1.000000
G02 X15.307585 Y24.795311 Z-1.000000 I0.037394 J-0.320291
G02 X15.425786 Y24.695308 Z-1.000000 I-0.109237 J-0.248972
G02 X15.365830 Y24.318514 Z-1.000000 I-0.237207 J-0.155422
G02 X14.974614 Y24.333980 Z-1.000000 I-0.186696 J0.233168
G01 X14.837896 Y24.460934 Z-1.000000
G01 X14.837896 Y24.242184 Z-1.000000
G03 X14.970387 Y23.833503 Z-1.000000 I0.696552 J0.000000
G03 X15.363286 Y23.517574 Z-1.000000 I0.774953 J0.561480
G03 X15.711112 Y23.445147 Z-1.000000 I0.347774 J0.798742
G03 X16.072271 Y23.517574 Z-1.000000 I-0.000056 J0.936956
G03 X16.611615 Y24.302729 Z-1.000000 I-0.338620 J0.810429
G03 X16.119141 Y25.138668 Z-1.000000 I-0.911186 J0.026231
G01 X16.119146 Y25.138672 Z-1.000000
G00 Z5.000000

(End cutting path id: path38)


(Start cutting path id: path38)
(Change tool to Cylindrical cutter)

G00 Z5.000000
G00 X11.652349 Y21.097647

G01 Z-1.000000 F100.0(Penetrate)
G02 X11.737205 Y21.072637 Z-1.000000 I-0.002889 J-0.166262 F400.000000
G02 X11.931646 Y20.925772 Z-1.000000 I-0.707174 J-1.138403
G02 X11.991857 Y20.721339 Z-1.000000 I-0.137964 J-0.151717
G02 X11.820317 Y20.507803 Z-1.000000 I-0.326935 J0.086968
G03 X11.665999 Y20.317888 Z-1.000000 I0.140607 J-0.271906
G03 X11.732427 Y20.191397 Z-1.000000 I0.100463 J-0.027929
G03 X11.897028 Y20.198918 Z-1.000000 I0.072836 J0.210898
G03 X12.222661 Y20.412100 Z-1.000000 I-0.515809 J1.143183
G02 X12.408603 Y20.487673 Z-1.000000 I0.196685 J-0.217395
G02 X12.615239 Y20.425770 Z-1.000000 I0.012278 J-0.334848
G01 X12.779302 Y20.308583 Z-1.000000
G01 X12.638677 Y20.142567 Z-1.000000
G03 X12.502696 Y19.858329 Z-1.000000 I0.481073 J-0.404794
G03 X12.558597 Y19.730458 Z-1.000000 I0.120395 J-0.023522
G03 X12.615228 Y19.731094 Z-1.000000 I0.027814 J0.044992
G03 X12.855472 Y19.923817 Z-1.000000 I-0.840896 J1.294340
G01 X13.091800 Y20.156239 Z-1.000000
G01 X13.505862 Y19.990223 Z-1.000000
G03 X13.922414 Y19.832088 Z-1.000000 I4.604117 J11.500231
G03 X14.318362 Y19.699208 Z-1.000000 I3.353802 J9.337134
G02 X14.641356 Y19.547525 Z-1.000000 I-0.391249 J-1.252860
G01 X14.656253 Y19.480458 Z-1.000000
G03 X14.633688 Y19.286518 Z-1.000000 I0.193382 J-0.120783
G03 X14.750003 Y19.203114 Z-1.000000 I0.116315 J0.039404
G03 X14.820142 Y19.228947 Z-1.000000 I0.000000 J0.108133
G03 X14.984378 Y19.402333 Z-1.000000 I-0.727288 J0.853387
G02 X15.392521 Y19.740612 Z-1.000000 I0.935928 J-0.713865
G02 X16.001956 Y19.912098 Z-1.000000 I0.748978 J-1.493095
G02 X16.663494 Y19.853617 Z-1.000000 I0.162261 J-1.935409
G02 X17.113284 Y19.617177 Z-1.000000 I-0.294057 J-1.105444
G02 X17.460633 Y19.046403 Z-1.000000 I-0.698714 J-0.816287
G02 X17.423831 Y18.294911 Z-1.000000 I-1.327746 J-0.311624
G02 X17.157025 Y17.907858 Z-1.000000 I-0.818963 J0.279049
G02 X16.214847 Y17.292958 Z-1.000000 I-3.158406 J3.810178
G03 X15.355891 Y16.730280 Z-1.000000 I1.993020 J-3.979401
G03 X15.009769 Y16.287098 Z-1.000000 I0.855462 J-1.024861
G03 X14.927705 Y16.031006 Z-1.000000 I0.862877 J-0.417701
G03 X14.951179 Y15.943348 Z-1.000000 I0.107043 J-0.018307
G03 X15.090011 Y15.920802 Z-1.000000 I0.082345 J0.068341
G03 X15.300788 Y16.160145 Z-1.000000 I-0.291743 J0.469405
G02 X15.700766 Y16.739663 Z-1.000000 I1.840914 J-0.842793
G02 X15.873054 Y16.740223 Z-1.000000 I0.086423 J-0.085305
G02 X15.897960 Y16.656330 Z-1.000000 I-0.064915 J-0.064915
G02 X15.640632 Y15.638661 Z-1.000000 I-13.021351 J2.751210
G03 X15.536731 Y14.809529 Z-1.000000 I2.477555 J-0.731547
G03 X15.718762 Y13.587880 Z-1.000000 I5.614855 J0.212253
G01 X15.884778 Y12.957020 Z-1.000000
G01 X15.599621 Y13.228505 Z-1.000000
G03 X14.971114 Y13.646868 Z-1.000000 I-1.545094 J-1.639910
G03 X14.392590 Y13.767567 Z-1.000000 I-0.567928 J-1.275329
G03 X13.705554 Y13.580557 Z-1.000000 I0.010532 J-1.394213
G03 X12.382824 Y12.605458 Z-1.000000 I3.701588 J-6.405927
G02 X12.003674 Y12.284857 Z-1.000000 I-3.780057 J4.085889
G02 X11.699231 Y12.078114 Z-1.000000 I-1.851650 J2.399148
G02 X11.003541 Y11.892431 Z-1.000000 I-0.676926 J1.140115
G02 X10.158215 Y12.099594 Z-1.000000 I0.027461 J1.940308
G02 X9.416008 Y12.613552 Z-1.000000 I1.464082 J2.907170
G02 X8.736328 Y13.410156 Z-1.000000 I2.973039 J3.224924
G02 X8.511963 Y13.800035 Z-1.000000 I2.905009 J1.931254
G02 X8.281250 Y14.335938 Z-1.000000 I5.119658 J2.521691
G02 X8.137103 Y14.896723 Z-1.000000 I2.619493 J0.972248
G02 X8.052734 Y15.869141 Z-1.000000 I7.885429 J1.174019
G02 X8.121248 Y17.457877 Z-1.000000 I11.631965 J0.294223
G02 X8.296875 Y18.046875 Z-1.000000 I1.721966 J-0.192772
G02 X8.806868 Y18.866494 Z-1.000000 I4.872434 J-2.463310
G02 X9.785156 Y20.023438 Z-1.000000 I10.663525 J-8.024771
G02 X10.181750 Y20.405080 Z-1.000000 I4.353631 J-4.127318
G02 X10.437500 Y20.597656 Z-1.000000 I1.411260 J-1.608101
G02 X11.250999 Y21.021836 Z-1.000000 I2.760228 J-4.301447
G02 X11.652344 Y21.097656 Z-1.000000 I0.383873 J-0.931841
G01 X11.652349 Y21.097647 Z-1.000000
G00 Z5.000000

(End cutting path id: path38)


(Start cutting path id: path38)
(Change tool to Cylindrical cutter)

G00 Z5.000000
G00 X11.652349 Y21.097647

G01 Z-1.000000 F100.0(Penetrate)
G02 X11.737205 Y21.072637 Z-1.000000 I-0.002889 J-0.166262 F400.000000
G02 X11.931646 Y20.925772 Z-1.000000 I-0.707174 J-1.138403
G02 X11.991857 Y20.721339 Z-1.000000 I-0.137964 J-0.151717
G02 X11.820317 Y20.507803 Z-1.000000 I-0.326935 J0.086968
G03 X11.665999 Y20.317888 Z-1.000000 I0.140607 J-0.271906
G03 X11.732427 Y20.191397 Z-1.000000 I0.100463 J-0.027929
G03 X11.897028 Y20.198918 Z-1.000000 I0.072836 J0.210898
G03 X12.222661 Y20.412100 Z-1.000000 I-0.515809 J1.143183
G02 X12.408603 Y20.487673 Z-1.000000 I0.196685 J-0.217395
G02 X12.615239 Y20.425770 Z-1.000000 I0.012278 J-0.334848
G01 X12.779302 Y20.308583 Z-1.000000
G01 X12.638677 Y20.142567 Z-1.000000
G03 X12.502696 Y19.858329 Z-1.000000 I0.481073 J-0.404794
G03 X12.558597 Y19.730458 Z-1.000000 I0.120395 J-0.023522
G03 X12.615228 Y19.731094 Z-1.000000 I0.027814 J0.044992
G03 X12.855472 Y19.923817 Z-1.000000 I-0.840896 J1.294340
G01 X13.091800 Y20.156239 Z-1.000000
G01 X13.505862 Y19.990223 Z-1.000000
G03 X13.922414 Y19.832088 Z-1.000000 I4.604117 J11.500231
G03 X14.318362 Y19.699208 Z-1.000000 I3.353802 J9.337134
G02 X14.641356 Y19.547525 Z-1.000000 I-0.391249 J-1.252860
G01 X14.656253 Y19.480458 Z-1.000000
G03 X14.633688 Y19.286518 Z-1.000000 I0.193382 J-0.120783
G03 X14.750003 Y19.203114 Z-1.000000 I0.116315 J0.039404
G03 X14.820142 Y19.228947 Z-1.000000 I0.000000 J0.108133
G03 X14.984378 Y19.402333 Z-1.000000 I-0.727288 J0.853387
G02 X15.392521 Y19.740612 Z-1.000000 I0.935928 J-0.713865
G02 X16.001956 Y19.912098 Z-1.000000 I0.748978 J-1.493095
G02 X16.663494 Y19.853617 Z-1.000000 I0.162261 J-1.935409
G02 X17.113284 Y19.617177 Z-1.000000 I-0.294057 J-1.105444
G02 X17.460633 Y19.046403 Z-1.000000 I-0.698714 J-0.816287
G02 X17.423831 Y18.294911 Z-1.000000 I-1.327746 J-0.311624
G02 X17.157025 Y17.907858 Z-1.000000 I-0.818963 J0.279049
G02 X16.214847 Y17.292958 Z-1.000000 I-3.158406 J3.810178
G03 X15.355891 Y16.730280 Z-1.000000 I1.993020 J-3.979401
G03 X15.009769 Y16.287098 Z-1.000000 I0.855462 J-1.024861
G03 X14.927705 Y16.031006 Z-1.000000 I0.862877 J-0.417701
G03 X14.951179 Y15.943348 Z-1.000000 I0.107043 J-0.018307
G03 X15.090011 Y15.920802 Z-1.000000 I0.082345 J0.068341
G03 X15.300788 Y16.160145 Z-1.000000 I-0.291743 J0.469405
G02 X15.700766 Y16.739663 Z-1.000000 I1.840914 J-0.842793
G02 X15.873054 Y16.740223 Z-1.000000 I0.086423 J-0.085305
G02 X15.897960 Y16.656330 Z-1.000000 I-0.064915 J-0.064915
G02 X15.640632 Y15.638661 Z-1.000000 I-13.021351 J2.751210
G03 X15.536731 Y14.809529 Z-1.000000 I2.477555 J-0.731547
G03 X15.718762 Y13.587880 Z-1.000000 I5.614855 J0.212253
G01 X15.884778 Y12.957020 Z-1.000000
G01 X15.599621 Y13.228505 Z-1.000000
G03 X14.971114 Y13.646868 Z-1.000000 I-1.545094 J-1.639910
G03 X14.392590 Y13.767567 Z-1.000000 I-0.567928 J-1.275329
G03 X13.705554 Y13.580557 Z-1.000000 I0.010532 J-1.394213
G03 X12.382824 Y12.605458 Z-1.000000 I3.701588 J-6.405927
G02 X12.003674 Y12.284857 Z-1.000000 I-3.780057 J4.085889
G02 X11.699231 Y12.078114 Z-1.000000 I-1.851650 J2.399148
G02 X11.003541 Y11.892431 Z-1.000000 I-0.676926 J1.140115
G02 X10.158215 Y12.099594 Z-1.000000 I0.027461 J1.940308
G02 X9.416008 Y12.613552 Z-1.000000 I1.464082 J2.907170
G02 X8.736328 Y13.410156 Z-1.000000 I2.973039 J3.224924
G02 X8.511963 Y13.800035 Z-1.000000 I2.905009 J1.931254
G02 X8.281250 Y14.335938 Z-1.000000 I5.119658 J2.521691
G02 X8.137103 Y14.896723 Z-1.000000 I2.619493 J0.972248
G02 X8.052734 Y15.869141 Z-1.000000 I7.885429 J1.174019
G02 X8.121248 Y17.457877 Z-1.000000 I11.631965 J0.294223
G02 X8.296875 Y18.046875 Z-1.000000 I1.721966 J-0.192772
G02 X8.806868 Y18.866494 Z-1.000000 I4.872434 J-2.463310
G02 X9.785156 Y20.023438 Z-1.000000 I10.663525 J-8.024771
G02 X10.181750 Y20.405080 Z-1.000000 I4.353631 J-4.127318
G02 X10.437500 Y20.597656 Z-1.000000 I1.411260 J-1.608101
G02 X11.250999 Y21.021836 Z-1.000000 I2.760228 J-4.301447
G02 X11.652344 Y21.097656 Z-1.000000 I0.383873 J-0.931841
G01 X11.652349 Y21.097647 Z-1.000000
G00 Z5.000000

(End cutting path id: path38)


(Start cutting path id: path38)
(Change tool to Cylindrical cutter)

G00 Z5.000000
G00 X8.318364 Y13.419912

G01 Z-1.000000 F100.0(Penetrate)
G01 X8.550786 Y13.121084 Z-1.000000 F400.000000
G03 X9.361164 Y12.263901 Z-1.000000 I4.914522 J3.834514
G03 X10.080083 Y11.783193 Z-1.000000 I2.207664 J2.523715
G03 X10.568957 Y11.599909 Z-1.000000 I1.145437 J2.311593
G03 X10.984380 Y11.544912 Z-1.000000 I0.425305 J1.616123
G03 X11.396511 Y11.601910 Z-1.000000 I0.008879 J1.454279
G03 X11.820317 Y11.787099 Z-1.000000 I-0.490884 J1.700927
G03 X12.211551 Y12.053845 Z-1.000000 I-2.205357 J3.654859
G03 X12.654302 Y12.423818 Z-1.000000 I-4.161229 J5.429702
G02 X14.134176 Y13.366598 Z-1.000000 I3.469027 J-3.812441
G02 X14.876958 Y13.355459 Z-1.000000 I0.358618 J-0.857303
G02 X15.476356 Y12.911261 Z-1.000000 I-0.734285 J-1.617350
G02 X16.306646 Y11.728506 Z-1.000000 I-4.969724 J-4.371538
G02 X16.449399 Y11.341536 Z-1.000000 I-1.214643 J-0.667898
G02 X16.509771 Y10.751943 Z-1.000000 I-2.848812 J-0.589593
G02 X16.446438 Y10.163866 Z-1.000000 I-2.761954 J0.000000
G02 X16.300786 Y9.792959 Z-1.000000 I-1.224734 J0.266891
G02 X15.698668 Y9.097958 Z-1.000000 I-2.210832 J1.307040
G02 X14.476567 Y8.328115 Z-1.000000 I-3.950610 J4.916526
G02 X13.987051 Y8.159221 Z-1.000000 I-0.974885 J2.031731
G02 X13.375005 Y8.083974 Z-1.000000 I-0.701902 J3.182369
G02 X12.749764 Y8.085702 Z-1.000000 I-0.284171 J10.297658
G02 X12.441411 Y8.115224 Z-1.000000 I0.082314 J2.484834
G02 X11.405689 Y8.414153 Z-1.000000 I0.689376 J4.332271
G02 X10.205083 Y9.070302 Z-1.000000 I2.806625 J6.561991
G02 X9.212595 Y9.824248 Z-1.000000 I6.546285 J9.647698
G02 X8.933594 Y10.148438 Z-1.000000 I0.884138 J1.043048
G02 X8.516658 Y11.191246 Z-1.000000 I2.771397 J1.712814
G02 X8.320312 Y13.066406 Z-1.000000 I8.990049 J1.889197
G01 X8.318364 Y13.419912 Z-1.000000
G00 Z5.000000

(End cutting path id: path38)


(Start cutting path id: path38)
(Change tool to Cylindrical cutter)

G00 Z5.000000
G00 X8.318364 Y13.419912

G01 Z-1.000000 F100.0(Penetrate)
G01 X8.550786 Y13.121084 Z-1.000000 F400.000000
G03 X9.361164 Y12.263901 Z-1.000000 I4.914522 J3.834514
G03 X10.080083 Y11.783193 Z-1.000000 I2.207664 J2.523715
G03 X10.568957 Y11.599909 Z-1.000000 I1.145437 J2.311593
G03 X10.984380 Y11.544912 Z-1.000000 I0.425305 J1.616123
G03 X11.396511 Y11.601910 Z-1.000000 I0.008879 J1.454279
G03 X11.820317 Y11.787099 Z-1.000000 I-0.490884 J1.700927
G03 X12.211551 Y12.053845 Z-1.000000 I-2.205357 J3.654859
G03 X12.654302 Y12.423818 Z-1.000000 I-4.161229 J5.429702
G02 X14.134176 Y13.366598 Z-1.000000 I3.469027 J-3.812441
G02 X14.876958 Y13.355459 Z-1.000000 I0.358618 J-0.857303
G02 X15.476356 Y12.911261 Z-1.000000 I-0.734285 J-1.617350
G02 X16.306646 Y11.728506 Z-1.000000 I-4.969724 J-4.371538
G02 X16.449399 Y11.341536 Z-1.000000 I-1.214643 J-0.667898
G02 X16.509771 Y10.751943 Z-1.000000 I-2.848812 J-0.589593
G02 X16.446438 Y10.163866 Z-1.000000 I-2.761954 J0.000000
G02 X16.300786 Y9.792959 Z-1.000000 I-1.224734 J0.266891
G02 X15.698668 Y9.097958 Z-1.000000 I-2.210832 J1.307040
G02 X14.476567 Y8.328115 Z-1.000000 I-3.950610 J4.916526
G02 X13.987051 Y8.159221 Z-1.000000 I-0.974885 J2.031731
G02 X13.375005 Y8.083974 Z-1.000000 I-0.701902 J3.182369
G02 X12.749764 Y8.085702 Z-1.000000 I-0.284171 J10.297658
G02 X12.441411 Y8.115224 Z-1.000000 I0.082314 J2.484834
G02 X11.405689 Y8.414153 Z-1.000000 I0.689376 J4.332271
G02 X10.205083 Y9.070302 Z-1.000000 I2.806625 J6.561991
G02 X9.212595 Y9.824248 Z-1.000000 I6.546285 J9.647698
G02 X8.933594 Y10.148438 Z-1.000000 I0.884138 J1.043048
G02 X8.516658 Y11.191246 Z-1.000000 I2.771397 J1.712814
G02 X8.320312 Y13.066406 Z-1.000000 I8.990049 J1.889197
G01 X8.318364 Y13.419912 Z-1.000000
G00 Z5.000000

(End cutting path id: path38)


(Start cutting path id: path38)
(Change tool to Cylindrical cutter)

G00 Z5.000000
G00 X16.816411 Y11.624992

G01 Z-1.000000 F100.0(Penetrate)
G01 X17.078130 Y11.304680 Z-1.000000 F400.000000
G03 X17.829951 Y10.523913 Z-1.000000 I5.209101 J4.263622
G03 X18.830083 Y9.755851 Z-1.000000 I6.073967 J6.874024
G02 X19.352827 Y9.383576 Z-1.000000 I-5.423343 J-8.168542
G02 X19.449224 Y9.283195 Z-1.000000 I-0.274980 J-0.360543
G02 X19.500410 Y9.157685 Z-1.000000 I-0.250110 J-0.175193
G02 X19.525394 Y8.824211 Z-1.000000 I-1.863495 J-0.307288
G02 X19.476797 Y8.501548 Z-1.000000 I-1.208951 J0.017092
G02 X19.386722 Y8.349601 Z-1.000000 I-0.342237 J0.100208
G02 X18.946988 Y8.191110 Z-1.000000 I-0.388429 J0.388431
G02 X17.818362 Y8.498039 Z-1.000000 I0.319135 J3.402038
G02 X17.256190 Y8.864088 Z-1.000000 I1.020996 J2.182742
G02 X17.001956 Y9.208976 Z-1.000000 I0.648578 J0.744246
G02 X16.849211 Y9.781681 Z-1.000000 I1.746297 J0.772473
G02 X16.800784 Y11.109367 Z-1.000000 I9.673072 J1.017550
G01 X16.816411 Y11.624992 Z-1.000000
G00 Z5.000000

(End cutting path id: path38)


(Start cutting path id: path38)
(Change tool to Cylindrical cutter)

G00 Z5.000000
G00 X16.816411 Y11.624992

G01 Z-1.000000 F100.0(Penetrate)
G01 X17.078130 Y11.304680 Z-1.000000 F400.000000
G03 X17.829951 Y10.523913 Z-1.000000 I5.209101 J4.263622
G03 X18.830083 Y9.755851 Z-1.000000 I6.073967 J6.874024
G02 X19.352827 Y9.383576 Z-1.000000 I-5.423343 J-8.168542
G02 X19.449224 Y9.283195 Z-1.000000 I-0.274980 J-0.360543
G02 X19.500410 Y9.157685 Z-1.000000 I-0.250110 J-0.175193
G02 X19.525394 Y8.824211 Z-1.000000 I-1.863495 J-0.307288
G02 X19.476797 Y8.501548 Z-1.000000 I-1.208951 J0.017092
G02 X19.386722 Y8.349601 Z-1.000000 I-0.342237 J0.100208
G02 X18.946988 Y8.191110 Z-1.000000 I-0.388429 J0.388431
G02 X17.818362 Y8.498039 Z-1.000000 I0.319135 J3.402038
G02 X17.256190 Y8.864088 Z-1.000000 I1.020996 J2.182742
G02 X17.001956 Y9.208976 Z-1.000000 I0.648578 J0.744246
G02 X16.849211 Y9.781681 Z-1.000000 I1.746297 J0.772473
G02 X16.800784 Y11.109367 Z-1.000000 I9.673072 J1.017550
G01 X16.816411 Y11.624992 Z-1.000000
G00 Z5.000000

(End cutting path id: path38)


(Start cutting path id: path38)
(Change tool to Cylindrical cutter)

G00 Z5.000000
G00 X17.392583 Y12.927724

G01 Z-1.000000 F100.0(Penetrate)
G02 X17.206834 Y12.824814 Z-1.000000 I-25.044526 J44.985225 F400.000000
G02 X17.187505 Y12.814443 Z-1.000000 I-0.463413 J0.840526
G01 X17.181248 Y12.800477 Z-1.000000
G03 X17.205085 Y12.744133 Z-1.000000 I0.194816 J0.049204
G03 X17.272951 Y12.714672 Z-1.000000 I0.055114 J0.034062
G03 X17.496101 Y12.802723 Z-1.000000 I-0.133543 J0.665231
G03 X17.512926 Y12.905128 Z-1.000000 I-0.036171 J0.058527
G03 X17.392585 Y12.927723 Z-1.000000 I-0.073757 J-0.061068
G01 X17.392583 Y12.927724 Z-1.000000
G00 Z5.000000

(End cutting path id: path38)


(Start cutting path id: path38)
(Change tool to Cylindrical cutter)

G00 Z5.000000
G00 X17.392583 Y12.927724

G01 Z-1.000000 F100.0(Penetrate)
G02 X17.206834 Y12.824814 Z-1.000000 I-25.044526 J44.985225 F400.000000
G02 X17.187505 Y12.814443 Z-1.000000 I-0.463413 J0.840526
G01 X17.181248 Y12.800477 Z-1.000000
G03 X17.205085 Y12.744133 Z-1.000000 I0.194816 J0.049204
G03 X17.272951 Y12.714672 Z-1.000000 I0.055114 J0.034062
G03 X17.496101 Y12.802723 Z-1.000000 I-0.133543 J0.665231
G03 X17.512926 Y12.905128 Z-1.000000 I-0.036171 J0.058527
G03 X17.392585 Y12.927723 Z-1.000000 I-0.073757 J-0.061068
G01 X17.392583 Y12.927724 Z-1.000000
G00 Z5.000000

(End cutting path id: path38)


(Start cutting path id: path38)
(Change tool to Cylindrical cutter)

G00 Z5.000000
G00 X17.886724 Y12.830064

G01 Z-1.000000 F100.0(Penetrate)
G03 X17.721229 Y12.859505 Z-1.000000 I-0.103839 J-0.103839 F400.000000
G03 X17.625005 Y12.708970 Z-1.000000 I0.069638 J-0.150535
G03 X17.647659 Y12.651966 Z-1.000000 I0.083044 J0.000000
G03 X17.701175 Y12.628890 Z-1.000000 I0.053516 J0.050515
G03 X17.889143 Y12.711275 Z-1.000000 I0.000000 J0.255624
G03 X17.886722 Y12.830062 Z-1.000000 I-0.063075 J0.058133
G01 X17.886724 Y12.830064 Z-1.000000
G00 Z5.000000

(End cutting path id: path38)


(Start cutting path id: path38)
(Change tool to Cylindrical cutter)

G00 Z5.000000
G00 X17.886724 Y12.830064

G01 Z-1.000000 F100.0(Penetrate)
G03 X17.721229 Y12.859505 Z-1.000000 I-0.103839 J-0.103839 F400.000000
G03 X17.625005 Y12.708970 Z-1.000000 I0.069638 J-0.150535
G03 X17.647659 Y12.651966 Z-1.000000 I0.083044 J0.000000
G03 X17.701175 Y12.628890 Z-1.000000 I0.053516 J0.050515
G03 X17.889143 Y12.711275 Z-1.000000 I0.000000 J0.255624
G03 X17.886722 Y12.830062 Z-1.000000 I-0.063075 J0.058133
G01 X17.886724 Y12.830064 Z-1.000000
G00 Z5.000000

(End cutting path id: path38)


(Start cutting path id: path38)
(Change tool to Cylindrical cutter)

G00 Z5.000000
G00 X18.167974 Y12.796864

G01 Z-1.000000 F100.0(Penetrate)
G03 X17.985917 Y12.700583 Z-1.000000 I-0.000000 J-0.220266 F400.000000
G03 X18.000005 Y12.550770 Z-1.000000 I0.097501 J-0.066400
G03 X18.068602 Y12.529909 Z-1.000000 I0.053850 J0.053861
G03 X18.169927 Y12.583970 Z-1.000000 I-0.038208 J0.193598
G03 X18.231411 Y12.733797 Z-1.000000 I-0.148417 J0.148434
G03 X18.167927 Y12.796861 Z-1.000000 I-0.063484 J-0.000421
G01 X18.167974 Y12.796864 Z-1.000000
G00 Z5.000000

(End cutting path id: path38)


(Start cutting path id: path38)
(Change tool to Cylindrical cutter)

G00 Z5.000000
G00 X18.167974 Y12.796864

G01 Z-1.000000 F100.0(Penetrate)
G03 X17.985917 Y12.700583 Z-1.000000 I-0.000000 J-0.220266 F400.000000
G03 X18.000005 Y12.550770 Z-1.000000 I0.097501 J-0.066400
G03 X18.068602 Y12.529909 Z-1.000000 I0.053850 J0.053861
G03 X18.169927 Y12.583970 Z-1.000000 I-0.038208 J0.193598
G03 X18.231411 Y12.733797 Z-1.000000 I-0.148417 J0.148434
G03 X18.167927 Y12.796861 Z-1.000000 I-0.063484 J-0.000421
G01 X18.167974 Y12.796864 Z-1.000000
G00 Z5.000000

(End cutting path id: path38)


(Start cutting path id: path38)
(Change tool to Cylindrical cutter)

G00 Z5.000000
G00 X18.404302 Y15.236319

G01 Z-1.000000 F100.0(Penetrate)
G03 X18.323227 Y15.136662 Z-1.000000 I0.107771 J-0.170483 F400.000000
G01 X18.349612 Y15.091788 Z-1.000000
G02 X18.647908 Y14.727753 Z-1.000000 I-0.052036 J-0.346871
G02 X18.316412 Y14.412100 Z-1.000000 I-0.331496 J0.016241
G02 X18.155078 Y14.451247 Z-1.000000 I0.000000 J0.352024
G02 X18.021490 Y14.564444 Z-1.000000 I0.178382 J0.345939
G01 X17.906256 Y14.718741 Z-1.000000
G01 X17.904256 Y14.429679 Z-1.000000
G03 X17.920417 Y14.144539 Z-1.000000 I2.278161 J-0.013907
G03 X17.955036 Y14.003897 Z-1.000000 I0.590788 J0.070841
G03 X18.207613 Y13.637614 Z-1.000000 I0.873479 J0.332099
G03 X18.609333 Y13.421866 Z-1.000000 I0.653655 J0.735221
G03 X18.822057 Y13.365675 Z-1.000000 I38.128541 J143.914129
G03 X18.849567 Y13.359366 Z-1.000000 I0.112095 J0.425636
G03 X19.077272 Y13.377430 Z-1.000000 I0.081504 J0.416794
G03 X19.484333 Y13.591788 Z-1.000000 I-0.596029 J1.625528
G03 X19.746383 Y13.904750 Z-1.000000 I-0.467406 J0.657559
G03 X19.851520 Y14.367179 Z-1.000000 I-0.992341 J0.468784
G03 X19.357011 Y15.247191 Z-1.000000 I-1.019402 J0.006110
G03 X18.404255 Y15.236319 Z-1.000000 I-0.467557 J-0.778443
G01 X18.404302 Y15.236319 Z-1.000000
G00 Z5.000000

(End cutting path id: path38)


(Start cutting path id: path38)
(Change tool to Cylindrical cutter)

G00 Z5.000000
G00 X18.404302 Y15.236319

G01 Z-1.000000 F100.0(Penetrate)
G03 X18.323227 Y15.136662 Z-1.000000 I0.107771 J-0.170483 F400.000000
G01 X18.349612 Y15.091788 Z-1.000000
G02 X18.647908 Y14.727753 Z-1.000000 I-0.052036 J-0.346871
G02 X18.316412 Y14.412100 Z-1.000000 I-0.331496 J0.016241
G02 X18.155078 Y14.451247 Z-1.000000 I0.000000 J0.352024
G02 X18.021490 Y14.564444 Z-1.000000 I0.178382 J0.345939
G01 X17.906256 Y14.718741 Z-1.000000
G01 X17.904256 Y14.429679 Z-1.000000
G03 X17.920417 Y14.144539 Z-1.000000 I2.278161 J-0.013907
G03 X17.955036 Y14.003897 Z-1.000000 I0.590788 J0.070841
G03 X18.207613 Y13.637614 Z-1.000000 I0.873479 J0.332099
G03 X18.609333 Y13.421866 Z-1.000000 I0.653655 J0.735221
G03 X18.822057 Y13.365675 Z-1.000000 I38.128541 J143.914129
G03 X18.849567 Y13.359366 Z-1.000000 I0.112095 J0.425636
G03 X19.077272 Y13.377430 Z-1.000000 I0.081504 J0.416794
G03 X19.484333 Y13.591788 Z-1.000000 I-0.596029 J1.625528
G03 X19.746383 Y13.904750 Z-1.000000 I-0.467406 J0.657559
G03 X19.851520 Y14.367179 Z-1.000000 I-0.992341 J0.468784
G03 X19.357011 Y15.247191 Z-1.000000 I-1.019402 J0.006110
G03 X18.404255 Y15.236319 Z-1.000000 I-0.467557 J-0.778443
G01 X18.404302 Y15.236319 Z-1.000000
G00 Z5.000000

(End cutting path id: path38)


(Start cutting path id: path38)
(Change tool to Cylindrical cutter)

G00 Z5.000000
G00 X20.578130 Y11.488273

G01 Z-1.000000 F100.0(Penetrate)
G03 X20.600605 Y11.416097 Z-1.000000 I0.127129 J-0.000000 F400.000000
G03 X20.791021 Y11.181633 Z-1.000000 I1.588654 J1.095645
G03 X21.025894 Y11.005690 Z-1.000000 I0.637880 J0.606788
G03 X21.222661 Y10.958976 Z-1.000000 I0.192853 J0.374565
G03 X21.434661 Y10.983532 Z-1.000000 I-0.009260 J1.007369
G03 X21.580083 Y11.039056 Z-1.000000 I-0.119702 J0.531702
G02 X21.714277 Y11.067467 Z-1.000000 I0.113124 J-0.203197
G02 X21.832036 Y11.015616 Z-1.000000 I-0.018305 J-0.201220
G03 X21.949800 Y10.923909 Z-1.000000 I0.651179 J0.714735
G03 X22.164067 Y10.796866 Z-1.000000 I1.397678 J2.113074
G03 X22.743018 Y10.624568 Z-1.000000 I0.721650 J1.366033
G03 X22.861333 Y10.732416 Z-1.000000 I0.010004 J0.107848
G01 X22.838717 Y10.766388 Z-1.000000
G03 X22.652349 Y10.820306 Z-1.000000 I-0.327657 J-0.783501
G02 X22.299620 Y10.924809 Z-1.000000 I0.253701 J1.503844
G02 X21.988286 Y11.107416 Z-1.000000 I0.591986 J1.366011
G03 X21.723417 Y11.233633 Z-1.000000 I-0.432510 J-0.566606
G03 X21.542974 Y11.214838 Z-1.000000 I-0.063755 J-0.263486
G02 X21.350631 Y11.142440 Z-1.000000 I-0.521370 J1.093441
G02 X21.224614 Y11.124998 Z-1.000000 I-0.126017 J0.446516
G02 X20.945903 Y11.216906 Z-1.000000 I0.000000 J0.468552
G02 X20.771489 Y11.460936 Z-1.000000 I0.289550 J0.391291
G03 X20.657473 Y11.557256 Z-1.000000 I-0.133491 J-0.042373
G03 X20.578130 Y11.488276 Z-1.000000 I-0.009686 J-0.068980
G01 X20.578130 Y11.488273 Z-1.000000
G00 Z5.000000

(End cutting path id: path38)


(Start cutting path id: path38)
(Change tool to Cylindrical cutter)

G00 Z5.000000
G00 X20.578130 Y11.488273

G01 Z-1.000000 F100.0(Penetrate)
G03 X20.600605 Y11.416097 Z-1.000000 I0.127129 J-0.000000 F400.000000
G03 X20.791021 Y11.181633 Z-1.000000 I1.588654 J1.095645
G03 X21.025894 Y11.005690 Z-1.000000 I0.637880 J0.606788
G03 X21.222661 Y10.958976 Z-1.000000 I0.192853 J0.374565
G03 X21.434661 Y10.983532 Z-1.000000 I-0.009260 J1.007369
G03 X21.580083 Y11.039056 Z-1.000000 I-0.119702 J0.531702
G02 X21.714277 Y11.067467 Z-1.000000 I0.113124 J-0.203197
G02 X21.832036 Y11.015616 Z-1.000000 I-0.018305 J-0.201220
G03 X21.949800 Y10.923909 Z-1.000000 I0.651179 J0.714735
G03 X22.164067 Y10.796866 Z-1.000000 I1.397678 J2.113074
G03 X22.743018 Y10.624568 Z-1.000000 I0.721650 J1.366033
G03 X22.861333 Y10.732416 Z-1.000000 I0.010004 J0.107848
G01 X22.838717 Y10.766388 Z-1.000000
G03 X22.652349 Y10.820306 Z-1.000000 I-0.327657 J-0.783501
G02 X22.299620 Y10.924809 Z-1.000000 I0.253701 J1.503844
G02 X21.988286 Y11.107416 Z-1.000000 I0.591986 J1.366011
G03 X21.723417 Y11.233633 Z-1.000000 I-0.432510 J-0.566606
G03 X21.542974 Y11.214838 Z-1.000000 I-0.063755 J-0.263486
G02 X21.350631 Y11.142440 Z-1.000000 I-0.521370 J1.093441
G02 X21.224614 Y11.124998 Z-1.000000 I-0.126017 J0.446516
G02 X20.945903 Y11.216906 Z-1.000000 I0.000000 J0.468552
G02 X20.771489 Y11.460936 Z-1.000000 I0.289550 J0.391291
G03 X20.657473 Y11.557256 Z-1.000000 I-0.133491 J-0.042373
G03 X20.578130 Y11.488276 Z-1.000000 I-0.009686 J-0.068980
G01 X20.578130 Y11.488273 Z-1.000000
G00 Z5.000000

(End cutting path id: path38)


(Start cutting path id: path38)
(Change tool to Cylindrical cutter)

G00 Z5.000000
G00 X25.591802 Y11.816396

G01 Z-1.000000 F100.0(Penetrate)
G01 X25.535685 Y11.824100 Z-1.000000 F400.000000
G03 X25.400396 Y11.708974 Z-1.000000 I0.227642 J-0.404564
G03 X25.293067 Y11.540580 Z-1.000000 I0.740506 J-0.590377
G01 X25.294927 Y11.499990 Z-1.000000
G03 X25.368493 Y11.477378 Z-1.000000 I0.049699 J0.030715
G03 X25.535161 Y11.607412 Z-1.000000 I-0.180370 J0.403014
G03 X25.608493 Y11.754530 Z-1.000000 I-0.318768 J0.250727
G03 X25.591801 Y11.816396 Z-1.000000 I-0.062138 J0.016419
G01 X25.591802 Y11.816396 Z-1.000000
G00 Z5.000000

(End cutting path id: path38)


(Start cutting path id: path38)
(Change tool to Cylindrical cutter)

G00 Z5.000000
G00 X25.591802 Y11.816396

G01 Z-1.000000 F100.0(Penetrate)
G01 X25.535685 Y11.824100 Z-1.000000 F400.000000
G03 X25.400396 Y11.708974 Z-1.000000 I0.227642 J-0.404564
G03 X25.293067 Y11.540580 Z-1.000000 I0.740506 J-0.590377
G01 X25.294927 Y11.499990 Z-1.000000
G03 X25.368493 Y11.477378 Z-1.000000 I0.049699 J0.030715
G03 X25.535161 Y11.607412 Z-1.000000 I-0.180370 J0.403014
G03 X25.608493 Y11.754530 Z-1.000000 I-0.318768 J0.250727
G03 X25.591801 Y11.816396 Z-1.000000 I-0.062138 J0.016419
G01 X25.591802 Y11.816396 Z-1.000000
G00 Z5.000000

(End cutting path id: path38)


(Start cutting path id: path38)
(Change tool to Cylindrical cutter)

G00 Z5.000000
G00 X25.949224 Y11.904286

G01 Z-1.000000 F100.0(Penetrate)
G03 X25.745076 Y11.815438 Z-1.000000 I0.000000 J-0.278962 F400.000000
G03 X25.650396 Y11.583973 Z-1.000000 I0.258703 J-0.240918
G01 X25.708982 Y11.540670 Z-1.000000
G03 X25.900396 Y11.667953 Z-1.000000 I-0.141401 J0.420216
G03 X25.991959 Y11.851913 Z-1.000000 I-0.300125 J0.264148
G01 X25.949226 Y11.904281 Z-1.000000
G01 X25.949224 Y11.904286 Z-1.000000
G00 Z5.000000

(End cutting path id: path38)


(Start cutting path id: path38)
(Change tool to Cylindrical cutter)

G00 Z5.000000
G00 X25.949224 Y11.904286

G01 Z-1.000000 F100.0(Penetrate)
G03 X25.745076 Y11.815438 Z-1.000000 I0.000000 J-0.278962 F400.000000
G03 X25.650396 Y11.583973 Z-1.000000 I0.258703 J-0.240918
G01 X25.708982 Y11.540670 Z-1.000000
G03 X25.900396 Y11.667953 Z-1.000000 I-0.141401 J0.420216
G03 X25.991959 Y11.851913 Z-1.000000 I-0.300125 J0.264148
G01 X25.949226 Y11.904281 Z-1.000000
G01 X25.949224 Y11.904286 Z-1.000000
G00 Z5.000000

(End cutting path id: path38)


(Start cutting path id: path38)
(Change tool to Cylindrical cutter)

G00 Z5.000000
G00 X26.349614 Y11.771476

G01 Z-1.000000 F100.0(Penetrate)
G01 X26.276536 Y11.785734 Z-1.000000 F400.000000
G03 X26.171880 Y11.582023 Z-1.000000 I0.305690 J-0.285786
G03 X26.168110 Y11.429150 Z-1.000000 I0.436216 J-0.087242
G01 X26.199220 Y11.402336 Z-1.000000
G03 X26.346969 Y11.501775 Z-1.000000 I0.000000 J0.159484
G03 X26.349610 Y11.771476 Z-1.000000 I-0.340041 J0.138194
G01 X26.349614 Y11.771476 Z-1.000000
G00 Z5.000000

(End cutting path id: path38)


(Start cutting path id: path38)
(Change tool to Cylindrical cutter)

G00 Z5.000000
G00 X26.349614 Y11.771476

G01 Z-1.000000 F100.0(Penetrate)
G01 X26.276536 Y11.785734 Z-1.000000 F400.000000
G03 X26.171880 Y11.582023 Z-1.000000 I0.305690 J-0.285786
G03 X26.168110 Y11.429150 Z-1.000000 I0.436216 J-0.087242
G01 X26.199220 Y11.402336 Z-1.000000
G03 X26.346969 Y11.501775 Z-1.000000 I0.000000 J0.159484
G03 X26.349610 Y11.771476 Z-1.000000 I-0.340041 J0.138194
G01 X26.349614 Y11.771476 Z-1.000000
G00 Z5.000000

(End cutting path id: path38)


(Start cutting path id: path38)
(Change tool to Cylindrical cutter)

G00 Z5.000000
G00 X26.480474 Y14.052725

G01 Z-1.000000 F100.0(Penetrate)
G03 X26.006424 Y14.156955 Z-1.000000 I-0.432282 J-0.835935 F400.000000
G03 X25.537114 Y14.011705 Z-1.000000 I0.043095 J-0.970048
G01 X25.341802 Y13.890611 Z-1.000000
G01 X25.529302 Y13.849591 Z-1.000000
G02 X25.731348 Y13.723865 Z-1.000000 I-0.073289 J-0.342988
G02 X25.814458 Y13.486310 Z-1.000000 I-0.303524 J-0.239506
G02 X25.746828 Y13.294246 Z-1.000000 I-0.302338 J-0.001479
G02 X25.550786 Y13.162091 Z-1.000000 I-0.314984 J0.255771
G02 X25.436275 Y13.168258 Z-1.000000 I-0.048843 J0.159306
G02 X25.263677 Y13.285138 Z-1.000000 I0.217326 J0.506804
G01 X25.101567 Y13.445294 Z-1.000000
G01 X25.072267 Y13.298810 Z-1.000000
G03 X25.168133 Y12.671422 Z-1.000000 I0.909908 J-0.181982
G03 X25.648439 Y12.246076 Z-1.000000 I0.831285 J0.454840
G03 X26.040025 Y12.174559 Z-1.000000 I0.373297 J0.936146
G03 X26.455079 Y12.261706 Z-1.000000 I-0.020502 J1.129599
G03 X26.807350 Y12.534149 Z-1.000000 I-0.330760 J0.791640
G03 X27.009767 Y12.990221 Z-1.000000 I-0.862934 J0.655949
G03 X26.924696 Y13.601639 Z-1.000000 I-0.953777 J0.178921
G03 X26.480470 Y14.052721 Z-1.000000 I-0.912392 J-0.454246
G01 X26.480474 Y14.052725 Z-1.000000
G00 Z5.000000

(End cutting path id: path38)


(Start cutting path id: path38)
(Change tool to Cylindrical cutter)

G00 Z5.000000
G00 X26.480474 Y14.052725

G01 Z-1.000000 F100.0(Penetrate)
G03 X26.006424 Y14.156955 Z-1.000000 I-0.432282 J-0.835935 F400.000000
G03 X25.537114 Y14.011705 Z-1.000000 I0.043095 J-0.970048
G01 X25.341802 Y13.890611 Z-1.000000
G01 X25.529302 Y13.849591 Z-1.000000
G02 X25.731348 Y13.723865 Z-1.000000 I-0.073289 J-0.342988
G02 X25.814458 Y13.486310 Z-1.000000 I-0.303524 J-0.239506
G02 X25.746828 Y13.294246 Z-1.000000 I-0.302338 J-0.001479
G02 X25.550786 Y13.162091 Z-1.000000 I-0.314984 J0.255771
G02 X25.436275 Y13.168258 Z-1.000000 I-0.048843 J0.159306
G02 X25.263677 Y13.285138 Z-1.000000 I0.217326 J0.506804
G01 X25.101567 Y13.445294 Z-1.000000
G01 X25.072267 Y13.298810 Z-1.000000
G03 X25.168133 Y12.671422 Z-1.000000 I0.909908 J-0.181982
G03 X25.648439 Y12.246076 Z-1.000000 I0.831285 J0.454840
G03 X26.040025 Y12.174559 Z-1.000000 I0.373297 J0.936146
G03 X26.455079 Y12.261706 Z-1.000000 I-0.020502 J1.129599
G03 X26.807350 Y12.534149 Z-1.000000 I-0.330760 J0.791640
G03 X27.009767 Y12.990221 Z-1.000000 I-0.862934 J0.655949
G03 X26.924696 Y13.601639 Z-1.000000 I-0.953777 J0.178921
G03 X26.480470 Y14.052721 Z-1.000000 I-0.912392 J-0.454246
G01 X26.480474 Y14.052725 Z-1.000000
G00 Z5.000000

(End cutting path id: path38)


(Start cutting path id: path38)
(Change tool to Cylindrical cutter)

G00 Z5.000000
G00 X28.203130 Y9.720695

G01 Z-1.000000 F100.0(Penetrate)
G01 X28.064458 Y9.355461 Z-1.000000 F400.000000
G03 X27.951396 Y8.983475 Z-1.000000 I2.804223 J-1.055494
G03 X27.894536 Y8.634758 Z-1.000000 I2.512519 J-0.588673
G01 X27.861336 Y8.281242 Z-1.000000
G01 X27.515633 Y8.117180 Z-1.000000
G02 X27.165772 Y7.968835 Z-1.000000 I-1.849988 J3.876332
G02 X26.843758 Y7.867180 Z-1.000000 I-1.156825 J3.103638
G02 X25.879590 Y7.777230 Z-1.000000 I-0.757651 J2.908794
G02 X25.277352 Y7.974601 Z-1.000000 I0.088714 J1.288181
G02 X25.012980 Y8.243443 Z-1.000000 I0.444136 J0.701162
G02 X24.925789 Y8.550773 Z-1.000000 I0.508555 J0.310312
G02 X25.036369 Y8.932476 Z-1.000000 I0.701231 J0.003722
G02 X25.392586 Y9.279289 Z-1.000000 I0.920369 J-0.588982
G02 X26.598365 Y9.730095 Z-1.000000 I1.809104 J-3.000881
G02 X27.417977 Y9.632804 Z-1.000000 I0.247499 J-1.415969
G01 X27.712899 Y9.503898 Z-1.000000
G01 X27.957039 Y9.613273 Z-1.000000
G01 X28.203130 Y9.720695 Z-1.000000
G00 Z5.000000

(End cutting path id: path38)


(Start cutting path id: path38)
(Change tool to Cylindrical cutter)

G00 Z5.000000
G00 X28.203130 Y9.720695

G01 Z-1.000000 F100.0(Penetrate)
G01 X28.064458 Y9.355461 Z-1.000000 F400.000000
G03 X27.951396 Y8.983475 Z-1.000000 I2.804223 J-1.055494
G03 X27.894536 Y8.634758 Z-1.000000 I2.512519 J-0.588673
G01 X27.861336 Y8.281242 Z-1.000000
G01 X27.515633 Y8.117180 Z-1.000000
G02 X27.165772 Y7.968835 Z-1.000000 I-1.849988 J3.876332
G02 X26.843758 Y7.867180 Z-1.000000 I-1.156825 J3.103638
G02 X25.879590 Y7.777230 Z-1.000000 I-0.757651 J2.908794
G02 X25.277352 Y7.974601 Z-1.000000 I0.088714 J1.288181
G02 X25.012980 Y8.243443 Z-1.000000 I0.444136 J0.701162
G02 X24.925789 Y8.550773 Z-1.000000 I0.508555 J0.310312
G02 X25.036369 Y8.932476 Z-1.000000 I0.701231 J0.003722
G02 X25.392586 Y9.279289 Z-1.000000 I0.920369 J-0.588982
G02 X26.598365 Y9.730095 Z-1.000000 I1.809104 J-3.000881
G02 X27.417977 Y9.632804 Z-1.000000 I0.247499 J-1.415969
G01 X27.712899 Y9.503898 Z-1.000000
G01 X27.957039 Y9.613273 Z-1.000000
G01 X28.203130 Y9.720695 Z-1.000000
G00 Z5.000000

(End cutting path id: path38)


(Start cutting path id: path38)
(Change tool to Cylindrical cutter)

G00 Z5.000000
G00 X33.312505 Y13.462882

G01 Z-1.000000 F100.0(Penetrate)
G01 X33.541021 Y13.171866 Z-1.000000 F400.000000
G02 X33.900024 Y12.587254 Z-1.000000 I-2.422410 J-1.890109
G02 X34.203130 Y11.763663 Z-1.000000 I-4.614104 J-2.165697
G02 X34.306478 Y11.203034 Z-1.000000 I-3.271559 J-0.892928
G02 X34.324224 Y10.539053 Z-1.000000 I-4.631320 J-0.456008
G02 X34.272160 Y9.873886 Z-1.000000 I-9.976467 J0.446254
G02 X34.201177 Y9.453116 Z-1.000000 I-3.815424 J0.427284
G02 X33.657945 Y8.036866 Z-1.000000 I-5.171640 J1.171383
G02 X32.894536 Y7.115225 Z-1.000000 I-2.885894 J1.613435
G02 X32.198245 Y6.671727 Z-1.000000 I-2.045567 J2.443196
G02 X31.453130 Y6.441397 Z-1.000000 I-1.205222 J2.578500
G02 X31.044494 Y6.408648 Z-1.000000 I-0.402452 J2.455905
G02 X30.439458 Y6.445297 Z-1.000000 I0.012988 J5.226993
G02 X29.574263 Y6.646423 Z-1.000000 I0.478883 J4.021537
G02 X28.937505 Y6.972641 Z-1.000000 I0.881074 J2.504367
G02 X28.407279 Y7.581555 Z-1.000000 I0.948693 J1.361406
G02 X28.210943 Y8.400376 Z-1.000000 I1.609279 J0.818821
G02 X28.451006 Y9.435183 Z-1.000000 I2.350316 J0.000003
G02 X29.156255 Y10.328110 Z-1.000000 I2.421037 J-1.187203
G02 X30.056710 Y10.763884 Z-1.000000 I1.344525 J-1.630029
G02 X30.880864 Y10.699204 Z-1.000000 I0.303727 J-1.412931
G02 X31.562977 Y10.289660 Z-1.000000 I-0.835370 J-2.164161
G02 X32.027349 Y9.708969 Z-1.000000 I-1.334968 J-1.543580
G03 X32.295152 Y9.429712 Z-1.000000 I0.632386 J0.338411
G03 X32.423833 Y9.474594 Z-1.000000 I0.045363 J0.076852
G03 X32.415744 Y9.656300 Z-1.000000 I-0.212555 J0.081570
G03 X32.048833 Y10.240219 Z-1.000000 I-2.937872 J-1.438803
G02 X31.947798 Y10.437289 Z-1.000000 I0.454077 J0.357233
G02 X31.970703 Y10.511704 Z-1.000000 I0.068307 J0.019708
G03 X32.295719 Y10.879318 Z-1.000000 I-1.020808 J1.230003
G03 X32.843750 Y11.876938 Z-1.000000 I-7.100477 J4.549904
G03 X32.978208 Y12.218488 Z-1.000000 I-2.787596 J1.294637
G03 X33.156250 Y12.835923 Z-1.000000 I-8.843133 J2.884366
G01 X33.312505 Y13.462882 Z-1.000000
G00 Z5.000000

(End cutting path id: path38)


(Start cutting path id: path38)
(Change tool to Cylindrical cutter)

G00 Z5.000000
G00 X33.312505 Y13.462882

G01 Z-1.000000 F100.0(Penetrate)
G01 X33.541021 Y13.171866 Z-1.000000 F400.000000
G02 X33.900024 Y12.587254 Z-1.000000 I-2.422410 J-1.890109
G02 X34.203130 Y11.763663 Z-1.000000 I-4.614104 J-2.165697
G02 X34.306478 Y11.203034 Z-1.000000 I-3.271559 J-0.892928
G02 X34.324224 Y10.539053 Z-1.000000 I-4.631320 J-0.456008
G02 X34.272160 Y9.873886 Z-1.000000 I-9.976467 J0.446254
G02 X34.201177 Y9.453116 Z-1.000000 I-3.815424 J0.427284
G02 X33.657945 Y8.036866 Z-1.000000 I-5.171640 J1.171383
G02 X32.894536 Y7.115225 Z-1.000000 I-2.885894 J1.613435
G02 X32.198245 Y6.671727 Z-1.000000 I-2.045567 J2.443196
G02 X31.453130 Y6.441397 Z-1.000000 I-1.205222 J2.578500
G02 X31.044494 Y6.408648 Z-1.000000 I-0.402452 J2.455905
G02 X30.439458 Y6.445297 Z-1.000000 I0.012988 J5.226993
G02 X29.574263 Y6.646423 Z-1.000000 I0.478883 J4.021537
G02 X28.937505 Y6.972641 Z-1.000000 I0.881074 J2.504367
G02 X28.407279 Y7.581555 Z-1.000000 I0.948693 J1.361406
G02 X28.210943 Y8.400376 Z-1.000000 I1.609279 J0.818821
G02 X28.451006 Y9.435183 Z-1.000000 I2.350316 J0.000003
G02 X29.156255 Y10.328110 Z-1.000000 I2.421037 J-1.187203
G02 X30.056710 Y10.763884 Z-1.000000 I1.344525 J-1.630029
G02 X30.880864 Y10.699204 Z-1.000000 I0.303727 J-1.412931
G02 X31.562977 Y10.289660 Z-1.000000 I-0.835370 J-2.164161
G02 X32.027349 Y9.708969 Z-1.000000 I-1.334968 J-1.543580
G03 X32.295152 Y9.429712 Z-1.000000 I0.632386 J0.338411
G03 X32.423833 Y9.474594 Z-1.000000 I0.045363 J0.076852
G03 X32.415744 Y9.656300 Z-1.000000 I-0.212555 J0.081570
G03 X32.048833 Y10.240219 Z-1.000000 I-2.937872 J-1.438803
G02 X31.947798 Y10.437289 Z-1.000000 I0.454077 J0.357233
G02 X31.970703 Y10.511704 Z-1.000000 I0.068307 J0.019708
G03 X32.295719 Y10.879318 Z-1.000000 I-1.020808 J1.230003
G03 X32.843750 Y11.876938 Z-1.000000 I-7.100477 J4.549904
G03 X32.978208 Y12.218488 Z-1.000000 I-2.787596 J1.294637
G03 X33.156250 Y12.835923 Z-1.000000 I-8.843133 J2.884366
G01 X33.312505 Y13.462882 Z-1.000000
G00 Z5.000000

(End cutting path id: path38)


(Start cutting path id: path38)
(Change tool to Cylindrical cutter)

G00 Z5.000000
G00 X32.601567 Y16.761710

G01 Z-1.000000 F100.0(Penetrate)
G01 X32.687507 Y16.464835 Z-1.000000 F400.000000
G02 X32.883429 Y15.558295 Z-1.000000 I-6.716343 J-1.925979
G02 X32.986335 Y14.439444 Z-1.000000 I-10.163617 J-1.498957
G02 X32.969596 Y13.664192 Z-1.000000 I-6.616569 J-0.244941
G02 X32.871101 Y13.019522 Z-1.000000 I-4.554119 J0.365934
G02 X32.539984 Y12.021600 Z-1.000000 I-5.275604 J1.196584
G02 X32.019538 Y11.097647 Z-1.000000 I-5.094507 J2.261089
G02 X31.733855 Y10.732978 Z-1.000000 I-3.379041 J2.352913
G02 X31.666023 Y10.697257 Z-1.000000 I-0.080619 J0.070825
G02 X31.586977 Y10.707912 Z-1.000000 I-0.018953 J0.157930
G02 X31.361335 Y10.820303 Z-1.000000 I0.637980 J1.563542
G03 X31.132843 Y10.935615 Z-1.000000 I-0.942700 J-1.583939
G03 X30.763679 Y11.072257 Z-1.000000 I-1.758296 J-4.183352
G03 X30.106677 Y11.150409 Z-1.000000 I-0.528754 J-1.644402
G03 X29.554695 Y10.982417 Z-1.000000 I0.097662 J-1.311735
G02 X29.313066 Y10.851083 Z-1.000000 I-3.641978 J6.412591
G01 X29.291023 Y10.845698 Z-1.000000
G01 X29.284347 Y10.856043 Z-1.000000
G02 X29.486335 Y11.277339 Z-1.000000 I9.456151 J-4.274633
G03 X30.140756 Y12.911875 Z-1.000000 I-8.858122 J4.494812
G03 X30.365241 Y14.197261 Z-1.000000 I-5.254606 J1.579980
G01 X30.400401 Y14.851557 Z-1.000000
G01 X30.566416 Y14.919917 Z-1.000000
G03 X30.782152 Y15.055117 Z-1.000000 I-0.292883 J0.707069
G03 X32.232432 Y16.402339 Z-1.000000 I-30.385943 J34.164602
G01 X32.601567 Y16.761710 Z-1.000000
G00 Z5.000000

(End cutting path id: path38)


(Start cutting path id: path38)
(Change tool to Cylindrical cutter)

G00 Z5.000000
G00 X32.601567 Y16.761710

G01 Z-1.000000 F100.0(Penetrate)
G01 X32.687507 Y16.464835 Z-1.000000 F400.000000
G02 X32.883429 Y15.558295 Z-1.000000 I-6.716343 J-1.925979
G02 X32.986335 Y14.439444 Z-1.000000 I-10.163617 J-1.498957
G02 X32.969596 Y13.664192 Z-1.000000 I-6.616569 J-0.244941
G02 X32.871101 Y13.019522 Z-1.000000 I-4.554119 J0.365934
G02 X32.539984 Y12.021600 Z-1.000000 I-5.275604 J1.196584
G02 X32.019538 Y11.097647 Z-1.000000 I-5.094507 J2.261089
G02 X31.733855 Y10.732978 Z-1.000000 I-3.379041 J2.352913
G02 X31.666023 Y10.697257 Z-1.000000 I-0.080619 J0.070825
G02 X31.586977 Y10.707912 Z-1.000000 I-0.018953 J0.157930
G02 X31.361335 Y10.820303 Z-1.000000 I0.637980 J1.563542
G03 X31.132843 Y10.935615 Z-1.000000 I-0.942700 J-1.583939
G03 X30.763679 Y11.072257 Z-1.000000 I-1.758296 J-4.183352
G03 X30.106677 Y11.150409 Z-1.000000 I-0.528754 J-1.644402
G03 X29.554695 Y10.982417 Z-1.000000 I0.097662 J-1.311735
G02 X29.313066 Y10.851083 Z-1.000000 I-3.641978 J6.412591
G01 X29.291023 Y10.845698 Z-1.000000
G01 X29.284347 Y10.856043 Z-1.000000
G02 X29.486335 Y11.277339 Z-1.000000 I9.456151 J-4.274633
G03 X30.140756 Y12.911875 Z-1.000000 I-8.858122 J4.494812
G03 X30.365241 Y14.197261 Z-1.000000 I-5.254606 J1.579980
G01 X30.400401 Y14.851557 Z-1.000000
G01 X30.566416 Y14.919917 Z-1.000000
G03 X30.782152 Y15.055117 Z-1.000000 I-0.292883 J0.707069
G03 X32.232432 Y16.402339 Z-1.000000 I-30.385943 J34.164602
G01 X32.601567 Y16.761710 Z-1.000000
G00 Z5.000000

(End cutting path id: path38)


(Footer)
M5
G00 X0.0000 Y0.0000
M2
(Using default footer. To add your own footer create file "footer" in the output dir.)
(end)
%