%
(Header)
(Generated by gcodetools from Inkscape.)
(Using default header. To add your own header create file "header" in the output dir.)
M3
(Header end.)
G21 (All units in mm)

(Start cutting path id: path38)
(Change tool to Cone cutter)

G00 Z5.000000
G00 X28.833095 Y17.970945

G01 Z-1.000000 F100.0(Penetrate)
G01 X30.036123 Y17.970945 Z-1.000000 F200.000000
G01 X30.036123 Y14.010461 Z-1.000000
G01 X28.833095 Y14.010461 Z-1.000000
G01 X28.833095 Y17.970945 Z-1.000000
G00 Z5.000000

(End cutting path id: path38)


(Start cutting path id: path38)
(Change tool to Cone cutter)

G00 Z5.000000
G00 X28.833095 Y17.970945

G01 Z-1.000000 F100.0(Penetrate)
G01 X30.036123 Y17.970945 Z-1.000000 F200.000000
G01 X30.036123 Y14.010461 Z-1.000000
G01 X28.833095 Y14.010461 Z-1.000000
G01 X28.833095 Y17.970945 Z-1.000000
G00 Z5.000000

(End cutting path id: path38)


(Start cutting path id: path36)
(Change tool to Cone cutter)

G00 Z5.000000
G00 X26.509722 Y18.276869

G01 Z-1.000000 F100.0(Penetrate)
G01 X27.704481 Y18.276869 Z-1.000000 F200.000000
G01 X27.704481 Y12.451899 Z-1.000000
G01 X26.501454 Y12.451899 Z-1.000000
G01 X26.501454 Y12.952128 Z-1.000000
G01 X26.484914 Y12.952128 Z-1.000000
G02 X26.010042 Y12.458500 Z-1.000000 I-1.467447 J0.936461
G02 X25.579543 Y12.323742 Z-1.000000 I-0.430499 J0.620258
G02 X25.126789 Y12.457496 Z-1.000000 I-0.000000 J0.833158
G02 X24.723781 Y12.877713 Z-1.000000 I0.688646 J1.063804
G02 X24.498217 Y13.457833 Z-1.000000 I1.727744 J1.005700
G02 X24.401320 Y14.357727 Z-1.000000 I4.130286 J0.899894
G02 X24.500572 Y15.252085 Z-1.000000 I4.079147 J0.000000
G02 X24.732049 Y15.829472 Z-1.000000 I1.901939 J-0.427402
G02 X25.138819 Y16.244834 Z-1.000000 I1.076883 J-0.647748
G02 X25.604347 Y16.379310 Z-1.000000 I0.465528 J-0.738543
G02 X26.033690 Y16.256081 Z-1.000000 I0.000000 J-0.809552
G02 X26.509719 Y15.812936 Z-1.000000 I-0.910199 J-1.454991
G01 X26.509722 Y18.276869 Z-1.000000
G00 Z5.000000

(End cutting path id: path36)


(Start cutting path id: path36)
(Change tool to Cone cutter)

G00 Z5.000000
G00 X26.509722 Y18.276869

G01 Z-1.000000 F100.0(Penetrate)
G01 X27.704481 Y18.276869 Z-1.000000 F200.000000
G01 X27.704481 Y12.451899 Z-1.000000
G01 X26.501454 Y12.451899 Z-1.000000
G01 X26.501454 Y12.952128 Z-1.000000
G01 X26.484914 Y12.952128 Z-1.000000
G02 X26.010042 Y12.458500 Z-1.000000 I-1.467447 J0.936461
G02 X25.579543 Y12.323742 Z-1.000000 I-0.430499 J0.620258
G02 X25.126789 Y12.457496 Z-1.000000 I-0.000000 J0.833158
G02 X24.723781 Y12.877713 Z-1.000000 I0.688646 J1.063804
G02 X24.498217 Y13.457833 Z-1.000000 I1.727744 J1.005700
G02 X24.401320 Y14.357727 Z-1.000000 I4.130286 J0.899894
G02 X24.500572 Y15.252085 Z-1.000000 I4.079147 J0.000000
G02 X24.732049 Y15.829472 Z-1.000000 I1.901939 J-0.427402
G02 X25.138819 Y16.244834 Z-1.000000 I1.076883 J-0.647748
G02 X25.604347 Y16.379310 Z-1.000000 I0.465528 J-0.738543
G02 X26.033690 Y16.256081 Z-1.000000 I0.000000 J-0.809552
G02 X26.509719 Y15.812936 Z-1.000000 I-0.910199 J-1.454991
G01 X26.509722 Y18.276869 Z-1.000000
G00 Z5.000000

(End cutting path id: path36)


(Start cutting path id: path36)
(Change tool to Cone cutter)

G00 Z5.000000
G00 X26.509722 Y14.382532

G01 Z-1.000000 F100.0(Penetrate)
G03 X26.334534 Y15.145788 Z-1.000000 I-1.750270 J0.000000 F200.000000
G03 X26.054969 Y15.320976 Z-1.000000 I-0.279565 J-0.135472
G03 X25.769350 Y15.139440 Z-1.000000 I-0.000000 J-0.315457
G03 X25.587814 Y14.324654 Z-1.000000 I1.737730 J-0.814786
G03 X25.626630 Y13.891606 Z-1.000000 I2.435025 J-0.000000
G03 X25.711837 Y13.638391 Z-1.000000 I0.904775 J0.163513
G03 X25.874849 Y13.456762 Z-1.000000 I0.451678 J0.241414
G03 X26.063237 Y13.398612 Z-1.000000 I0.188388 J0.276085
G03 X26.232688 Y13.457166 Z-1.000000 I-0.000000 J0.274468
G03 X26.389832 Y13.654927 Z-1.000000 I-0.336366 J0.428596
G03 X26.471843 Y13.919663 Z-1.000000 I-0.918401 J0.429577
G03 X26.509722 Y14.382532 Z-1.000000 I-2.809123 J0.462869
G01 X26.509722 Y14.382532 Z-1.000000
G00 Z5.000000

(End cutting path id: path36)


(Start cutting path id: path36)
(Change tool to Cone cutter)

G00 Z5.000000
G00 X26.509722 Y14.382532

G01 Z-1.000000 F100.0(Penetrate)
G03 X26.334534 Y15.145788 Z-1.000000 I-1.750270 J0.000000 F200.000000
G03 X26.054969 Y15.320976 Z-1.000000 I-0.279565 J-0.135472
G03 X25.769350 Y15.139440 Z-1.000000 I-0.000000 J-0.315457
G03 X25.587814 Y14.324654 Z-1.000000 I1.737730 J-0.814786
G03 X25.626630 Y13.891606 Z-1.000000 I2.435025 J-0.000000
G03 X25.711837 Y13.638391 Z-1.000000 I0.904775 J0.163513
G03 X25.874849 Y13.456762 Z-1.000000 I0.451678 J0.241414
G03 X26.063237 Y13.398612 Z-1.000000 I0.188388 J0.276085
G03 X26.232688 Y13.457166 Z-1.000000 I-0.000000 J0.274468
G03 X26.389832 Y13.654927 Z-1.000000 I-0.336366 J0.428596
G03 X26.471843 Y13.919663 Z-1.000000 I-0.918401 J0.429577
G03 X26.509722 Y14.382532 Z-1.000000 I-2.809123 J0.462869
G01 X26.509722 Y14.382532 Z-1.000000
G00 Z5.000000

(End cutting path id: path36)


(Start cutting path id: path38)
(Change tool to Cone cutter)

G00 Z5.000000
G00 X28.754545 Y12.993469

G01 Z-1.000000 F100.0(Penetrate)
G02 X28.807017 Y13.252537 Z-1.000000 I0.665774 J-0.000000 F200.000000
G02 X28.957117 Y13.473026 Z-1.000000 I0.624503 J-0.263799
G02 X29.180627 Y13.620168 Z-1.000000 I0.488432 J-0.498605
G02 X29.440808 Y13.671464 Z-1.000000 I0.260181 J-0.634190
G02 X29.700327 Y13.619315 Z-1.000000 I0.000000 J-0.671817
G02 X29.924500 Y13.468892 Z-1.000000 I-0.269929 J-0.644525
G02 X30.074990 Y13.248566 Z-1.000000 I-0.478270 J-0.488232
G02 X30.127071 Y12.993469 Z-1.000000 I-0.598699 J-0.255097
G02 X30.074537 Y12.729975 Z-1.000000 I-0.687073 J0.000000
G02 X29.924500 Y12.505643 Z-1.000000 I-0.640228 J0.265856
G02 X29.700990 Y12.358501 Z-1.000000 I-0.488435 J0.498610
G02 X29.440808 Y12.307205 Z-1.000000 I-0.260182 J0.634192
G02 X29.176646 Y12.358877 Z-1.000000 I-0.000000 J0.701070
G02 X28.952982 Y12.505643 Z-1.000000 I0.260932 J0.641457
G02 X28.806217 Y12.729307 Z-1.000000 I0.494693 J0.484595
G02 X28.754545 Y12.993469 Z-1.000000 I0.649401 J0.264162
G01 X28.754545 Y12.993469 Z-1.000000
G00 Z5.000000

(End cutting path id: path38)


(Start cutting path id: path38)
(Change tool to Cone cutter)

G00 Z5.000000
G00 X28.754545 Y12.993469

G01 Z-1.000000 F100.0(Penetrate)
G02 X28.807017 Y13.252537 Z-1.000000 I0.665774 J-0.000000 F200.000000
G02 X28.957117 Y13.473026 Z-1.000000 I0.624503 J-0.263799
G02 X29.180627 Y13.620168 Z-1.000000 I0.488432 J-0.498605
G02 X29.440808 Y13.671464 Z-1.000000 I0.260181 J-0.634190
G02 X29.700327 Y13.619315 Z-1.000000 I0.000000 J-0.671817
G02 X29.924500 Y13.468892 Z-1.000000 I-0.269929 J-0.644525
G02 X30.074990 Y13.248566 Z-1.000000 I-0.478270 J-0.488232
G02 X30.127071 Y12.993469 Z-1.000000 I-0.598699 J-0.255097
G02 X30.074537 Y12.729975 Z-1.000000 I-0.687073 J0.000000
G02 X29.924500 Y12.505643 Z-1.000000 I-0.640228 J0.265856
G02 X29.700990 Y12.358501 Z-1.000000 I-0.488435 J0.498610
G02 X29.440808 Y12.307205 Z-1.000000 I-0.260182 J0.634192
G02 X29.176646 Y12.358877 Z-1.000000 I-0.000000 J0.701070
G02 X28.952982 Y12.505643 Z-1.000000 I0.260932 J0.641457
G02 X28.806217 Y12.729307 Z-1.000000 I0.494693 J0.484595
G02 X28.754545 Y12.993469 Z-1.000000 I0.649401 J0.264162
G01 X28.754545 Y12.993469 Z-1.000000
G00 Z5.000000

(End cutting path id: path38)


(Start cutting path id: path34)
(Change tool to Cone cutter)

G00 Z5.000000
G00 X22.466556 Y18.276869

G01 Z-1.000000 F100.0(Penetrate)
G01 X23.669584 Y18.276869 Z-1.000000 F200.000000
G01 X23.669584 Y12.451899 Z-1.000000
G01 X22.466556 Y12.451899 Z-1.000000
G01 X22.466556 Y18.276869 Z-1.000000
G00 Z5.000000

(End cutting path id: path34)


(Start cutting path id: path34)
(Change tool to Cone cutter)

G00 Z5.000000
G00 X22.466556 Y18.276869

G01 Z-1.000000 F100.0(Penetrate)
G01 X23.669584 Y18.276869 Z-1.000000 F200.000000
G01 X23.669584 Y12.451899 Z-1.000000
G01 X22.466556 Y12.451899 Z-1.000000
G01 X22.466556 Y18.276869 Z-1.000000
G00 Z5.000000

(End cutting path id: path34)


(Start cutting path id: path32)
(Change tool to Cone cutter)

G00 Z5.000000
G00 X20.668216 Y16.255286

G01 Z-1.000000 F100.0(Penetrate)
G01 X20.668216 Y15.618632 Z-1.000000 F200.000000
G01 X20.684756 Y15.618632 Z-1.000000
G02 X21.196155 Y16.221643 Z-1.000000 I1.917727 J-1.108019
G02 X21.590127 Y16.362773 Z-1.000000 I0.393972 J-0.479332
G02 X21.659968 Y16.358334 Z-1.000000 I-0.000000 J-0.551628
G02 X21.784431 Y16.337973 Z-1.000000 I-0.226827 J-1.777154
G01 X21.784431 Y15.159750 Z-1.000000
G03 X21.564607 Y15.188468 Z-1.000000 I-0.484470 J-2.852764
G03 X21.379287 Y15.196960 Z-1.000000 I-0.185320 J-2.017772
G03 X20.935640 Y14.979149 Z-1.000000 I-0.000000 J-0.560726
G03 X20.717829 Y14.341198 Z-1.000000 I0.825350 J-0.637951
G01 X20.717829 Y12.451906 Z-1.000000
G01 X19.518935 Y12.451906 Z-1.000000
G01 X19.518935 Y16.255293 Z-1.000000
G01 X20.668216 Y16.255286 Z-1.000000
G00 Z5.000000

(End cutting path id: path32)


(Start cutting path id: path32)
(Change tool to Cone cutter)

G00 Z5.000000
G00 X20.668216 Y16.255286

G01 Z-1.000000 F100.0(Penetrate)
G01 X20.668216 Y15.618632 Z-1.000000 F200.000000
G01 X20.684756 Y15.618632 Z-1.000000
G02 X21.196155 Y16.221643 Z-1.000000 I1.917727 J-1.108019
G02 X21.590127 Y16.362773 Z-1.000000 I0.393972 J-0.479332
G02 X21.659968 Y16.358334 Z-1.000000 I-0.000000 J-0.551628
G02 X21.784431 Y16.337973 Z-1.000000 I-0.226827 J-1.777154
G01 X21.784431 Y15.159750 Z-1.000000
G03 X21.564607 Y15.188468 Z-1.000000 I-0.484470 J-2.852764
G03 X21.379287 Y15.196960 Z-1.000000 I-0.185320 J-2.017772
G03 X20.935640 Y14.979149 Z-1.000000 I-0.000000 J-0.560726
G03 X20.717829 Y14.341198 Z-1.000000 I0.825350 J-0.637951
G01 X20.717829 Y12.451906 Z-1.000000
G01 X19.518935 Y12.451906 Z-1.000000
G01 X19.518935 Y16.255293 Z-1.000000
G01 X20.668216 Y16.255286 Z-1.000000
G00 Z5.000000

(End cutting path id: path32)


(Start cutting path id: path30)
(Change tool to Cone cutter)

G00 Z5.000000
G00 X17.129412 Y16.387578

G01 Z-1.000000 F100.0(Penetrate)
G02 X17.875766 Y16.230985 Z-1.000000 I-0.000000 J-1.856934 F200.000000
G02 X18.382049 Y15.837741 Z-1.000000 I-0.527411 J-1.201547
G02 X18.682979 Y15.247318 Z-1.000000 I-1.336849 J-1.053274
G02 X18.811997 Y14.316386 Z-1.000000 I-3.294068 J-0.930932
G02 X18.678338 Y13.410552 Z-1.000000 I-3.136328 J-0.000000
G02 X18.365512 Y12.836372 Z-1.000000 I-1.531216 J0.461931
G02 X17.851874 Y12.461481 Z-1.000000 I-1.051381 J0.901184
G02 X17.129412 Y12.315474 Z-1.000000 I-0.722462 J1.714415
G02 X16.440936 Y12.461234 Z-1.000000 I0.000000 J1.698835
G02 X15.926384 Y12.848775 Z-1.000000 I0.576853 J1.301274
G02 X15.614821 Y13.429258 Z-1.000000 I1.277136 J1.059332
G02 X15.484033 Y14.316386 Z-1.000000 I2.943269 J0.887128
G02 X15.610855 Y15.248747 Z-1.000000 I3.490633 J0.000000
G02 X15.905713 Y15.837741 Z-1.000000 I1.648339 J-0.456877
G02 X16.407414 Y16.232825 Z-1.000000 I1.041708 J-0.806737
G02 X17.129412 Y16.387578 Z-1.000000 I0.721998 J-1.606854
G01 X17.129412 Y16.387578 Z-1.000000
G00 Z5.000000

(End cutting path id: path30)


(Start cutting path id: path30)
(Change tool to Cone cutter)

G00 Z5.000000
G00 X17.129412 Y16.387578

G01 Z-1.000000 F100.0(Penetrate)
G02 X17.875766 Y16.230985 Z-1.000000 I-0.000000 J-1.856934 F200.000000
G02 X18.382049 Y15.837741 Z-1.000000 I-0.527411 J-1.201547
G02 X18.682979 Y15.247318 Z-1.000000 I-1.336849 J-1.053274
G02 X18.811997 Y14.316386 Z-1.000000 I-3.294068 J-0.930932
G02 X18.678338 Y13.410552 Z-1.000000 I-3.136328 J-0.000000
G02 X18.365512 Y12.836372 Z-1.000000 I-1.531216 J0.461931
G02 X17.851874 Y12.461481 Z-1.000000 I-1.051381 J0.901184
G02 X17.129412 Y12.315474 Z-1.000000 I-0.722462 J1.714415
G02 X16.440936 Y12.461234 Z-1.000000 I0.000000 J1.698835
G02 X15.926384 Y12.848775 Z-1.000000 I0.576853 J1.301274
G02 X15.614821 Y13.429258 Z-1.000000 I1.277136 J1.059332
G02 X15.484033 Y14.316386 Z-1.000000 I2.943269 J0.887128
G02 X15.610855 Y15.248747 Z-1.000000 I3.490633 J0.000000
G02 X15.905713 Y15.837741 Z-1.000000 I1.648339 J-0.456877
G02 X16.407414 Y16.232825 Z-1.000000 I1.041708 J-0.806737
G02 X17.129412 Y16.387578 Z-1.000000 I0.721998 J-1.606854
G01 X17.129412 Y16.387578 Z-1.000000
G00 Z5.000000

(End cutting path id: path30)


(Start cutting path id: path30)
(Change tool to Cone cutter)

G00 Z5.000000
G00 X17.137712 Y13.390344

G01 Z-1.000000 F100.0(Penetrate)
G03 X17.338688 Y13.447868 Z-1.000000 I0.000000 J0.379844 F200.000000
G03 X17.489112 Y13.609452 Z-1.000000 I-0.224138 J0.359467
G03 X17.567718 Y13.839116 Z-1.000000 I-0.626074 J0.342568
G03 X17.609001 Y14.357727 Z-1.000000 I-3.236858 J0.518611
G03 X17.568765 Y14.872441 Z-1.000000 I-3.312357 J-0.000000
G03 X17.493246 Y15.093600 Z-1.000000 I-0.670436 J-0.105462
G03 X17.344603 Y15.248865 Z-1.000000 I-0.364366 J-0.200044
G03 X17.145980 Y15.304440 Z-1.000000 I-0.198623 J-0.327143
G03 X16.949706 Y15.250446 Z-1.000000 I0.000000 J-0.383734
G03 X16.798714 Y15.097734 Z-1.000000 I0.218444 J-0.366986
G03 X16.721338 Y14.883524 Z-1.000000 I0.525023 J-0.310726
G03 X16.678825 Y14.349459 Z-1.000000 I3.333315 J-0.534065
G03 X16.856206 Y13.567725 Z-1.000000 I1.811275 J-0.000000
G03 X17.137712 Y13.390344 Z-1.000000 I0.281506 J0.134686
G01 X17.137712 Y13.390344 Z-1.000000
G00 Z5.000000

(End cutting path id: path30)


(Start cutting path id: path30)
(Change tool to Cone cutter)

G00 Z5.000000
G00 X17.137712 Y13.390344

G01 Z-1.000000 F100.0(Penetrate)
G03 X17.338688 Y13.447868 Z-1.000000 I0.000000 J0.379844 F200.000000
G03 X17.489112 Y13.609452 Z-1.000000 I-0.224138 J0.359467
G03 X17.567718 Y13.839116 Z-1.000000 I-0.626074 J0.342568
G03 X17.609001 Y14.357727 Z-1.000000 I-3.236858 J0.518611
G03 X17.568765 Y14.872441 Z-1.000000 I-3.312357 J-0.000000
G03 X17.493246 Y15.093600 Z-1.000000 I-0.670436 J-0.105462
G03 X17.344603 Y15.248865 Z-1.000000 I-0.364366 J-0.200044
G03 X17.145980 Y15.304440 Z-1.000000 I-0.198623 J-0.327143
G03 X16.949706 Y15.250446 Z-1.000000 I0.000000 J-0.383734
G03 X16.798714 Y15.097734 Z-1.000000 I0.218444 J-0.366986
G03 X16.721338 Y14.883524 Z-1.000000 I0.525023 J-0.310726
G03 X16.678825 Y14.349459 Z-1.000000 I3.333315 J-0.534065
G03 X16.856206 Y13.567725 Z-1.000000 I1.811275 J-0.000000
G03 X17.137712 Y13.390344 Z-1.000000 I0.281506 J0.134686
G01 X17.137712 Y13.390344 Z-1.000000
G00 Z5.000000

(End cutting path id: path30)


(Start cutting path id: path28)
(Change tool to Cone cutter)

G00 Z5.000000
G00 X9.059617 Y17.970945

G01 Z-1.000000 F100.0(Penetrate)
G01 X10.262645 Y17.970945 Z-1.000000 F200.000000
G01 X10.973713 Y14.642981 Z-1.000000
G01 X10.990253 Y14.642981 Z-1.000000
G01 X11.635175 Y17.970945 Z-1.000000
G01 X12.726582 Y17.970945 Z-1.000000
G01 X13.379772 Y14.680188 Z-1.000000
G01 X13.396312 Y14.680188 Z-1.000000
G01 X14.074300 Y17.970945 Z-1.000000
G01 X15.310400 Y17.970945 Z-1.000000
G01 X13.987483 Y12.451899 Z-1.000000
G01 X12.854735 Y12.451899 Z-1.000000
G01 X12.329703 Y14.919967 Z-1.000000
G02 X12.248587 Y15.326159 Z-1.000000 I14.469908 J3.100825
G02 X12.185009 Y15.701315 Z-1.000000 I12.279170 J2.273919
G01 X12.168469 Y15.701315 Z-1.000000
G02 X12.061198 Y15.061257 Z-1.000000 I-52.186242 J8.417144
G02 X12.019641 Y14.845553 Z-1.000000 I-5.966739 J1.037693
G01 X11.498742 Y12.451899 Z-1.000000
G01 X10.382531 Y12.451899 Z-1.000000
G01 X9.059617 Y17.970945 Z-1.000000
G00 Z5.000000

(End cutting path id: path28)


(Start cutting path id: path28)
(Change tool to Cone cutter)

G00 Z5.000000
G00 X9.059617 Y17.970945

G01 Z-1.000000 F100.0(Penetrate)
G01 X10.262645 Y17.970945 Z-1.000000 F200.000000
G01 X10.973713 Y14.642981 Z-1.000000
G01 X10.990253 Y14.642981 Z-1.000000
G01 X11.635175 Y17.970945 Z-1.000000
G01 X12.726582 Y17.970945 Z-1.000000
G01 X13.379772 Y14.680188 Z-1.000000
G01 X13.396312 Y14.680188 Z-1.000000
G01 X14.074300 Y17.970945 Z-1.000000
G01 X15.310400 Y17.970945 Z-1.000000
G01 X13.987483 Y12.451899 Z-1.000000
G01 X12.854735 Y12.451899 Z-1.000000
G01 X12.329703 Y14.919967 Z-1.000000
G02 X12.248587 Y15.326159 Z-1.000000 I14.469908 J3.100825
G02 X12.185009 Y15.701315 Z-1.000000 I12.279170 J2.273919
G01 X12.168469 Y15.701315 Z-1.000000
G02 X12.061198 Y15.061257 Z-1.000000 I-52.186242 J8.417144
G02 X12.019641 Y14.845553 Z-1.000000 I-5.966739 J1.037693
G01 X11.498742 Y12.451899 Z-1.000000
G01 X10.382531 Y12.451899 Z-1.000000
G01 X9.059617 Y17.970945 Z-1.000000
G00 Z5.000000

(End cutting path id: path28)


(Start cutting path id: path20)
(Change tool to Cone cutter)

G00 Z5.000000
G00 X16.021468 Y24.436240

G01 Z-1.000000 F100.0(Penetrate)
G01 X17.034327 Y24.436240 Z-1.000000 F200.000000
G02 X16.475688 Y23.491493 Z-1.000000 I-1.744268 J0.393867
G02 X15.587386 Y23.154664 Z-1.000000 I-0.888302 J1.002921
G02 X14.936954 Y23.302723 Z-1.000000 I-0.000000 J1.502718
G02 X14.442236 Y23.704501 Z-1.000000 I0.593701 J1.236507
G02 X14.146652 Y24.297125 Z-1.000000 I1.379943 J1.058302
G02 X14.020556 Y25.221722 Z-1.000000 I3.326736 J0.924597
G02 X14.143513 Y26.080735 Z-1.000000 I3.062130 J0.000000
G02 X14.442236 Y26.664529 Z-1.000000 I1.678560 J-0.490582
G02 X14.934979 Y27.065512 Z-1.000000 I1.103333 J-0.852576
G02 X15.562581 Y27.210232 Z-1.000000 I0.627602 J-1.288485
G02 X15.964553 Y27.146266 Z-1.000000 I0.000000 J-1.295006
G02 X16.372868 Y26.945649 Z-1.000000 I-0.502168 J-1.537892
G02 X16.707400 Y26.641066 Z-1.000000 I-0.853385 J-1.273301
G02 X16.939242 Y26.251117 Z-1.000000 I-1.194461 J-0.974054
G02 X17.060865 Y25.805338 Z-1.000000 I-1.751990 J-0.717482
G02 X17.137680 Y24.882725 Z-1.000000 I-7.521392 J-1.090718
G01 X15.132633 Y24.882725 Z-1.000000
G03 X15.319751 Y24.202360 Z-1.000000 I1.488963 J0.043589
G03 X15.603923 Y24.035231 Z-1.000000 I0.284172 J0.158028
G03 X15.745901 Y24.063149 Z-1.000000 I-0.000000 J0.374974
G03 X15.876774 Y24.146852 Z-1.000000 I-0.163657 J0.400050
G03 X15.970487 Y24.272097 Z-1.000000 I-0.299785 J0.321994
G03 X16.021468 Y24.436240 Z-1.000000 I-0.475094 J0.237547
G01 X16.021468 Y24.436240 Z-1.000000
G00 Z5.000000

(End cutting path id: path20)


(Start cutting path id: path20)
(Change tool to Cone cutter)

G00 Z5.000000
G00 X16.021468 Y24.436240

G01 Z-1.000000 F100.0(Penetrate)
G01 X17.034327 Y24.436240 Z-1.000000 F200.000000
G02 X16.475688 Y23.491493 Z-1.000000 I-1.744268 J0.393867
G02 X15.587386 Y23.154664 Z-1.000000 I-0.888302 J1.002921
G02 X14.936954 Y23.302723 Z-1.000000 I-0.000000 J1.502718
G02 X14.442236 Y23.704501 Z-1.000000 I0.593701 J1.236507
G02 X14.146652 Y24.297125 Z-1.000000 I1.379943 J1.058302
G02 X14.020556 Y25.221722 Z-1.000000 I3.326736 J0.924597
G02 X14.143513 Y26.080735 Z-1.000000 I3.062130 J0.000000
G02 X14.442236 Y26.664529 Z-1.000000 I1.678560 J-0.490582
G02 X14.934979 Y27.065512 Z-1.000000 I1.103333 J-0.852576
G02 X15.562581 Y27.210232 Z-1.000000 I0.627602 J-1.288485
G02 X15.964553 Y27.146266 Z-1.000000 I0.000000 J-1.295006
G02 X16.372868 Y26.945649 Z-1.000000 I-0.502168 J-1.537892
G02 X16.707400 Y26.641066 Z-1.000000 I-0.853385 J-1.273301
G02 X16.939242 Y26.251117 Z-1.000000 I-1.194461 J-0.974054
G02 X17.060865 Y25.805338 Z-1.000000 I-1.751990 J-0.717482
G02 X17.137680 Y24.882725 Z-1.000000 I-7.521392 J-1.090718
G01 X15.132633 Y24.882725 Z-1.000000
G03 X15.319751 Y24.202360 Z-1.000000 I1.488963 J0.043589
G03 X15.603923 Y24.035231 Z-1.000000 I0.284172 J0.158028
G03 X15.745901 Y24.063149 Z-1.000000 I-0.000000 J0.374974
G03 X15.876774 Y24.146852 Z-1.000000 I-0.163657 J0.400050
G03 X15.970487 Y24.272097 Z-1.000000 I-0.299785 J0.321994
G03 X16.021468 Y24.436240 Z-1.000000 I-0.475094 J0.237547
G01 X16.021468 Y24.436240 Z-1.000000
G00 Z5.000000

(End cutting path id: path20)


(Start cutting path id: path20)
(Change tool to Cone cutter)

G00 Z5.000000
G00 X15.149170 Y25.535915

G01 Z-1.000000 F100.0(Penetrate)
G01 X16.021468 Y25.535915 Z-1.000000 F200.000000
G03 X15.978552 Y25.928940 Z-1.000000 I-2.540566 J-0.078559
G03 X15.909847 Y26.127093 Z-1.000000 I-0.702829 J-0.132702
G03 X15.778765 Y26.269351 Z-1.000000 I-0.320163 J-0.163489
G03 X15.595654 Y26.321397 Z-1.000000 I-0.183111 J-0.296094
G03 X15.387014 Y26.268477 Z-1.000000 I0.000000 J-0.437744
G03 X15.252523 Y26.135362 Z-1.000000 I0.161250 J-0.297416
G03 X15.183780 Y25.940358 Z-1.000000 I0.539898 J-0.299943
G03 X15.149170 Y25.535915 Z-1.000000 I2.345765 J-0.404443
G01 X15.149170 Y25.535915 Z-1.000000
G00 Z5.000000

(End cutting path id: path20)


(Start cutting path id: path20)
(Change tool to Cone cutter)

G00 Z5.000000
G00 X15.149170 Y25.535915

G01 Z-1.000000 F100.0(Penetrate)
G01 X16.021468 Y25.535915 Z-1.000000 F200.000000
G03 X15.978552 Y25.928940 Z-1.000000 I-2.540566 J-0.078559
G03 X15.909847 Y26.127093 Z-1.000000 I-0.702829 J-0.132702
G03 X15.778765 Y26.269351 Z-1.000000 I-0.320163 J-0.163489
G03 X15.595654 Y26.321397 Z-1.000000 I-0.183111 J-0.296094
G03 X15.387014 Y26.268477 Z-1.000000 I0.000000 J-0.437744
G03 X15.252523 Y26.135362 Z-1.000000 I0.161250 J-0.297416
G03 X15.183780 Y25.940358 Z-1.000000 I0.539898 J-0.299943
G03 X15.149170 Y25.535915 Z-1.000000 I2.345765 J-0.404443
G01 X15.149170 Y25.535915 Z-1.000000
G00 Z5.000000

(End cutting path id: path20)


(Start cutting path id: path22)
(Change tool to Cone cutter)

G00 Z5.000000
G00 X17.873553 Y29.099523

G01 Z-1.000000 F100.0(Penetrate)
G01 X19.076580 Y29.099523 Z-1.000000 F200.000000
G01 X19.076580 Y23.274553 Z-1.000000
G01 X17.873553 Y23.274553 Z-1.000000
G01 X17.873553 Y29.099523 Z-1.000000
G00 Z5.000000

(End cutting path id: path22)


(Start cutting path id: path22)
(Change tool to Cone cutter)

G00 Z5.000000
G00 X17.873553 Y29.099523

G01 Z-1.000000 F100.0(Penetrate)
G01 X19.076580 Y29.099523 Z-1.000000 F200.000000
G01 X19.076580 Y23.274553 Z-1.000000
G01 X17.873553 Y23.274553 Z-1.000000
G01 X17.873553 Y29.099523 Z-1.000000
G00 Z5.000000

(End cutting path id: path22)


(Start cutting path id: path24)
(Change tool to Cone cutter)

G00 Z5.000000
G00 X20.056365 Y29.099523

G01 Z-1.000000 F100.0(Penetrate)
G01 X21.259393 Y29.099523 Z-1.000000 F200.000000
G01 X21.259393 Y23.274553 Z-1.000000
G01 X20.056365 Y23.274553 Z-1.000000
G01 X20.056365 Y29.099523 Z-1.000000
G00 Z5.000000

(End cutting path id: path24)


(Start cutting path id: path24)
(Change tool to Cone cutter)

G00 Z5.000000
G00 X20.056365 Y29.099523

G01 Z-1.000000 F100.0(Penetrate)
G01 X21.259393 Y29.099523 Z-1.000000 F200.000000
G01 X21.259393 Y23.274553 Z-1.000000
G01 X20.056365 Y23.274553 Z-1.000000
G01 X20.056365 Y29.099523 Z-1.000000
G00 Z5.000000

(End cutting path id: path24)


(Start cutting path id: path26)
(Change tool to Cone cutter)

G00 Z5.000000
G00 X23.636510 Y27.210232

G01 Z-1.000000 F100.0(Penetrate)
G02 X24.382864 Y27.053639 Z-1.000000 I0.000000 J-1.856931 F200.000000
G02 X24.889147 Y26.660394 Z-1.000000 I-0.527413 J-1.201547
G02 X25.190078 Y26.069972 Z-1.000000 I-1.336842 J-1.053272
G02 X25.319096 Y25.139040 Z-1.000000 I-3.294057 J-0.930932
G02 X25.185437 Y24.233206 Z-1.000000 I-3.136328 J-0.000000
G02 X24.872611 Y23.659026 Z-1.000000 I-1.531216 J0.461931
G02 X24.358972 Y23.284134 Z-1.000000 I-1.051385 J0.901187
G02 X23.636510 Y23.138127 Z-1.000000 I-0.722462 J1.714413
G02 X22.948035 Y23.283887 Z-1.000000 I0.000000 J1.698833
G02 X22.433482 Y23.671428 Z-1.000000 I0.576855 J1.301279
G02 X22.121920 Y24.251911 Z-1.000000 I1.277137 J1.059330
G02 X21.991132 Y25.139040 Z-1.000000 I2.943282 J0.887129
G02 X22.117954 Y26.071401 Z-1.000000 I3.490631 J0.000000
G02 X22.412812 Y26.660394 Z-1.000000 I1.648333 J-0.456875
G02 X22.914514 Y27.055479 Z-1.000000 I1.041710 J-0.806737
G02 X23.636510 Y27.210232 Z-1.000000 I0.721996 J-1.606847
G01 X23.636510 Y27.210232 Z-1.000000
G00 Z5.000000

(End cutting path id: path26)


(Start cutting path id: path26)
(Change tool to Cone cutter)

G00 Z5.000000
G00 X23.636510 Y27.210232

G01 Z-1.000000 F100.0(Penetrate)
G02 X24.382864 Y27.053639 Z-1.000000 I0.000000 J-1.856931 F200.000000
G02 X24.889147 Y26.660394 Z-1.000000 I-0.527413 J-1.201547
G02 X25.190078 Y26.069972 Z-1.000000 I-1.336842 J-1.053272
G02 X25.319096 Y25.139040 Z-1.000000 I-3.294057 J-0.930932
G02 X25.185437 Y24.233206 Z-1.000000 I-3.136328 J-0.000000
G02 X24.872611 Y23.659026 Z-1.000000 I-1.531216 J0.461931
G02 X24.358972 Y23.284134 Z-1.000000 I-1.051385 J0.901187
G02 X23.636510 Y23.138127 Z-1.000000 I-0.722462 J1.714413
G02 X22.948035 Y23.283887 Z-1.000000 I0.000000 J1.698833
G02 X22.433482 Y23.671428 Z-1.000000 I0.576855 J1.301279
G02 X22.121920 Y24.251911 Z-1.000000 I1.277137 J1.059330
G02 X21.991132 Y25.139040 Z-1.000000 I2.943282 J0.887129
G02 X22.117954 Y26.071401 Z-1.000000 I3.490631 J0.000000
G02 X22.412812 Y26.660394 Z-1.000000 I1.648333 J-0.456875
G02 X22.914514 Y27.055479 Z-1.000000 I1.041710 J-0.806737
G02 X23.636510 Y27.210232 Z-1.000000 I0.721996 J-1.606847
G01 X23.636510 Y27.210232 Z-1.000000
G00 Z5.000000

(End cutting path id: path26)


(Start cutting path id: path26)
(Change tool to Cone cutter)

G00 Z5.000000
G00 X23.644810 Y24.212998

G01 Z-1.000000 F100.0(Penetrate)
G03 X23.845787 Y24.270522 Z-1.000000 I0.000000 J0.379846 F200.000000
G03 X23.996210 Y24.432106 Z-1.000000 I-0.224136 J0.359464
G03 X24.074817 Y24.661770 Z-1.000000 I-0.626070 J0.342569
G03 X24.116100 Y25.180381 Z-1.000000 I-3.236830 J0.518611
G03 X24.075864 Y25.695095 Z-1.000000 I-3.312328 J-0.000000
G03 X24.000344 Y25.916254 Z-1.000000 I-0.670433 J-0.105462
G03 X23.851701 Y26.071518 Z-1.000000 I-0.364365 J-0.200044
G03 X23.653079 Y26.127093 Z-1.000000 I-0.198622 J-0.327142
G03 X23.456804 Y26.073099 Z-1.000000 I-0.000000 J-0.383737
G03 X23.305813 Y25.920388 Z-1.000000 I0.218440 J-0.366981
G03 X23.228437 Y25.706178 Z-1.000000 I0.525023 J-0.310726
G03 X23.185924 Y25.172113 Z-1.000000 I3.333315 J-0.534065
G03 X23.363305 Y24.390379 Z-1.000000 I1.811279 J-0.000000
G03 X23.644810 Y24.212998 Z-1.000000 I0.281505 J0.134685
G01 X23.644810 Y24.212998 Z-1.000000
G00 Z5.000000

(End cutting path id: path26)


(Start cutting path id: path26)
(Change tool to Cone cutter)

G00 Z5.000000
G00 X23.644810 Y24.212998

G01 Z-1.000000 F100.0(Penetrate)
G03 X23.845787 Y24.270522 Z-1.000000 I0.000000 J0.379846 F200.000000
G03 X23.996210 Y24.432106 Z-1.000000 I-0.224136 J0.359464
G03 X24.074817 Y24.661770 Z-1.000000 I-0.626070 J0.342569
G03 X24.116100 Y25.180381 Z-1.000000 I-3.236830 J0.518611
G03 X24.075864 Y25.695095 Z-1.000000 I-3.312328 J-0.000000
G03 X24.000344 Y25.916254 Z-1.000000 I-0.670433 J-0.105462
G03 X23.851701 Y26.071518 Z-1.000000 I-0.364365 J-0.200044
G03 X23.653079 Y26.127093 Z-1.000000 I-0.198622 J-0.327142
G03 X23.456804 Y26.073099 Z-1.000000 I-0.000000 J-0.383737
G03 X23.305813 Y25.920388 Z-1.000000 I0.218440 J-0.366981
G03 X23.228437 Y25.706178 Z-1.000000 I0.525023 J-0.310726
G03 X23.185924 Y25.172113 Z-1.000000 I3.333315 J-0.534065
G03 X23.363305 Y24.390379 Z-1.000000 I1.811279 J-0.000000
G03 X23.644810 Y24.212998 Z-1.000000 I0.281505 J0.134685
G01 X23.644810 Y24.212998 Z-1.000000
G00 Z5.000000

(End cutting path id: path26)


(Start cutting path id: path18)
(Change tool to Cone cutter)

G00 Z5.000000
G00 X9.568113 Y28.793598

G01 Z-1.000000 F100.0(Penetrate)
G01 X10.820750 Y28.793598 Z-1.000000 F200.000000
G01 X10.820750 Y26.747211 Z-1.000000
G01 X11.932828 Y26.747211 Z-1.000000
G01 X11.932828 Y28.793598 Z-1.000000
G01 X13.185465 Y28.793598 Z-1.000000
G01 X13.185465 Y23.274553 Z-1.000000
G01 X11.932828 Y23.274553 Z-1.000000
G01 X11.932828 Y25.568988 Z-1.000000
G01 X10.820750 Y25.568988 Z-1.000000
G01 X10.820750 Y23.274553 Z-1.000000
G01 X9.568113 Y23.274553 Z-1.000000
G01 X9.568113 Y28.793598 Z-1.000000
G00 Z5.000000

(End cutting path id: path18)


(Start cutting path id: path18)
(Change tool to Cone cutter)

G00 Z5.000000
G00 X9.568113 Y28.793598

G01 Z-1.000000 F100.0(Penetrate)
G01 X10.820750 Y28.793598 Z-1.000000 F200.000000
G01 X10.820750 Y26.747211 Z-1.000000
G01 X11.932828 Y26.747211 Z-1.000000
G01 X11.932828 Y28.793598 Z-1.000000
G01 X13.185465 Y28.793598 Z-1.000000
G01 X13.185465 Y23.274553 Z-1.000000
G01 X11.932828 Y23.274553 Z-1.000000
G01 X11.932828 Y25.568988 Z-1.000000
G01 X10.820750 Y25.568988 Z-1.000000
G01 X10.820750 Y23.274553 Z-1.000000
G01 X9.568113 Y23.274553 Z-1.000000
G01 X9.568113 Y28.793598 Z-1.000000
G00 Z5.000000

(End cutting path id: path18)


(Footer)
M5
G00 X0.0000 Y0.0000
M2
(Using default footer. To add your own footer create file "footer" in the output dir.)
(end)
%