%
(Header)
(Generated by gcodetools from Inkscape.)
(Using default header. To add your own header create file "header" in the output dir.)
M3
(Header end.)
G21 (All units in mm)

(Start cutting path id: path2489)
(Change tool to Cylindrical cutter)

G00 Z5.000000
G00 X19.791016 Y32.126953

G01 Z-1.000000 F100.0(Penetrate)
G01 X3.552734 Y32.089844 Z-1.000000 F400.000000
G01 X3.074219 Y31.761719 Z-1.000000
G03 X2.634614 Y31.396600 Z-1.000000 I1.751633 J-2.556179
G03 X2.269531 Y30.957031 Z-1.000000 I2.192762 J-2.192585
G01 X1.941406 Y30.480469 Z-1.000000
G01 X1.900390 Y22.050781 Z-1.000000
G03 X1.929786 Y13.631067 Z-1.000000 I504.160485 J-2.449752
G03 X2.005859 Y13.119141 Z-1.000000 I1.912949 J0.022653
G03 X2.508063 Y12.228163 Z-1.000000 I2.153116 J0.626590
G03 X3.431640 Y11.568359 Z-1.000000 I2.031656 J1.867560
G03 X3.862129 Y11.476135 Z-1.000000 I0.440289 J1.004366
G03 X20.208984 Y11.417969 Z-1.000000 I13.580922 J1519.676694
G01 X36.572266 Y11.447269 Z-1.000000
G01 X37.064453 Y11.779300 Z-1.000000
G03 X37.516650 Y12.150437 Z-1.000000 I-1.779266 J2.628930
G03 X37.878906 Y12.583987 Z-1.000000 I-2.088690 J2.113335
G01 X38.203125 Y13.056644 Z-1.000000
G01 X38.242185 Y21.419925 Z-1.000000
G03 X38.242934 Y29.777580 Z-1.000000 I-894.840871 J4.259052
G03 X38.201165 Y30.230472 Z-1.000000 I-2.605571 J-0.011934
G03 X38.049732 Y30.645652 Z-1.000000 I-1.281298 J-0.232134
G03 X37.642578 Y31.207031 Z-1.000000 I-2.811329 J-1.610645
G03 X36.576005 Y31.714092 Z-1.000000 I-1.146059 J-1.035399
G03 X19.791016 Y32.126953 Z-1.000000 I-16.066356 J-311.777007
G01 X19.791016 Y32.126953 Z-1.000000
G00 Z5.000000

(End cutting path id: path2489)


(Start cutting path id: path2489)
(Change tool to Cylindrical cutter)

G00 Z5.000000
G00 X19.791016 Y32.126953

G01 Z-1.000000 F100.0(Penetrate)
G01 X3.552734 Y32.089844 Z-1.000000 F400.000000
G01 X3.074219 Y31.761719 Z-1.000000
G03 X2.634614 Y31.396600 Z-1.000000 I1.751633 J-2.556179
G03 X2.269531 Y30.957031 Z-1.000000 I2.192762 J-2.192585
G01 X1.941406 Y30.480469 Z-1.000000
G01 X1.900390 Y22.050781 Z-1.000000
G03 X1.929786 Y13.631067 Z-1.000000 I504.160485 J-2.449752
G03 X2.005859 Y13.119141 Z-1.000000 I1.912949 J0.022653
G03 X2.508063 Y12.228163 Z-1.000000 I2.153116 J0.626590
G03 X3.431640 Y11.568359 Z-1.000000 I2.031656 J1.867560
G03 X3.862129 Y11.476135 Z-1.000000 I0.440289 J1.004366
G03 X20.208984 Y11.417969 Z-1.000000 I13.580922 J1519.676694
G01 X36.572266 Y11.447269 Z-1.000000
G01 X37.064453 Y11.779300 Z-1.000000
G03 X37.516650 Y12.150437 Z-1.000000 I-1.779266 J2.628930
G03 X37.878906 Y12.583987 Z-1.000000 I-2.088690 J2.113335
G01 X38.203125 Y13.056644 Z-1.000000
G01 X38.242185 Y21.419925 Z-1.000000
G03 X38.242934 Y29.777580 Z-1.000000 I-894.840871 J4.259052
G03 X38.201165 Y30.230472 Z-1.000000 I-2.605571 J-0.011934
G03 X38.049732 Y30.645652 Z-1.000000 I-1.281298 J-0.232134
G03 X37.642578 Y31.207031 Z-1.000000 I-2.811329 J-1.610645
G03 X36.576005 Y31.714092 Z-1.000000 I-1.146059 J-1.035399
G03 X19.791016 Y32.126953 Z-1.000000 I-16.066356 J-311.777007
G01 X19.791016 Y32.126953 Z-1.000000
G00 Z5.000000

(End cutting path id: path2489)


(Footer)
M5
G00 X0.0000 Y0.0000
M2
(Using default footer. To add your own footer create file "footer" in the output dir.)
(end)
%